;This Gcode has been generated specifically for the LulzBot Mini
;Basic settings: Layer height: 0.38 Walls: 1 Fill: 20
;Filament Diameter: 2.85
;Nozzle Size: 0.5
G21                          ; metric values
G90                          ; absolute positioning
M82                          ; set extruder to absolute mode
M107                         ; start with the fan off
G92 E0                       ; set extruder position to 0
M140 S60; get bed heating up
G28                          ; home all
M109 S140                    ; set to cleaning temp and wait
G1 Z150 E-30 F75             ; suck up XXmm of filament
M109 S140                    ; heat up rest of way
G1 X45 Y174 F11520           ; move behind scraper
G1 Z0  F1200                 ; CRITICAL: set Z to height of top of scraper
G1 X45 Y174 Z-.5 F4000       ; wiping ; plunge into wipe pad
G1 X55 Y172 Z-.5 F4000       ; wiping
G1 X45 Y174 Z0 F4000         ; wiping
G1 X55 Y172 F4000            ; wiping
G1 X45 Y174 F4000            ; wiping
G1 X55 Y172 F4000            ; wiping
G1 X45 Y174 F4000            ; wiping
G1 X55 Y172 F4000            ; wiping
G1 X60 Y174 F4000            ; wiping
G1 X80 Y172 F4000            ; wiping
G1 X60 Y174 F4000            ; wiping
G1 X80 Y172 F4000            ; wiping
G1 X60 Y174 F4000            ; wiping
G1 X90 Y172 F4000            ; wiping
G1 X80 Y174 F4000            ; wiping
G1 X100 Y172 F4000           ; wiping
G1 X80 Y174 F4000            ; wiping
G1 X100 Y172 F4000           ; wiping
G1 X80 Y174 F4000            ; wiping
G1 X100 Y172 F4000           ; wiping
G1 X110 Y174 F4000           ; wiping
G1 X100 Y172 F4000           ; wiping
G1 X110 Y174 F4000           ; wiping
G1 X100 Y172 F4000           ; wiping
G1 X110 Y174 F4000           ; wiping
G1 X115 Y172 Z-0.5 F1000     ; wipe slower and bury noz in cleanish area
G1 Z10                       ; raise z
G28 X0 Y0                    ; home x and y
M109 S140                    ; set to probing temp
M204 S300                    ; Set probing acceleration
G29                          ; Probe
M204 S2000                   ; Restore standard acceleration
G1 X5 Y15 Z10 F5000          ; get out the way
G4 S1                        ; pause
M400                         ; clear buffer
M109 S205    ; set extruder temp and wait
G4 S15                       ; wait for bed to temp up
G1 Z2 E0 F75                 ; extrude filament back into nozzle
M140 S60; get bed temping up during first layer

;Layer count: 46
;LAYER:0
M107
G0 F10500 X49.313 Y23.174 Z0.425
;TYPE:SKIRT
G1 F900 X155.936 Y23.174 E4.43956
G1 X155.936 Y129.797 E8.87913
G1 X49.313 Y129.797 E13.31869
G1 X49.313 Y23.174 E17.75825
G1 F600 E16.25825
G1 Z0.525
G0 F10500 X53.562 Y27.423
;TYPE:WALL-INNER
G1 Z0.425
G1 F600 E17.75825
G1 F900 X151.687 Y27.423 E21.84398
G1 X151.687 Y125.548 E25.92970
G1 X53.562 Y125.548 E30.01542
G1 X53.562 Y27.423 E34.10115
G0 F10500 X52.937 Y26.798
;TYPE:WALL-OUTER
G1 F900 X152.312 Y26.798 E38.23892
G1 X152.312 Y126.173 E42.37669
G1 X52.937 Y126.173 E46.51446
G1 X52.937 Y26.798 E50.65223
G0 F10500 X53.780 Y27.706
;TYPE:SKIN
G1 F900 X151.402 Y125.328 E56.40070
G0 F10500 X151.467 Y124.510
G1 F900 X54.599 Y27.641 E62.10480
G0 F10500 X55.483 Y27.641
G1 F900 X151.467 Y123.626 E67.75684
G0 F10500 X151.467 Y122.742
G1 F900 X56.367 Y27.641 E73.35683
G0 F10500 X57.250 Y27.641
G1 F900 X151.467 Y121.858 E78.90479
G0 F10500 X151.467 Y120.974
G1 F900 X58.134 Y27.641 E84.40070
G0 F10500 X59.018 Y27.641
G1 F900 X151.467 Y120.090 E89.84456
G0 F10500 X150.518 Y125.328
G1 F900 X53.780 Y28.590 E95.54097
G0 F10500 X53.780 Y29.474
G1 F900 X149.634 Y125.328 E101.18533
G0 F10500 X148.750 Y125.328
G1 F900 X53.780 Y30.358 E106.77763
G0 F10500 X53.780 Y31.242
G1 F900 X147.866 Y125.328 E112.31788
G0 F10500 X146.982 Y125.328
G1 F900 X53.780 Y32.125 E117.80611
G0 F10500 X53.780 Y33.009
G1 F900 X146.098 Y125.328 E123.24228
G0 F10500 X145.214 Y125.328
G1 F900 X53.780 Y33.893 E128.62640
G0 F10500 X53.780 Y34.777
G1 F900 X144.331 Y125.328 E133.95849
G0 F10500 X143.447 Y125.328
G1 F900 X53.780 Y35.661 E139.23852
G0 F10500 X53.780 Y36.545
G1 F900 X142.563 Y125.328 E144.46651
G0 F10500 X141.679 Y125.328
G1 F900 X53.780 Y37.429 E149.64244
G0 F10500 X53.780 Y38.313
G1 F900 X140.795 Y125.328 E154.76631
G0 F10500 X139.911 Y125.328
G1 F900 X53.780 Y39.197 E159.83813
G0 F10500 X59.902 Y27.641
G1 F900 X151.467 Y119.206 E165.22993
G0 F10500 X151.467 Y118.323
G1 F900 X60.786 Y27.641 E170.56971
G0 F10500 X61.670 Y27.641
G1 F900 X151.467 Y117.439 E175.85743
G0 F10500 X151.467 Y116.555
G1 F900 X62.554 Y27.641 E181.09310
G0 F10500 X63.438 Y27.641
G1 F900 X151.467 Y115.671 E186.27671
G0 F10500 X151.467 Y114.787
G1 F900 X64.321 Y27.641 E191.40830
G0 F10500 X65.205 Y27.641
G1 F900 X151.467 Y113.903 E196.48783
G0 F10500 X151.467 Y113.019
G1 F900 X66.089 Y27.641 E201.51531
G0 F10500 X66.973 Y27.641
G1 F900 X151.467 Y112.135 E206.49074
G0 F10500 X151.467 Y111.251
G1 F900 X67.857 Y27.641 E211.41411
G0 F10500 X68.741 Y27.641
G1 F900 X151.467 Y110.368 E216.28545
G0 F10500 X151.467 Y109.484
G1 F900 X69.625 Y27.641 E221.10475
G0 F10500 X70.509 Y27.641
G1 F900 X151.467 Y108.600 E225.87198
G0 F10500 X151.467 Y107.716
G1 F900 X71.393 Y27.641 E230.58717
G0 F10500 X72.276 Y27.641
G1 F900 X151.467 Y106.832 E235.25032
G0 F10500 X151.467 Y105.948
G1 F900 X73.160 Y27.641 E239.86143
G0 F10500 X74.044 Y27.641
G1 F900 X151.467 Y105.064 E244.42048
G0 F10500 X151.467 Y104.180
G1 F900 X74.928 Y27.641 E248.92747
G0 F10500 X75.812 Y27.641
G1 F900 X151.467 Y103.296 E253.38242
G0 F10500 X151.467 Y102.413
G1 F900 X76.696 Y27.641 E257.78533
G0 F10500 X77.580 Y27.641
G1 F900 X151.467 Y101.529 E262.13619
G0 F10500 X151.467 Y100.645
G1 F900 X78.464 Y27.641 E266.43500
G0 F10500 X79.347 Y27.641
G1 F900 X151.467 Y99.761 E270.68178
G0 F10500 X151.467 Y98.877
G1 F900 X80.231 Y27.641 E274.87651
G0 F10500 X81.115 Y27.641
G1 F900 X151.467 Y97.993 E279.01919
G0 F10500 X151.467 Y97.109
G1 F900 X81.999 Y27.641 E283.10981
G0 F10500 X82.883 Y27.641
G1 F900 X151.467 Y96.225 E287.14837
G0 F10500 X151.467 Y95.342
G1 F900 X83.767 Y27.641 E291.13491
G0 F10500 X84.651 Y27.641
G1 F900 X151.467 Y94.458 E295.06940
G0 F10500 X151.467 Y93.574
G1 F900 X85.535 Y27.641 E298.95183
G0 F10500 X86.419 Y27.641
G1 F900 X151.467 Y92.690 E302.78221
G0 F10500 X151.467 Y91.806
G1 F900 X87.302 Y27.641 E306.56056
G0 F10500 X88.186 Y27.641
G1 F900 X151.467 Y90.922 E310.28686
G0 F10500 X151.467 Y90.038
G1 F900 X89.070 Y27.641 E313.96111
G0 F10500 X89.954 Y27.641
G1 F900 X151.467 Y89.154 E317.58330
G0 F10500 X151.467 Y88.270
G1 F900 X90.838 Y27.641 E321.15343
G0 F10500 X91.722 Y27.641
G1 F900 X151.467 Y87.387 E324.67154
G0 F10500 X151.467 Y86.503
G1 F900 X92.606 Y27.641 E328.13760
G0 F10500 X93.490 Y27.641
G1 F900 X151.467 Y85.619 E331.55160
G0 F10500 X151.467 Y84.735
G1 F900 X94.374 Y27.641 E334.91355
G0 F10500 X95.257 Y27.641
G1 F900 X151.467 Y83.851 E338.22347
G0 F10500 X151.467 Y82.967
G1 F900 X96.141 Y27.641 E341.48134
G0 F10500 X97.025 Y27.641
G1 F900 X151.467 Y82.083 E344.68716
G0 F10500 X151.467 Y81.199
G1 F900 X97.909 Y27.641 E347.84092
G0 F10500 X98.793 Y27.641
G1 F900 X151.467 Y80.316 E350.94265
G0 F10500 X151.467 Y79.432
G1 F900 X99.677 Y27.641 E353.99234
G0 F10500 X100.561 Y27.641
G1 F900 X151.467 Y78.548 E356.98996
G0 F10500 X151.467 Y77.664
G1 F900 X101.445 Y27.641 E359.93554
G0 F10500 X102.328 Y27.641
G1 F900 X151.467 Y76.780 E362.82908
G0 F10500 X151.467 Y75.896
G1 F900 X103.212 Y27.641 E365.67058
G0 F10500 X104.096 Y27.641
G1 F900 X151.467 Y75.012 E368.46002
G0 F10500 X151.467 Y74.128
G1 F900 X104.980 Y27.641 E371.19740
G0 F10500 X105.864 Y27.641
G1 F900 X151.467 Y73.244 E373.88273
G0 F10500 X151.467 Y72.361
G1 F900 X106.748 Y27.641 E376.51604
G0 F10500 X107.632 Y27.641
G1 F900 X151.467 Y71.477 E379.09729
G0 F10500 X151.467 Y70.593
G1 F900 X108.516 Y27.641 E381.62649
G0 F10500 X109.400 Y27.641
G1 F900 X151.467 Y69.709 E384.10363
G0 F10500 X151.467 Y68.825
G1 F900 X110.283 Y27.641 E386.52875
G0 F10500 X111.167 Y27.641
G1 F900 X151.467 Y67.941 E388.90181
G0 F10500 X151.467 Y67.057
G1 F900 X112.051 Y27.641 E391.22282
G0 F10500 X112.935 Y27.641
G1 F900 X151.467 Y66.173 E393.49177
G0 F10500 X151.467 Y65.289
G1 F900 X113.819 Y27.641 E395.70868
G0 F10500 X114.703 Y27.641
G1 F900 X151.467 Y64.406 E397.87355
G0 F10500 X151.467 Y63.522
G1 F900 X115.587 Y27.641 E399.98637
G0 F10500 X116.471 Y27.641
G1 F900 X151.467 Y62.638 E402.04714
G0 F10500 X151.467 Y61.754
G1 F900 X117.354 Y27.641 E404.05588
G0 F10500 X118.238 Y27.641
G1 F900 X151.467 Y60.870 E406.01257
G0 F10500 X151.467 Y59.986
G1 F900 X119.122 Y27.641 E407.91720
G0 F10500 X120.006 Y27.641
G1 F900 X151.467 Y59.102 E409.76978
G0 F10500 X151.467 Y58.218
G1 F900 X120.890 Y27.641 E411.57031
G0 F10500 X121.774 Y27.641
G1 F900 X151.467 Y57.335 E413.31881
G0 F10500 X151.467 Y56.451
G1 F900 X122.658 Y27.641 E415.01526
G0 F10500 X123.542 Y27.641
G1 F900 X151.467 Y55.567 E416.65965
G0 F10500 X151.467 Y54.683
G1 F900 X124.426 Y27.641 E418.25198
G0 F10500 X125.309 Y27.641
G1 F900 X151.467 Y53.799 E419.79230
G0 F10500 X151.467 Y52.915
G1 F900 X126.193 Y27.641 E421.28056
G0 F10500 X127.077 Y27.641
G1 F900 X151.467 Y52.031 E422.71676
G0 F10500 X151.467 Y51.147
G1 F900 X127.961 Y27.641 E424.10091
G0 F10500 X128.845 Y27.641
G1 F900 X151.467 Y50.263 E425.43301
G0 F10500 X151.467 Y49.380
G1 F900 X129.729 Y27.641 E426.71308
G0 F10500 X130.613 Y27.641
G1 F900 X151.467 Y48.496 E427.94109
G0 F10500 X151.467 Y47.612
G1 F900 X131.497 Y27.641 E429.11705
G0 F10500 X132.380 Y27.641
G1 F900 X151.467 Y46.728 E430.24099
G0 F10500 X151.467 Y45.844
G1 F900 X133.264 Y27.641 E431.31287
G0 F10500 X134.148 Y27.641
G1 F900 X151.467 Y44.960 E432.33270
G0 F10500 X151.467 Y44.076
G1 F900 X135.032 Y27.641 E433.30048
G0 F10500 X135.916 Y27.641
G1 F900 X151.467 Y43.192 E434.21620
G0 F10500 X151.467 Y42.309
G1 F900 X136.800 Y27.641 E435.07989
G0 F10500 X137.684 Y27.641
G1 F900 X151.467 Y41.425 E435.89153
G0 F10500 X151.467 Y40.541
G1 F900 X138.568 Y27.641 E436.65112
G0 F10500 X139.452 Y27.641
G1 F900 X151.467 Y39.657 E437.35865
G0 F10500 X151.467 Y38.773
G1 F900 X140.335 Y27.641 E438.01416
G0 F10500 X141.219 Y27.641
G1 F900 X151.467 Y37.889 E438.61761
G0 F10500 X151.467 Y37.005
G1 F900 X142.103 Y27.641 E439.16901
G0 F10500 X142.987 Y27.641
G1 F900 X151.467 Y36.121 E439.66835
G0 F10500 X151.467 Y35.237
G1 F900 X143.871 Y27.641 E440.11564
G0 F10500 X144.755 Y27.641
G1 F900 X151.467 Y34.354 E440.51091
G0 F10500 X151.467 Y33.470
G1 F900 X145.639 Y27.641 E440.85412
G0 F10500 X146.523 Y27.641
G1 F900 X151.467 Y32.586 E441.14528
G0 F10500 X151.467 Y31.702
G1 F900 X147.407 Y27.641 E441.38438
G0 F10500 X148.290 Y27.641
G1 F900 X151.467 Y30.818 E441.57146
G0 F10500 X151.467 Y29.934
G1 F900 X149.174 Y27.641 E441.70648
G0 F10500 X150.058 Y27.641
G1 F900 X151.467 Y29.050 E441.78945
G0 F10500 X151.467 Y28.166
G1 F900 X150.942 Y27.641 E441.82036
G0 F10500 X53.780 Y40.080
G1 F900 X139.027 Y125.328 E446.84016
G0 F10500 X138.143 Y125.328
G1 F900 X53.780 Y40.964 E451.80790
G0 F10500 X53.780 Y41.848
G1 F900 X137.260 Y125.328 E456.72362
G0 F10500 X136.376 Y125.328
G1 F900 X53.780 Y42.732 E461.58728
G0 F10500 X53.780 Y43.616
G1 F900 X135.492 Y125.328 E466.39889
G0 F10500 X134.608 Y125.328
G1 F900 X53.780 Y44.500 E471.15844
G0 F10500 X53.780 Y45.384
G1 F900 X133.724 Y125.328 E475.86594
G0 F10500 X132.840 Y125.328
G1 F900 X53.780 Y46.268 E480.52138
G0 F10500 X53.780 Y47.152
G1 F900 X131.956 Y125.328 E485.12477
G0 F10500 X131.072 Y125.328
G1 F900 X53.780 Y48.035 E489.67614
G0 F10500 X53.780 Y48.919
G1 F900 X130.188 Y125.328 E494.17545
G0 F10500 X129.305 Y125.328
G1 F900 X53.780 Y49.803 E498.62273
G0 F10500 X53.780 Y50.687
G1 F900 X128.421 Y125.328 E503.01797
G0 F10500 X127.537 Y125.328
G1 F900 X53.780 Y51.571 E507.36114
G0 F10500 X53.780 Y52.455
G1 F900 X126.653 Y125.328 E511.65227
G0 F10500 X125.769 Y125.328
G1 F900 X53.780 Y53.339 E515.89134
G0 F10500 X53.780 Y54.223
G1 F900 X124.885 Y125.328 E520.07835
G0 F10500 X124.001 Y125.328
G1 F900 X53.780 Y55.106 E524.21334
G0 F10500 X53.780 Y55.990
G1 F900 X123.117 Y125.328 E528.29628
G0 F10500 X122.234 Y125.328
G1 F900 X53.780 Y56.874 E532.32719
G0 F10500 X53.780 Y57.758
G1 F900 X121.350 Y125.328 E536.30604
G0 F10500 X120.466 Y125.328
G1 F900 X53.780 Y58.642 E540.23285
G0 F10500 X53.780 Y59.526
G1 F900 X119.582 Y125.328 E544.10759
G0 F10500 X118.698 Y125.328
G1 F900 X53.780 Y60.410 E547.93029
G0 F10500 X53.780 Y61.294
G1 F900 X117.814 Y125.328 E551.70093
G0 F10500 X116.930 Y125.328
G1 F900 X53.780 Y62.178 E555.41951
G0 F10500 X53.780 Y63.061
G1 F900 X116.046 Y125.328 E559.08607
G0 F10500 X115.162 Y125.328
G1 F900 X53.780 Y63.945 E562.70058
G0 F10500 X53.780 Y64.829
G1 F900 X114.279 Y125.328 E566.26306
G0 F10500 X113.395 Y125.328
G1 F900 X53.780 Y65.713 E569.77348
G0 F10500 X53.780 Y66.597
G1 F900 X112.511 Y125.328 E573.23186
G0 F10500 X111.627 Y125.328
G1 F900 X53.780 Y67.481 E576.63817
G0 F10500 X53.780 Y68.365
G1 F900 X110.743 Y125.328 E579.99244
G0 F10500 X109.859 Y125.328
G1 F900 X53.780 Y69.249 E583.29465
G0 F10500 X53.780 Y70.132
G1 F900 X108.975 Y125.328 E586.54483
G0 F10500 X108.091 Y125.328
G1 F900 X53.780 Y71.016 E589.74296
G0 F10500 X53.780 Y71.900
G1 F900 X107.207 Y125.328 E592.88904
G0 F10500 X106.324 Y125.328
G1 F900 X53.780 Y72.784 E595.98309
G0 F10500 X53.780 Y73.668
G1 F900 X105.440 Y125.328 E599.02509
G0 F10500 X104.556 Y125.328
G1 F900 X53.780 Y74.552 E602.01503
G0 F10500 X53.780 Y75.436
G1 F900 X103.672 Y125.328 E604.95292
G0 F10500 X102.788 Y125.328
G1 F900 X53.780 Y76.320 E607.83875
G0 F10500 X53.780 Y77.204
G1 F900 X101.904 Y125.328 E610.67253
G0 F10500 X101.020 Y125.328
G1 F900 X53.780 Y78.087 E613.45428
G0 F10500 X53.780 Y78.971
G1 F900 X100.136 Y125.328 E616.18398
G0 F10500 X99.253 Y125.328
G1 F900 X53.780 Y79.855 E618.86166
G0 F10500 X53.780 Y80.739
G1 F900 X98.369 Y125.328 E621.48728
G0 F10500 X97.485 Y125.328
G1 F900 X53.780 Y81.623 E624.06085
G0 F10500 X53.780 Y82.507
G1 F900 X96.601 Y125.328 E626.58236
G0 F10500 X95.717 Y125.328
G1 F900 X53.780 Y83.391 E629.05182
G0 F10500 X53.780 Y84.275
G1 F900 X94.833 Y125.328 E631.46922
G0 F10500 X93.949 Y125.328
G1 F900 X53.780 Y85.158 E633.83460
G0 F10500 X53.780 Y86.042
G1 F900 X93.065 Y125.328 E636.14793
G0 F10500 X92.181 Y125.328
G1 F900 X53.780 Y86.926 E638.40920
G0 F10500 X53.780 Y87.810
G1 F900 X91.298 Y125.328 E640.61844
G0 F10500 X90.414 Y125.328
G1 F900 X53.780 Y88.694 E642.77564
G0 F10500 X53.780 Y89.578
G1 F900 X89.530 Y125.328 E644.88077
G0 F10500 X88.646 Y125.328
G1 F900 X53.780 Y90.462 E646.93386
G0 F10500 X53.780 Y91.346
G1 F900 X87.762 Y125.328 E648.93488
G0 F10500 X86.878 Y125.328
G1 F900 X53.780 Y92.230 E650.88386
G0 F10500 X53.780 Y93.113
G1 F900 X85.994 Y125.328 E652.78081
G0 F10500 X85.110 Y125.328
G1 F900 X53.780 Y93.997 E654.62570
G0 F10500 X53.780 Y94.881
G1 F900 X84.227 Y125.328 E656.41857
G0 F10500 X83.343 Y125.328
G1 F900 X53.780 Y95.765 E658.15939
G0 F10500 X53.780 Y96.649
G1 F900 X82.459 Y125.328 E659.84815
G0 F10500 X81.575 Y125.328
G1 F900 X53.780 Y97.533 E661.48486
G0 F10500 X53.780 Y98.417
G1 F900 X80.691 Y125.328 E663.06951
G0 F10500 X79.807 Y125.328
G1 F900 X53.780 Y99.301 E664.60211
G0 F10500 X53.780 Y100.185
G1 F900 X78.923 Y125.328 E666.08265
G0 F10500 X78.039 Y125.328
G1 F900 X53.780 Y101.068 E667.51117
G0 F10500 X53.780 Y101.952
G1 F900 X77.155 Y125.328 E668.88764
G0 F10500 X76.272 Y125.328
G1 F900 X53.780 Y102.836 E670.21208
G0 F10500 X53.780 Y103.720
G1 F900 X75.388 Y125.328 E671.48446
G0 F10500 X74.504 Y125.328
G1 F900 X53.780 Y104.604 E672.70480
G0 F10500 X53.780 Y105.488
G1 F900 X73.620 Y125.328 E673.87307
G0 F10500 X72.736 Y125.328
G1 F900 X53.780 Y106.372 E674.98930
G0 F10500 X53.780 Y107.256
G1 F900 X71.852 Y125.328 E676.05347
G0 F10500 X70.968 Y125.328
G1 F900 X53.780 Y108.139 E677.06561
G0 F10500 X53.780 Y109.023
G1 F900 X70.084 Y125.328 E678.02570
G0 F10500 X69.201 Y125.328
G1 F900 X53.780 Y109.907 E678.93376
G0 F10500 X53.780 Y110.791
G1 F900 X68.317 Y125.328 E679.78978
G0 F10500 X67.433 Y125.328
G1 F900 X53.780 Y111.675 E680.59373
G0 F10500 X53.780 Y112.559
G1 F900 X66.549 Y125.328 E681.34563
G0 F10500 X65.665 Y125.328
G1 F900 X53.780 Y113.443 E682.04548
G0 F10500 X53.780 Y114.327
G1 F900 X64.781 Y125.328 E682.69327
G0 F10500 X63.897 Y125.328
G1 F900 X53.780 Y115.211 E683.28901
G0 F10500 X53.780 Y116.094
G1 F900 X63.013 Y125.328 E683.83273
G0 F10500 X62.129 Y125.328
G1 F900 X53.780 Y116.978 E684.32439
G0 F10500 X53.780 Y117.862
G1 F900 X61.246 Y125.328 E684.76402
G0 F10500 X60.362 Y125.328
G1 F900 X53.780 Y118.746 E685.15160
G0 F10500 X53.780 Y119.630
G1 F900 X59.478 Y125.328 E685.48713
G0 F10500 X58.594 Y125.328
G1 F900 X53.780 Y120.514 E685.77060
G0 F10500 X53.780 Y121.398
G1 F900 X57.710 Y125.328 E686.00202
G0 F10500 X56.826 Y125.328
G1 F900 X53.780 Y122.282 E686.18138
G0 F10500 X53.780 Y123.165
G1 F900 X55.942 Y125.328 E686.30872
G0 F10500 X55.058 Y125.328
G1 F900 X53.780 Y124.049 E686.38401
G0 F10500 X53.780 Y124.933
G1 F900 X54.174 Y125.328 E686.40724
;LAYER:1
M106 S191
G0 F10500 X53.375 Y125.735 Z0.805
;TYPE:WALL-INNER
G1 F1140 X53.375 Y27.236 E689.34087
G1 X151.874 Y27.236 E692.27450
G1 X151.874 Y125.735 E695.20814
G1 X53.375 Y125.735 E698.14177
G0 F10500 X52.875 Y126.235
;TYPE:WALL-OUTER
G1 F1080 X52.875 Y26.736 E701.10519
G1 X152.374 Y26.736 E704.06860
G1 X152.374 Y126.235 E707.03202
G1 X52.875 Y126.235 E709.99544
G0 F10500 X53.692 Y125.559
;TYPE:SKIN
G1 F1380 X151.697 Y27.553 E714.12343
G0 F10500 X151.133 Y27.410
G1 F1380 X53.549 Y124.994 E718.23368
G0 F10500 X53.549 Y124.287
G1 F1380 X150.426 Y27.410 E722.31414
G0 F10500 X149.719 Y27.410
G1 F1380 X53.549 Y123.580 E726.36483
G0 F10500 X53.549 Y122.873
G1 F1380 X149.012 Y27.410 E730.38574
G0 F10500 X148.305 Y27.410
G1 F1380 X53.549 Y122.166 E734.37687
G0 F10500 X53.549 Y121.459
G1 F1380 X147.597 Y27.410 E738.33819
G0 F10500 X146.890 Y27.410
G1 F1380 X53.549 Y120.751 E742.26972
G0 F10500 X53.549 Y120.044
G1 F1380 X146.183 Y27.410 E746.17147
G0 F10500 X145.476 Y27.410
G1 F1380 X53.549 Y119.337 E750.04344
G0 F10500 X53.549 Y118.630
G1 F1380 X144.769 Y27.410 E753.88564
G0 F10500 X144.062 Y27.410
G1 F1380 X53.549 Y117.923 E757.69805
G0 F10500 X53.549 Y117.216
G1 F1380 X143.355 Y27.410 E761.48068
G0 F10500 X142.648 Y27.410
G1 F1380 X53.549 Y116.509 E765.23354
G0 F10500 X53.549 Y115.802
G1 F1380 X141.941 Y27.410 E768.95662
G0 F10500 X141.233 Y27.410
G1 F1380 X53.549 Y115.095 E772.64989
G0 F10500 X53.549 Y114.387
G1 F1380 X140.526 Y27.410 E776.31337
G0 F10500 X151.697 Y28.260
G1 F1380 X54.399 Y125.559 E780.41159
G0 F10500 X55.106 Y125.559
G1 F1380 X151.697 Y28.968 E784.48001
G0 F10500 X151.697 Y29.675
G1 F1380 X55.813 Y125.559 E788.51865
G0 F10500 X56.520 Y125.559
G1 F1380 X151.697 Y30.382 E792.52751
G0 F10500 X151.697 Y31.089
G1 F1380 X57.227 Y125.559 E796.50659
G0 F10500 X57.934 Y125.559
G1 F1380 X151.697 Y31.796 E800.45589
G0 F10500 X151.697 Y32.503
G1 F1380 X58.641 Y125.559 E804.37542
G0 F10500 X59.348 Y125.559
G1 F1380 X151.697 Y33.210 E808.26516
G0 F10500 X151.697 Y33.917
G1 F1380 X60.055 Y125.559 E812.12513
G0 F10500 X60.763 Y125.559
G1 F1380 X151.697 Y34.624 E815.95530
G0 F10500 X151.697 Y35.332
G1 F1380 X61.470 Y125.559 E819.75566
G0 F10500 X62.177 Y125.559
G1 F1380 X151.697 Y36.039 E823.52625
G0 F10500 X151.697 Y36.746
G1 F1380 X62.884 Y125.559 E827.26706
G0 F10500 X63.591 Y125.559
G1 F1380 X151.697 Y37.453 E830.97809
G0 F10500 X151.697 Y38.160
G1 F1380 X64.298 Y125.559 E834.65934
G0 F10500 X65.005 Y125.559
G1 F1380 X151.697 Y38.867 E838.31081
G0 F10500 X151.697 Y39.574
G1 F1380 X65.712 Y125.559 E841.93251
G0 F10500 X66.419 Y125.559
G1 F1380 X151.697 Y40.281 E845.52442
G0 F10500 X151.697 Y40.988
G1 F1380 X67.127 Y125.559 E849.08654
G0 F10500 X67.834 Y125.559
G1 F1380 X151.697 Y41.695 E852.61887
G0 F10500 X151.697 Y42.403
G1 F1380 X68.541 Y125.559 E856.12141
G0 F10500 X69.248 Y125.559
G1 F1380 X151.697 Y43.110 E859.59417
G0 F10500 X151.697 Y43.817
G1 F1380 X69.955 Y125.559 E863.03714
G0 F10500 X70.662 Y125.559
G1 F1380 X151.697 Y44.524 E866.45034
G0 F10500 X151.697 Y45.231
G1 F1380 X71.369 Y125.559 E869.83376
G0 F10500 X72.076 Y125.559
G1 F1380 X151.697 Y45.938 E873.18740
G0 F10500 X151.697 Y46.645
G1 F1380 X72.783 Y125.559 E876.51127
G0 F10500 X73.491 Y125.559
G1 F1380 X151.697 Y47.352 E879.80533
G0 F10500 X151.697 Y48.059
G1 F1380 X74.198 Y125.559 E883.06961
G0 F10500 X74.905 Y125.559
G1 F1380 X151.697 Y48.767 E886.30410
G0 F10500 X151.697 Y49.474
G1 F1380 X75.612 Y125.559 E889.50880
G0 F10500 X76.319 Y125.559
G1 F1380 X151.697 Y50.181 E892.68373
G0 F10500 X151.697 Y50.888
G1 F1380 X77.026 Y125.559 E895.82887
G0 F10500 X77.733 Y125.559
G1 F1380 X151.697 Y51.595 E898.94424
G0 F10500 X151.697 Y52.302
G1 F1380 X78.440 Y125.559 E902.02983
G0 F10500 X79.147 Y125.559
G1 F1380 X151.697 Y53.009 E905.08564
G0 F10500 X151.697 Y53.716
G1 F1380 X79.854 Y125.559 E908.11167
G0 F10500 X80.562 Y125.559
G1 F1380 X151.697 Y54.423 E911.10791
G0 F10500 X151.697 Y55.130
G1 F1380 X81.269 Y125.559 E914.07436
G0 F10500 X81.976 Y125.559
G1 F1380 X151.697 Y55.838 E917.01101
G0 F10500 X151.697 Y56.545
G1 F1380 X82.683 Y125.559 E919.91789
G0 F10500 X83.390 Y125.559
G1 F1380 X151.697 Y57.252 E922.79498
G0 F10500 X151.697 Y57.959
G1 F1380 X84.097 Y125.559 E925.64230
G0 F10500 X84.804 Y125.559
G1 F1380 X151.697 Y58.666 E928.45983
G0 F10500 X151.697 Y59.373
G1 F1380 X85.511 Y125.559 E931.24759
G0 F10500 X86.218 Y125.559
G1 F1380 X151.697 Y60.080 E934.00557
G0 F10500 X151.697 Y60.787
G1 F1380 X86.926 Y125.559 E936.73375
G0 F10500 X87.633 Y125.559
G1 F1380 X151.697 Y61.494 E939.43215
G0 F10500 X151.697 Y62.202
G1 F1380 X88.340 Y125.559 E942.10075
G0 F10500 X89.047 Y125.559
G1 F1380 X151.697 Y62.909 E944.73957
G0 F10500 X151.697 Y63.616
G1 F1380 X89.754 Y125.559 E947.34862
G0 F10500 X90.461 Y125.559
G1 F1380 X151.697 Y64.323 E949.92788
G0 F10500 X151.697 Y65.030
G1 F1380 X91.168 Y125.559 E952.47737
G0 F10500 X91.875 Y125.559
G1 F1380 X151.697 Y65.737 E954.99707
G0 F10500 X151.697 Y66.444
G1 F1380 X92.582 Y125.559 E957.48700
G0 F10500 X93.290 Y125.559
G1 F1380 X151.697 Y67.151 E959.94713
G0 F10500 X151.697 Y67.858
G1 F1380 X93.997 Y125.559 E962.37748
G0 F10500 X94.704 Y125.559
G1 F1380 X151.697 Y68.566 E964.77803
G0 F10500 X151.697 Y69.273
G1 F1380 X95.411 Y125.559 E967.14880
G0 F10500 X96.118 Y125.559
G1 F1380 X151.697 Y69.980 E969.48979
G0 F10500 X151.697 Y70.687
G1 F1380 X96.825 Y125.559 E971.80100
G0 F10500 X97.532 Y125.559
G1 F1380 X151.697 Y71.394 E974.08243
G0 F10500 X151.697 Y72.101
G1 F1380 X98.239 Y125.559 E976.33409
G0 F10500 X98.946 Y125.559
G1 F1380 X151.697 Y72.808 E978.55596
G0 F10500 X151.697 Y73.515
G1 F1380 X99.653 Y125.559 E980.74806
G0 F10500 X100.361 Y125.559
G1 F1380 X151.697 Y74.222 E982.91035
G0 F10500 X151.697 Y74.929
G1 F1380 X101.068 Y125.559 E985.04287
G0 F10500 X101.775 Y125.559
G1 F1380 X151.697 Y75.637 E987.14559
G0 F10500 X151.697 Y76.344
G1 F1380 X102.482 Y125.559 E989.21853
G0 F10500 X103.189 Y125.559
G1 F1380 X151.697 Y77.051 E991.26169
G0 F10500 X151.697 Y77.758
G1 F1380 X103.896 Y125.559 E993.27507
G0 F10500 X104.603 Y125.559
G1 F1380 X151.697 Y78.465 E995.25867
G0 F10500 X151.697 Y79.172
G1 F1380 X105.310 Y125.559 E997.21249
G0 F10500 X106.017 Y125.559
G1 F1380 X151.697 Y79.879 E999.13654
G0 F10500 X151.697 Y80.586
G1 F1380 X106.725 Y125.559 E1001.03078
G0 F10500 X107.432 Y125.559
G1 F1380 X151.697 Y81.293 E1002.89525
G0 F10500 X151.697 Y82.001
G1 F1380 X108.139 Y125.559 E1004.72991
G0 F10500 X108.846 Y125.559
G1 F1380 X151.697 Y82.708 E1006.53480
G0 F10500 X151.697 Y83.415
G1 F1380 X109.553 Y125.559 E1008.30991
G0 F10500 X110.260 Y125.559
G1 F1380 X151.697 Y84.122 E1010.05524
G0 F10500 X151.697 Y84.829
G1 F1380 X110.967 Y125.559 E1011.77079
G0 F10500 X111.674 Y125.559
G1 F1380 X151.697 Y85.536 E1013.45656
G0 F10500 X151.697 Y86.243
G1 F1380 X112.381 Y125.559 E1015.11255
G0 F10500 X113.089 Y125.559
G1 F1380 X151.697 Y86.950 E1016.73874
G0 F10500 X151.697 Y87.657
G1 F1380 X113.796 Y125.559 E1018.33516
G0 F10500 X114.503 Y125.559
G1 F1380 X151.697 Y88.365 E1019.90177
G0 F10500 X151.697 Y89.072
G1 F1380 X115.210 Y125.559 E1021.43861
G0 F10500 X115.917 Y125.559
G1 F1380 X151.697 Y89.779 E1022.94566
G0 F10500 X151.697 Y90.486
G1 F1380 X116.624 Y125.559 E1024.42294
G0 F10500 X117.331 Y125.559
G1 F1380 X151.697 Y91.193 E1025.87044
G0 F10500 X151.697 Y91.900
G1 F1380 X118.038 Y125.559 E1027.28816
G0 F10500 X118.745 Y125.559
G1 F1380 X151.697 Y92.607 E1028.67610
G0 F10500 X151.697 Y93.314
G1 F1380 X119.452 Y125.559 E1030.03426
G0 F10500 X120.160 Y125.559
G1 F1380 X151.697 Y94.021 E1031.36262
G0 F10500 X151.697 Y94.728
G1 F1380 X120.867 Y125.559 E1032.66120
G0 F10500 X121.574 Y125.559
G1 F1380 X151.697 Y95.436 E1033.92998
G0 F10500 X151.697 Y96.143
G1 F1380 X122.281 Y125.559 E1035.16899
G0 F10500 X122.988 Y125.559
G1 F1380 X151.697 Y96.850 E1036.37821
G0 F10500 X151.697 Y97.557
G1 F1380 X123.695 Y125.559 E1037.55766
G0 F10500 X124.402 Y125.559
G1 F1380 X151.697 Y98.264 E1038.70733
G0 F10500 X151.697 Y98.971
G1 F1380 X125.109 Y125.559 E1039.82721
G0 F10500 X125.816 Y125.559
G1 F1380 X151.697 Y99.678 E1040.91732
G0 F10500 X151.697 Y100.385
G1 F1380 X126.524 Y125.559 E1041.97763
G0 F10500 X127.231 Y125.559
G1 F1380 X151.697 Y101.092 E1043.00816
G0 F10500 X151.697 Y101.800
G1 F1380 X127.938 Y125.559 E1044.00889
G0 F10500 X128.645 Y125.559
G1 F1380 X151.697 Y102.507 E1044.97985
G0 F10500 X151.697 Y103.214
G1 F1380 X129.352 Y125.559 E1045.92102
G0 F10500 X130.059 Y125.559
G1 F1380 X151.697 Y103.921 E1046.83241
G0 F10500 X151.697 Y104.628
G1 F1380 X130.766 Y125.559 E1047.71403
G0 F10500 X131.473 Y125.559
G1 F1380 X151.697 Y105.335 E1048.56586
G0 F10500 X151.697 Y106.042
G1 F1380 X132.180 Y125.559 E1049.38792
G0 F10500 X132.887 Y125.559
G1 F1380 X151.697 Y106.749 E1050.18020
G0 F10500 X151.697 Y107.456
G1 F1380 X133.595 Y125.559 E1050.94268
G0 F10500 X134.302 Y125.559
G1 F1380 X151.697 Y108.164 E1051.67536
G0 F10500 X151.697 Y108.871
G1 F1380 X135.009 Y125.559 E1052.37826
G0 F10500 X135.716 Y125.559
G1 F1380 X151.697 Y109.578 E1053.05138
G0 F10500 X151.697 Y110.285
G1 F1380 X136.423 Y125.559 E1053.69472
G0 F10500 X137.130 Y125.559
G1 F1380 X151.697 Y110.992 E1054.30828
G0 F10500 X151.697 Y111.699
G1 F1380 X137.837 Y125.559 E1054.89207
G0 F10500 X138.544 Y125.559
G1 F1380 X151.697 Y112.406 E1055.44607
G0 F10500 X151.697 Y113.113
G1 F1380 X139.251 Y125.559 E1055.97030
G0 F10500 X139.959 Y125.559
G1 F1380 X151.697 Y113.820 E1056.46472
G0 F10500 X151.697 Y114.527
G1 F1380 X140.666 Y125.559 E1056.92937
G0 F10500 X141.373 Y125.559
G1 F1380 X151.697 Y115.235 E1057.36422
G0 F10500 X151.697 Y115.942
G1 F1380 X142.080 Y125.559 E1057.76929
G0 F10500 X142.787 Y125.559
G1 F1380 X151.697 Y116.649 E1058.14458
G0 F10500 X151.697 Y117.356
G1 F1380 X143.494 Y125.559 E1058.49009
G0 F10500 X144.201 Y125.559
G1 F1380 X151.697 Y118.063 E1058.80582
G0 F10500 X151.697 Y118.770
G1 F1380 X144.908 Y125.559 E1059.09177
G0 F10500 X145.615 Y125.559
G1 F1380 X151.697 Y119.477 E1059.34795
G0 F10500 X151.697 Y120.184
G1 F1380 X146.323 Y125.559 E1059.57432
G0 F10500 X147.030 Y125.559
G1 F1380 X151.697 Y120.891 E1059.77092
G0 F10500 X151.697 Y121.599
G1 F1380 X147.737 Y125.559 E1059.93771
G0 F10500 X148.444 Y125.559
G1 F1380 X151.697 Y122.306 E1060.07473
G0 F10500 X151.697 Y123.013
G1 F1380 X149.151 Y125.559 E1060.18197
G0 F10500 X149.858 Y125.559
G1 F1380 X151.697 Y123.720 E1060.25942
G0 F10500 X151.697 Y124.427
G1 F1380 X150.565 Y125.559 E1060.30710
G0 F10500 X151.272 Y125.559
G1 F1380 X151.697 Y125.134 E1060.32501
G0 F10500 X139.819 Y27.410
G1 F1380 X53.549 Y113.680 E1063.95870
G0 F10500 X53.549 Y112.973
G1 F1380 X139.112 Y27.410 E1067.56262
G0 F10500 X138.405 Y27.410
G1 F1380 X53.549 Y112.266 E1071.13676
G0 F10500 X53.549 Y111.559
G1 F1380 X137.698 Y27.410 E1074.68112
G0 F10500 X136.991 Y27.410
G1 F1380 X53.549 Y110.852 E1078.19571
G0 F10500 X53.549 Y110.145
G1 F1380 X136.284 Y27.410 E1081.68051
G0 F10500 X135.577 Y27.410
G1 F1380 X53.549 Y109.438 E1085.13553
G0 F10500 X53.549 Y108.731
G1 F1380 X134.870 Y27.410 E1088.56078
G0 F10500 X134.162 Y27.410
G1 F1380 X53.549 Y108.023 E1091.95620
G0 F10500 X53.549 Y107.316
G1 F1380 X133.455 Y27.410 E1095.32185
G0 F10500 X132.748 Y27.410
G1 F1380 X53.549 Y106.609 E1098.65772
G0 F10500 X53.549 Y105.902
G1 F1380 X132.041 Y27.410 E1101.96380
G0 F10500 X131.334 Y27.410
G1 F1380 X53.549 Y105.195 E1105.24011
G0 F10500 X53.549 Y104.488
G1 F1380 X130.627 Y27.410 E1108.48664
G0 F10500 X129.920 Y27.410
G1 F1380 X53.549 Y103.781 E1111.70339
G0 F10500 X53.549 Y103.074
G1 F1380 X129.213 Y27.410 E1114.89037
G0 F10500 X128.506 Y27.410
G1 F1380 X53.549 Y102.367 E1118.04756
G0 F10500 X53.549 Y101.660
G1 F1380 X127.798 Y27.410 E1121.17495
G0 F10500 X127.091 Y27.410
G1 F1380 X53.549 Y100.952 E1124.27255
G0 F10500 X53.549 Y100.245
G1 F1380 X126.384 Y27.410 E1127.34036
G0 F10500 X125.677 Y27.410
G1 F1380 X53.549 Y99.538 E1130.37840
G0 F10500 X53.549 Y98.831
G1 F1380 X124.970 Y27.410 E1133.38665
G0 F10500 X124.263 Y27.410
G1 F1380 X53.549 Y98.124 E1136.36513
G0 F10500 X53.549 Y97.417
G1 F1380 X123.556 Y27.410 E1139.31383
G0 F10500 X122.849 Y27.410
G1 F1380 X53.549 Y96.710 E1142.23275
G0 F10500 X53.549 Y96.003
G1 F1380 X122.142 Y27.410 E1145.12189
G0 F10500 X121.434 Y27.410
G1 F1380 X53.549 Y95.296 E1147.98123
G0 F10500 X53.549 Y94.588
G1 F1380 X120.727 Y27.410 E1150.81078
G0 F10500 X120.020 Y27.410
G1 F1380 X53.549 Y93.881 E1153.61054
G0 F10500 X53.549 Y93.174
G1 F1380 X119.313 Y27.410 E1156.38052
G0 F10500 X118.606 Y27.410
G1 F1380 X53.549 Y92.467 E1159.12073
G0 F10500 X53.549 Y91.760
G1 F1380 X117.899 Y27.410 E1161.83115
G0 F10500 X117.192 Y27.410
G1 F1380 X53.549 Y91.053 E1164.51180
G0 F10500 X53.549 Y90.346
G1 F1380 X116.485 Y27.410 E1167.16267
G0 F10500 X115.778 Y27.410
G1 F1380 X53.549 Y89.639 E1169.78376
G0 F10500 X53.549 Y88.932
G1 F1380 X115.071 Y27.410 E1172.37507
G0 F10500 X114.363 Y27.410
G1 F1380 X53.549 Y88.225 E1174.93658
G0 F10500 X53.549 Y87.517
G1 F1380 X113.656 Y27.410 E1177.46829
G0 F10500 X112.949 Y27.410
G1 F1380 X53.549 Y86.810 E1179.97022
G0 F10500 X53.549 Y86.103
G1 F1380 X112.242 Y27.410 E1182.44237
G0 F10500 X111.535 Y27.410
G1 F1380 X53.549 Y85.396 E1184.88475
G0 F10500 X53.549 Y84.689
G1 F1380 X110.828 Y27.410 E1187.29734
G0 F10500 X110.121 Y27.410
G1 F1380 X53.549 Y83.982 E1189.68016
G0 F10500 X53.549 Y83.275
G1 F1380 X109.414 Y27.410 E1192.03320
G0 F10500 X108.707 Y27.410
G1 F1380 X53.549 Y82.568 E1194.35645
G0 F10500 X53.549 Y81.861
G1 F1380 X107.999 Y27.410 E1196.64991
G0 F10500 X107.292 Y27.410
G1 F1380 X53.549 Y81.153 E1198.91357
G0 F10500 X53.549 Y80.446
G1 F1380 X106.585 Y27.410 E1201.14745
G0 F10500 X105.878 Y27.410
G1 F1380 X53.549 Y79.739 E1203.35155
G0 F10500 X53.549 Y79.032
G1 F1380 X105.171 Y27.410 E1205.52587
G0 F10500 X104.464 Y27.410
G1 F1380 X53.549 Y78.325 E1207.67042
G0 F10500 X53.549 Y77.618
G1 F1380 X103.757 Y27.410 E1209.78518
G0 F10500 X103.050 Y27.410
G1 F1380 X53.549 Y76.911 E1211.87016
G0 F10500 X53.549 Y76.204
G1 F1380 X102.343 Y27.410 E1213.92537
G0 F10500 X101.635 Y27.410
G1 F1380 X53.549 Y75.497 E1215.95078
G0 F10500 X53.549 Y74.789
G1 F1380 X100.928 Y27.410 E1217.94638
G0 F10500 X100.221 Y27.410
G1 F1380 X53.549 Y74.082 E1219.91221
G0 F10500 X53.549 Y73.375
G1 F1380 X99.514 Y27.410 E1221.84826
G0 F10500 X98.807 Y27.410
G1 F1380 X53.549 Y72.668 E1223.75453
G0 F10500 X53.549 Y71.961
G1 F1380 X98.100 Y27.410 E1225.63102
G0 F10500 X97.393 Y27.410
G1 F1380 X53.549 Y71.254 E1227.47773
G0 F10500 X53.549 Y70.547
G1 F1380 X96.686 Y27.410 E1229.29467
G0 F10500 X95.979 Y27.410
G1 F1380 X53.549 Y69.840 E1231.08182
G0 F10500 X53.549 Y69.133
G1 F1380 X95.272 Y27.410 E1232.83920
G0 F10500 X94.564 Y27.410
G1 F1380 X53.549 Y68.426 E1234.56677
G0 F10500 X53.549 Y67.718
G1 F1380 X93.857 Y27.410 E1236.26455
G0 F10500 X93.150 Y27.410
G1 F1380 X53.549 Y67.011 E1237.93254
G0 F10500 X53.549 Y66.304
G1 F1380 X92.443 Y27.410 E1239.57076
G0 F10500 X91.736 Y27.410
G1 F1380 X53.549 Y65.597 E1241.17920
G0 F10500 X53.549 Y64.890
G1 F1380 X91.029 Y27.410 E1242.75786
G0 F10500 X90.322 Y27.410
G1 F1380 X53.549 Y64.183 E1244.30674
G0 F10500 X53.549 Y63.476
G1 F1380 X89.615 Y27.410 E1245.82584
G0 F10500 X88.908 Y27.410
G1 F1380 X53.549 Y62.769 E1247.31517
G0 F10500 X53.549 Y62.062
G1 F1380 X88.200 Y27.410 E1248.77469
G0 F10500 X87.493 Y27.410
G1 F1380 X53.549 Y61.354 E1250.20441
G0 F10500 X53.549 Y60.647
G1 F1380 X86.786 Y27.410 E1251.60436
G0 F10500 X86.079 Y27.410
G1 F1380 X53.549 Y59.940 E1252.97452
G0 F10500 X53.549 Y59.233
G1 F1380 X85.372 Y27.410 E1254.31491
G0 F10500 X84.665 Y27.410
G1 F1380 X53.549 Y58.526 E1255.62552
G0 F10500 X53.549 Y57.819
G1 F1380 X83.958 Y27.410 E1256.90635
G0 F10500 X83.251 Y27.410
G1 F1380 X53.549 Y57.112 E1258.15740
G0 F10500 X53.549 Y56.405
G1 F1380 X82.544 Y27.410 E1259.37867
G0 F10500 X81.837 Y27.410
G1 F1380 X53.549 Y55.698 E1260.57016
G0 F10500 X53.549 Y54.990
G1 F1380 X81.129 Y27.410 E1261.73183
G0 F10500 X80.422 Y27.410
G1 F1380 X53.549 Y54.283 E1262.86372
G0 F10500 X53.549 Y53.576
G1 F1380 X79.715 Y27.410 E1263.96584
G0 F10500 X79.008 Y27.410
G1 F1380 X53.549 Y52.869 E1265.03817
G0 F10500 X53.549 Y52.162
G1 F1380 X78.301 Y27.410 E1266.08073
G0 F10500 X77.594 Y27.410
G1 F1380 X53.549 Y51.455 E1267.09350
G0 F10500 X53.549 Y50.748
G1 F1380 X76.887 Y27.410 E1268.07650
G0 F10500 X76.180 Y27.410
G1 F1380 X53.549 Y50.041 E1269.02972
G0 F10500 X53.549 Y49.334
G1 F1380 X75.473 Y27.410 E1269.95316
G0 F10500 X74.765 Y27.410
G1 F1380 X53.549 Y48.627 E1270.84680
G0 F10500 X53.549 Y47.919
G1 F1380 X74.058 Y27.410 E1271.71064
G0 F10500 X73.351 Y27.410
G1 F1380 X53.549 Y47.212 E1272.54470
G0 F10500 X53.549 Y46.505
G1 F1380 X72.644 Y27.410 E1273.34899
G0 F10500 X71.937 Y27.410
G1 F1380 X53.549 Y45.798 E1274.12349
G0 F10500 X53.549 Y45.091
G1 F1380 X71.230 Y27.410 E1274.86821
G0 F10500 X70.523 Y27.410
G1 F1380 X53.549 Y44.384 E1275.58316
G0 F10500 X53.549 Y43.677
G1 F1380 X69.816 Y27.410 E1276.26833
G0 F10500 X69.109 Y27.410
G1 F1380 X53.549 Y42.970 E1276.92372
G0 F10500 X53.549 Y42.263
G1 F1380 X68.401 Y27.410 E1277.54930
G0 F10500 X67.694 Y27.410
G1 F1380 X53.549 Y41.555 E1278.14509
G0 F10500 X53.549 Y40.848
G1 F1380 X66.987 Y27.410 E1278.71110
G0 F10500 X66.280 Y27.410
G1 F1380 X53.549 Y40.141 E1279.24733
G0 F10500 X53.549 Y39.434
G1 F1380 X65.573 Y27.410 E1279.75378
G0 F10500 X64.866 Y27.410
G1 F1380 X53.549 Y38.727 E1280.23046
G0 F10500 X53.549 Y38.020
G1 F1380 X64.159 Y27.410 E1280.67735
G0 F10500 X63.452 Y27.410
G1 F1380 X53.549 Y37.313 E1281.09447
G0 F10500 X53.549 Y36.606
G1 F1380 X62.745 Y27.410 E1281.48180
G0 F10500 X62.038 Y27.410
G1 F1380 X53.549 Y35.899 E1281.83936
G0 F10500 X53.549 Y35.191
G1 F1380 X61.330 Y27.410 E1282.16709
G0 F10500 X60.623 Y27.410
G1 F1380 X53.549 Y34.484 E1282.46505
G0 F10500 X53.549 Y33.777
G1 F1380 X59.916 Y27.410 E1282.73323
G0 F10500 X59.209 Y27.410
G1 F1380 X53.549 Y33.070 E1282.97163
G0 F10500 X53.549 Y32.363
G1 F1380 X58.502 Y27.410 E1283.18025
G0 F10500 X57.795 Y27.410
G1 F1380 X53.549 Y31.656 E1283.35909
G0 F10500 X53.549 Y30.949
G1 F1380 X57.088 Y27.410 E1283.50816
G0 F10500 X56.381 Y27.410
G1 F1380 X53.549 Y30.242 E1283.62744
G0 F10500 X53.549 Y29.535
G1 F1380 X55.674 Y27.410 E1283.71694
G0 F10500 X54.966 Y27.410
G1 F1380 X53.549 Y28.828 E1283.77665
G0 F10500 X53.549 Y28.120
G1 F1380 X54.259 Y27.410 E1283.80655
;LAYER:2
G0 F10500 X53.375 Y27.236 Z1.185
;TYPE:WALL-INNER
G1 F1440 X151.874 Y27.236 E1286.74019
G1 X151.874 Y125.735 E1289.67382
G1 X53.375 Y125.735 E1292.60745
G1 X53.375 Y27.236 E1295.54109
G0 F10500 X52.875 Y26.736
;TYPE:WALL-OUTER
G1 F1320 X152.374 Y26.736 E1298.50450
G1 X152.374 Y126.235 E1301.46792
G1 X52.875 Y126.235 E1304.43134
G1 X52.875 Y26.736 E1307.39475
G0 F10500 X53.549 Y27.740
;TYPE:SKIN
G1 F1920 X151.368 Y125.558 E1311.51488
G0 F10500 X151.698 Y125.181
G1 F1920 X53.927 Y27.410 E1315.63300
G0 F10500 X54.634 Y27.410
G1 F1920 X151.698 Y124.474 E1319.72134
G0 F10500 X151.698 Y123.767
G1 F1920 X55.341 Y27.410 E1323.77990
G0 F10500 X56.048 Y27.410
G1 F1920 X151.698 Y123.060 E1327.80868
G0 F10500 X151.698 Y122.353
G1 F1920 X56.755 Y27.410 E1331.80769
G0 F10500 X57.463 Y27.410
G1 F1920 X151.698 Y121.646 E1335.77689
G0 F10500 X151.698 Y120.939
G1 F1920 X58.170 Y27.410 E1339.71632
G0 F10500 X58.877 Y27.410
G1 F1920 X151.698 Y120.232 E1343.62597
G0 F10500 X150.661 Y125.558
G1 F1920 X53.549 Y28.447 E1347.71631
G0 F10500 X53.549 Y29.154
G1 F1920 X149.954 Y125.558 E1351.77687
G0 F10500 X149.246 Y125.558
G1 F1920 X53.549 Y29.861 E1355.80764
G0 F10500 X53.549 Y30.568
G1 F1920 X148.539 Y125.558 E1359.80862
G0 F10500 X147.832 Y125.558
G1 F1920 X53.549 Y31.276 E1363.77981
G0 F10500 X53.549 Y31.983
G1 F1920 X147.125 Y125.558 E1367.72121
G0 F10500 X146.418 Y125.558
G1 F1920 X53.549 Y32.690 E1371.63284
G0 F10500 X53.549 Y33.397
G1 F1920 X145.711 Y125.558 E1375.51469
G0 F10500 X145.004 Y125.558
G1 F1920 X53.549 Y34.104 E1379.36676
G0 F10500 X53.549 Y34.811
G1 F1920 X144.297 Y125.558 E1383.18905
G0 F10500 X143.590 Y125.558
G1 F1920 X53.549 Y35.518 E1386.98156
G0 F10500 X53.549 Y36.225
G1 F1920 X142.882 Y125.558 E1390.74427
G0 F10500 X142.175 Y125.558
G1 F1920 X53.549 Y36.932 E1394.47720
G0 F10500 X53.549 Y37.640
G1 F1920 X141.468 Y125.558 E1398.18034
G0 F10500 X140.761 Y125.558
G1 F1920 X53.549 Y38.347 E1401.85369
G0 F10500 X53.549 Y39.054
G1 F1920 X140.054 Y125.558 E1405.49726
G0 F10500 X139.347 Y125.558
G1 F1920 X53.549 Y39.761 E1409.11106
G0 F10500 X59.584 Y27.410
G1 F1920 X151.698 Y119.525 E1412.99093
G0 F10500 X151.698 Y118.817
G1 F1920 X60.291 Y27.410 E1416.84100
G0 F10500 X60.998 Y27.410
G1 F1920 X151.698 Y118.110 E1420.66129
G0 F10500 X151.698 Y117.403
G1 F1920 X61.705 Y27.410 E1424.45180
G0 F10500 X62.412 Y27.410
G1 F1920 X151.698 Y116.696 E1428.21253
G0 F10500 X151.698 Y115.989
G1 F1920 X63.119 Y27.410 E1431.94348
G0 F10500 X63.826 Y27.410
G1 F1920 X151.698 Y115.282 E1435.64466
G0 F10500 X151.698 Y114.575
G1 F1920 X64.534 Y27.410 E1439.31603
G0 F10500 X65.241 Y27.410
G1 F1920 X151.698 Y113.868 E1442.95763
G0 F10500 X151.698 Y113.161
G1 F1920 X65.948 Y27.410 E1446.56944
G0 F10500 X66.655 Y27.410
G1 F1920 X151.698 Y112.454 E1450.15148
G0 F10500 X151.698 Y111.746
G1 F1920 X67.362 Y27.410 E1453.70372
G0 F10500 X68.069 Y27.410
G1 F1920 X151.698 Y111.039 E1457.22617
G0 F10500 X151.698 Y110.332
G1 F1920 X68.776 Y27.410 E1460.71885
G0 F10500 X69.483 Y27.410
G1 F1920 X151.698 Y109.625 E1464.18176
G0 F10500 X151.698 Y108.918
G1 F1920 X70.190 Y27.410 E1467.61488
G0 F10500 X70.898 Y27.410
G1 F1920 X151.698 Y108.211 E1471.01820
G0 F10500 X151.698 Y107.504
G1 F1920 X71.605 Y27.410 E1474.39174
G0 F10500 X72.312 Y27.410
G1 F1920 X151.698 Y106.797 E1477.73551
G0 F10500 X151.698 Y106.090
G1 F1920 X73.019 Y27.410 E1481.04949
G0 F10500 X73.726 Y27.410
G1 F1920 X151.698 Y105.382 E1484.33368
G0 F10500 X151.698 Y104.675
G1 F1920 X74.433 Y27.410 E1487.58808
G0 F10500 X75.140 Y27.410
G1 F1920 X151.698 Y103.968 E1490.81271
G0 F10500 X151.698 Y103.261
G1 F1920 X75.847 Y27.410 E1494.00756
G0 F10500 X76.554 Y27.410
G1 F1920 X151.698 Y102.554 E1497.17263
G0 F10500 X151.698 Y101.847
G1 F1920 X77.262 Y27.410 E1500.30790
G0 F10500 X77.969 Y27.410
G1 F1920 X151.698 Y101.140 E1503.41339
G0 F10500 X151.698 Y100.433
G1 F1920 X78.676 Y27.410 E1506.48910
G0 F10500 X79.383 Y27.410
G1 F1920 X151.698 Y99.726 E1509.53504
G0 F10500 X151.698 Y99.018
G1 F1920 X80.090 Y27.410 E1512.55117
G0 F10500 X80.797 Y27.410
G1 F1920 X151.698 Y98.311 E1515.53753
G0 F10500 X151.698 Y97.604
G1 F1920 X81.504 Y27.410 E1518.49410
G0 F10500 X82.211 Y27.410
G1 F1920 X151.698 Y96.897 E1521.42090
G0 F10500 X151.698 Y96.190
G1 F1920 X82.918 Y27.410 E1524.31792
G0 F10500 X83.625 Y27.410
G1 F1920 X151.698 Y95.483 E1527.18515
G0 F10500 X151.698 Y94.776
G1 F1920 X84.333 Y27.410 E1530.02259
G0 F10500 X85.040 Y27.410
G1 F1920 X151.698 Y94.069 E1532.83025
G0 F10500 X151.698 Y93.362
G1 F1920 X85.747 Y27.410 E1535.60813
G0 F10500 X86.454 Y27.410
G1 F1920 X151.698 Y92.655 E1538.35624
G0 F10500 X151.698 Y91.947
G1 F1920 X87.161 Y27.410 E1541.07454
G0 F10500 X87.868 Y27.410
G1 F1920 X151.698 Y91.240 E1543.76306
G0 F10500 X151.698 Y90.533
G1 F1920 X88.575 Y27.410 E1546.42181
G0 F10500 X89.282 Y27.410
G1 F1920 X151.698 Y89.826 E1549.05077
G0 F10500 X151.698 Y89.119
G1 F1920 X89.989 Y27.410 E1551.64996
G0 F10500 X90.697 Y27.410
G1 F1920 X151.698 Y88.412 E1554.21935
G0 F10500 X151.698 Y87.705
G1 F1920 X91.404 Y27.410 E1556.75896
G0 F10500 X92.111 Y27.410
G1 F1920 X151.698 Y86.998 E1559.26878
G0 F10500 X151.698 Y86.291
G1 F1920 X92.818 Y27.410 E1561.74883
G0 F10500 X93.525 Y27.410
G1 F1920 X151.698 Y85.583 E1564.19909
G0 F10500 X151.698 Y84.876
G1 F1920 X94.232 Y27.410 E1566.61956
G0 F10500 X94.939 Y27.410
G1 F1920 X151.698 Y84.169 E1569.01025
G0 F10500 X151.698 Y83.462
G1 F1920 X95.646 Y27.410 E1571.37116
G0 F10500 X96.353 Y27.410
G1 F1920 X151.698 Y82.755 E1573.70230
G0 F10500 X151.698 Y82.048
G1 F1920 X97.061 Y27.410 E1576.00363
G0 F10500 X97.768 Y27.410
G1 F1920 X151.698 Y81.341 E1578.27519
G0 F10500 X151.698 Y80.634
G1 F1920 X98.475 Y27.410 E1580.51697
G0 F10500 X99.182 Y27.410
G1 F1920 X151.698 Y79.927 E1582.72896
G0 F10500 X151.698 Y79.220
G1 F1920 X99.889 Y27.410 E1584.91118
G0 F10500 X100.596 Y27.410
G1 F1920 X151.698 Y78.512 E1587.06360
G0 F10500 X151.698 Y77.805
G1 F1920 X101.303 Y27.410 E1589.18624
G0 F10500 X102.010 Y27.410
G1 F1920 X151.698 Y77.098 E1591.27910
G0 F10500 X151.698 Y76.391
G1 F1920 X102.717 Y27.410 E1593.34219
G0 F10500 X103.424 Y27.410
G1 F1920 X151.698 Y75.684 E1595.37549
G0 F10500 X151.698 Y74.977
G1 F1920 X104.132 Y27.410 E1597.37900
G0 F10500 X104.839 Y27.410
G1 F1920 X151.698 Y74.270 E1599.35272
G0 F10500 X151.698 Y73.563
G1 F1920 X105.546 Y27.410 E1601.29667
G0 F10500 X106.253 Y27.410
G1 F1920 X151.698 Y72.856 E1603.21083
G0 F10500 X151.698 Y72.148
G1 F1920 X106.960 Y27.410 E1605.09520
G0 F10500 X107.667 Y27.410
G1 F1920 X151.698 Y71.441 E1606.94979
G0 F10500 X151.698 Y70.734
G1 F1920 X108.374 Y27.410 E1608.77460
G0 F10500 X109.081 Y27.410
G1 F1920 X151.698 Y70.027 E1610.56963
G0 F10500 X151.698 Y69.320
G1 F1920 X109.788 Y27.410 E1612.33488
G0 F10500 X110.496 Y27.410
G1 F1920 X151.698 Y68.613 E1614.07033
G0 F10500 X151.698 Y67.906
G1 F1920 X111.203 Y27.410 E1615.77601
G0 F10500 X111.910 Y27.410
G1 F1920 X151.698 Y67.199 E1617.45190
G0 F10500 X151.698 Y66.492
G1 F1920 X112.617 Y27.410 E1619.09802
G0 F10500 X113.324 Y27.410
G1 F1920 X151.698 Y65.784 E1620.71433
G0 F10500 X151.698 Y65.077
G1 F1920 X114.031 Y27.410 E1622.30087
G0 F10500 X114.738 Y27.410
G1 F1920 X151.698 Y64.370 E1623.85762
G0 F10500 X151.698 Y63.663
G1 F1920 X115.445 Y27.410 E1625.38460
G0 F10500 X116.152 Y27.410
G1 F1920 X151.698 Y62.956 E1626.88180
G0 F10500 X151.698 Y62.249
G1 F1920 X116.860 Y27.410 E1628.34920
G0 F10500 X117.567 Y27.410
G1 F1920 X151.698 Y61.542 E1629.78682
G0 F10500 X151.698 Y60.835
G1 F1920 X118.274 Y27.410 E1631.19467
G0 F10500 X118.981 Y27.410
G1 F1920 X151.698 Y60.128 E1632.57273
G0 F10500 X151.698 Y59.421
G1 F1920 X119.688 Y27.410 E1633.92101
G0 F10500 X120.395 Y27.410
G1 F1920 X151.698 Y58.713 E1635.23950
G0 F10500 X151.698 Y58.006
G1 F1920 X121.102 Y27.410 E1636.52820
G0 F10500 X121.809 Y27.410
G1 F1920 X151.698 Y57.299 E1637.78713
G0 F10500 X151.698 Y56.592
G1 F1920 X122.516 Y27.410 E1639.01628
G0 F10500 X123.223 Y27.410
G1 F1920 X151.698 Y55.885 E1640.21565
G0 F10500 X151.698 Y55.178
G1 F1920 X123.931 Y27.410 E1641.38521
G0 F10500 X124.638 Y27.410
G1 F1920 X151.698 Y54.471 E1642.52500
G0 F10500 X151.698 Y53.764
G1 F1920 X125.345 Y27.410 E1643.63501
G0 F10500 X126.052 Y27.410
G1 F1920 X151.698 Y53.057 E1644.71525
G0 F10500 X151.698 Y52.349
G1 F1920 X126.759 Y27.410 E1645.76568
G0 F10500 X127.466 Y27.410
G1 F1920 X151.698 Y51.642 E1646.78633
G0 F10500 X151.698 Y50.935
G1 F1920 X128.173 Y27.410 E1647.77721
G0 F10500 X128.880 Y27.410
G1 F1920 X151.698 Y50.228 E1648.73830
G0 F10500 X151.698 Y49.521
G1 F1920 X129.587 Y27.410 E1649.66962
G0 F10500 X130.295 Y27.410
G1 F1920 X151.698 Y48.814 E1650.57114
G0 F10500 X151.698 Y48.107
G1 F1920 X131.002 Y27.410 E1651.44287
G0 F10500 X131.709 Y27.410
G1 F1920 X151.698 Y47.400 E1652.28483
G0 F10500 X151.698 Y46.693
G1 F1920 X132.416 Y27.410 E1653.09701
G0 F10500 X133.123 Y27.410
G1 F1920 X151.698 Y45.985 E1653.87939
G0 F10500 X151.698 Y45.278
G1 F1920 X133.830 Y27.410 E1654.63199
G0 F10500 X134.537 Y27.410
G1 F1920 X151.698 Y44.571 E1655.35482
G0 F10500 X151.698 Y43.864
G1 F1920 X135.244 Y27.410 E1656.04786
G0 F10500 X135.951 Y27.410
G1 F1920 X151.698 Y43.157 E1656.71112
G0 F10500 X151.698 Y42.450
G1 F1920 X136.658 Y27.410 E1657.34461
G0 F10500 X137.366 Y27.410
G1 F1920 X151.698 Y41.743 E1657.94830
G0 F10500 X151.698 Y41.036
G1 F1920 X138.073 Y27.410 E1658.52220
G0 F10500 X138.780 Y27.410
G1 F1920 X151.698 Y40.329 E1659.06633
G0 F10500 X151.698 Y39.622
G1 F1920 X139.487 Y27.410 E1659.58068
G0 F10500 X140.194 Y27.410
G1 F1920 X151.698 Y38.914 E1660.06523
G0 F10500 X151.698 Y38.207
G1 F1920 X140.901 Y27.410 E1660.52000
G0 F10500 X141.608 Y27.410
G1 F1920 X151.698 Y37.500 E1660.94499
G0 F10500 X151.698 Y36.793
G1 F1920 X142.315 Y27.410 E1661.34020
G0 F10500 X143.022 Y27.410
G1 F1920 X151.698 Y36.086 E1661.70564
G0 F10500 X151.698 Y35.379
G1 F1920 X143.730 Y27.410 E1662.04127
G0 F10500 X144.437 Y27.410
G1 F1920 X151.698 Y34.672 E1662.34713
G0 F10500 X151.698 Y33.965
G1 F1920 X145.144 Y27.410 E1662.62320
G0 F10500 X145.851 Y27.410
G1 F1920 X151.698 Y33.258 E1662.86950
G0 F10500 X151.698 Y32.550
G1 F1920 X146.558 Y27.410 E1663.08600
G0 F10500 X147.265 Y27.410
G1 F1920 X151.698 Y31.843 E1663.27271
G0 F10500 X151.698 Y31.136
G1 F1920 X147.972 Y27.410 E1663.42965
G0 F10500 X148.679 Y27.410
G1 F1920 X151.698 Y30.429 E1663.55681
G0 F10500 X151.698 Y29.722
G1 F1920 X149.386 Y27.410 E1663.65420
G0 F10500 X150.094 Y27.410
G1 F1920 X151.698 Y29.015 E1663.72178
G0 F10500 X151.698 Y28.308
G1 F1920 X150.801 Y27.410 E1663.75958
G0 F10500 X151.508 Y27.410
G1 F1920 X151.698 Y27.601 E1663.76760
G0 F10500 X138.640 Y125.558
G1 F1920 X53.549 Y40.468 E1667.35162
G0 F10500 X53.549 Y41.175
G1 F1920 X137.933 Y125.558 E1670.90586
G0 F10500 X137.226 Y125.558
G1 F1920 X53.549 Y41.882 E1674.43032
G0 F10500 X53.549 Y42.589
G1 F1920 X136.518 Y125.558 E1677.92498
G0 F10500 X135.811 Y125.558
G1 F1920 X53.549 Y43.296 E1681.38986
G0 F10500 X53.549 Y44.003
G1 F1920 X135.104 Y125.558 E1684.82496
G0 F10500 X134.397 Y125.558
G1 F1920 X53.549 Y44.711 E1688.23026
G0 F10500 X53.549 Y45.418
G1 F1920 X133.690 Y125.558 E1691.60578
G0 F10500 X132.983 Y125.558
G1 F1920 X53.549 Y46.125 E1694.95153
G0 F10500 X53.549 Y46.832
G1 F1920 X132.276 Y125.558 E1698.26749
G0 F10500 X131.569 Y125.558
G1 F1920 X53.549 Y47.539 E1701.55368
G0 F10500 X53.549 Y48.246
G1 F1920 X130.862 Y125.558 E1704.81009
G0 F10500 X130.155 Y125.558
G1 F1920 X53.549 Y48.953 E1708.03672
G0 F10500 X53.549 Y49.660
G1 F1920 X129.447 Y125.558 E1711.23354
G0 F10500 X128.740 Y125.558
G1 F1920 X53.549 Y50.367 E1714.40059
G0 F10500 X53.549 Y51.075
G1 F1920 X128.033 Y125.558 E1717.53784
G0 F10500 X127.326 Y125.558
G1 F1920 X53.549 Y51.782 E1720.64531
G0 F10500 X53.549 Y52.489
G1 F1920 X126.619 Y125.558 E1723.72301
G0 F10500 X125.912 Y125.558
G1 F1920 X53.549 Y53.196 E1726.77092
G0 F10500 X53.549 Y53.903
G1 F1920 X125.205 Y125.558 E1729.78905
G0 F10500 X124.498 Y125.558
G1 F1920 X53.549 Y54.610 E1732.77741
G0 F10500 X53.549 Y55.317
G1 F1920 X123.791 Y125.558 E1735.73598
G0 F10500 X123.083 Y125.558
G1 F1920 X53.549 Y56.024 E1738.66476
G0 F10500 X53.549 Y56.731
G1 F1920 X122.376 Y125.558 E1741.56376
G0 F10500 X121.669 Y125.558
G1 F1920 X53.549 Y57.438 E1744.43298
G0 F10500 X53.549 Y58.146
G1 F1920 X120.962 Y125.558 E1747.27240
G0 F10500 X120.255 Y125.558
G1 F1920 X53.549 Y58.853 E1750.08204
G0 F10500 X53.549 Y59.560
G1 F1920 X119.548 Y125.558 E1752.86190
G0 F10500 X118.841 Y125.558
G1 F1920 X53.549 Y60.267 E1755.61198
G0 F10500 X53.549 Y60.974
G1 F1920 X118.134 Y125.558 E1758.33228
G0 F10500 X117.427 Y125.558
G1 F1920 X53.549 Y61.681 E1761.02281
G0 F10500 X53.549 Y62.388
G1 F1920 X116.719 Y125.558 E1763.68353
G0 F10500 X116.012 Y125.558
G1 F1920 X53.549 Y63.095 E1766.31448
G0 F10500 X53.549 Y63.802
G1 F1920 X115.305 Y125.558 E1768.91564
G0 F10500 X114.598 Y125.558
G1 F1920 X53.549 Y64.510 E1771.48701
G0 F10500 X53.549 Y65.217
G1 F1920 X113.891 Y125.558 E1774.02860
G0 F10500 X113.184 Y125.558
G1 F1920 X53.549 Y65.924 E1776.54040
G0 F10500 X53.549 Y66.631
G1 F1920 X112.477 Y125.558 E1779.02243
G0 F10500 X111.770 Y125.558
G1 F1920 X53.549 Y67.338 E1781.47469
G0 F10500 X53.549 Y68.045
G1 F1920 X111.063 Y125.558 E1783.89716
G0 F10500 X110.356 Y125.558
G1 F1920 X53.549 Y68.752 E1786.28985
G0 F10500 X53.549 Y69.459
G1 F1920 X109.648 Y125.558 E1788.65274
G0 F10500 X108.941 Y125.558
G1 F1920 X53.549 Y70.166 E1790.98586
G0 F10500 X53.549 Y70.874
G1 F1920 X108.234 Y125.558 E1793.28917
G0 F10500 X107.527 Y125.558
G1 F1920 X53.549 Y71.581 E1795.56271
G0 F10500 X53.549 Y72.288
G1 F1920 X106.820 Y125.558 E1797.80647
G0 F10500 X106.113 Y125.558
G1 F1920 X53.549 Y72.995 E1800.02044
G0 F10500 X53.549 Y73.702
G1 F1920 X105.406 Y125.558 E1802.20464
G0 F10500 X104.699 Y125.558
G1 F1920 X53.549 Y74.409 E1804.35906
G0 F10500 X53.549 Y75.116
G1 F1920 X103.992 Y125.558 E1806.48370
G0 F10500 X103.284 Y125.558
G1 F1920 X53.549 Y75.823 E1808.57855
G0 F10500 X53.549 Y76.530
G1 F1920 X102.577 Y125.558 E1810.64361
G0 F10500 X101.870 Y125.558
G1 F1920 X53.549 Y77.237 E1812.67889
G0 F10500 X53.549 Y77.945
G1 F1920 X101.163 Y125.558 E1814.68437
G0 F10500 X100.456 Y125.558
G1 F1920 X53.549 Y78.652 E1816.66008
G0 F10500 X53.549 Y79.359
G1 F1920 X99.749 Y125.558 E1818.60600
G0 F10500 X99.042 Y125.558
G1 F1920 X53.549 Y80.066 E1820.52215
G0 F10500 X53.549 Y80.773
G1 F1920 X98.335 Y125.558 E1822.40852
G0 F10500 X97.628 Y125.558
G1 F1920 X53.549 Y81.480 E1824.26511
G0 F10500 X53.549 Y82.187
G1 F1920 X96.921 Y125.558 E1826.09192
G0 F10500 X96.213 Y125.558
G1 F1920 X53.549 Y82.894 E1827.88893
G0 F10500 X53.549 Y83.601
G1 F1920 X95.506 Y125.558 E1829.65616
G0 F10500 X94.799 Y125.558
G1 F1920 X53.549 Y84.309 E1831.39359
G0 F10500 X53.549 Y85.016
G1 F1920 X94.092 Y125.558 E1833.10125
G0 F10500 X93.385 Y125.558
G1 F1920 X53.549 Y85.723 E1834.77912
G0 F10500 X53.549 Y86.430
G1 F1920 X92.678 Y125.558 E1836.42721
G0 F10500 X91.971 Y125.558
G1 F1920 X53.549 Y87.137 E1838.04553
G0 F10500 X53.549 Y87.844
G1 F1920 X91.264 Y125.558 E1839.63407
G0 F10500 X90.557 Y125.558
G1 F1920 X53.549 Y88.551 E1841.19282
G0 F10500 X53.549 Y89.258
G1 F1920 X89.849 Y125.558 E1842.72178
G0 F10500 X89.142 Y125.558
G1 F1920 X53.549 Y89.965 E1844.22096
G0 F10500 X53.549 Y90.673
G1 F1920 X88.435 Y125.558 E1845.69034
G0 F10500 X87.728 Y125.558
G1 F1920 X53.549 Y91.380 E1847.12994
G0 F10500 X53.549 Y92.087
G1 F1920 X87.021 Y125.558 E1848.53976
G0 F10500 X86.314 Y125.558
G1 F1920 X53.549 Y92.794 E1849.91981
G0 F10500 X53.549 Y93.501
G1 F1920 X85.607 Y125.558 E1851.27007
G0 F10500 X84.900 Y125.558
G1 F1920 X53.549 Y94.208 E1852.59056
G0 F10500 X53.549 Y94.915
G1 F1920 X84.193 Y125.558 E1853.88126
G0 F10500 X83.485 Y125.558
G1 F1920 X53.549 Y95.622 E1855.14217
G0 F10500 X53.549 Y96.329
G1 F1920 X82.778 Y125.558 E1856.37330
G0 F10500 X82.071 Y125.558
G1 F1920 X53.549 Y97.036 E1857.57464
G0 F10500 X53.549 Y97.744
G1 F1920 X81.364 Y125.558 E1858.74619
G0 F10500 X80.657 Y125.558
G1 F1920 X53.549 Y98.451 E1859.88796
G0 F10500 X53.549 Y99.158
G1 F1920 X79.950 Y125.558 E1860.99995
G0 F10500 X79.243 Y125.558
G1 F1920 X53.549 Y99.865 E1862.08216
G0 F10500 X53.549 Y100.572
G1 F1920 X78.536 Y125.558 E1863.13460
G0 F10500 X77.829 Y125.558
G1 F1920 X53.549 Y101.279 E1864.15725
G0 F10500 X53.549 Y101.986
G1 F1920 X77.122 Y125.558 E1865.15013
G0 F10500 X76.414 Y125.558
G1 F1920 X53.549 Y102.693 E1866.11320
G0 F10500 X53.549 Y103.400
G1 F1920 X75.707 Y125.558 E1867.04650
G0 F10500 X75.000 Y125.558
G1 F1920 X53.549 Y104.108 E1867.94999
G0 F10500 X53.549 Y104.815
G1 F1920 X74.293 Y125.558 E1868.82371
G0 F10500 X73.586 Y125.558
G1 F1920 X53.549 Y105.522 E1869.66765
G0 F10500 X53.549 Y106.229
G1 F1920 X72.879 Y125.558 E1870.48181
G0 F10500 X72.172 Y125.558
G1 F1920 X53.549 Y106.936 E1871.26619
G0 F10500 X53.549 Y107.643
G1 F1920 X71.465 Y125.558 E1872.02079
G0 F10500 X70.758 Y125.558
G1 F1920 X53.549 Y108.350 E1872.74562
G0 F10500 X53.549 Y109.057
G1 F1920 X70.050 Y125.558 E1873.44064
G0 F10500 X69.343 Y125.558
G1 F1920 X53.549 Y109.764 E1874.10588
G0 F10500 X53.549 Y110.471
G1 F1920 X68.636 Y125.558 E1874.74135
G0 F10500 X67.929 Y125.558
G1 F1920 X53.549 Y111.179 E1875.34701
G0 F10500 X53.549 Y111.886
G1 F1920 X67.222 Y125.558 E1875.92290
G0 F10500 X66.515 Y125.558
G1 F1920 X53.549 Y112.593 E1876.46901
G0 F10500 X53.549 Y113.300
G1 F1920 X65.808 Y125.558 E1876.98534
G0 F10500 X65.101 Y125.558
G1 F1920 X53.549 Y114.007 E1877.47189
G0 F10500 X53.549 Y114.714
G1 F1920 X64.394 Y125.558 E1877.92866
G0 F10500 X63.686 Y125.558
G1 F1920 X53.549 Y115.421 E1878.35563
G0 F10500 X53.549 Y116.128
G1 F1920 X62.979 Y125.558 E1878.75282
G0 F10500 X62.272 Y125.558
G1 F1920 X53.549 Y116.835 E1879.12023
G0 F10500 X53.549 Y117.543
G1 F1920 X61.565 Y125.558 E1879.45785
G0 F10500 X60.858 Y125.558
G1 F1920 X53.549 Y118.250 E1879.76568
G0 F10500 X53.549 Y118.957
G1 F1920 X60.151 Y125.558 E1880.04374
G0 F10500 X59.444 Y125.558
G1 F1920 X53.549 Y119.664 E1880.29201
G0 F10500 X53.549 Y120.371
G1 F1920 X58.737 Y125.558 E1880.51051
G0 F10500 X58.030 Y125.558
G1 F1920 X53.549 Y121.078 E1880.69923
G0 F10500 X53.549 Y121.785
G1 F1920 X57.323 Y125.558 E1880.85817
G0 F10500 X56.615 Y125.558
G1 F1920 X53.549 Y122.492 E1880.98731
G0 F10500 X53.549 Y123.199
G1 F1920 X55.908 Y125.558 E1881.08667
G0 F10500 X55.201 Y125.558
G1 F1920 X53.549 Y123.907 E1881.15623
G0 F10500 X53.549 Y124.614
G1 F1920 X54.494 Y125.558 E1881.19602
G0 F10500 X53.787 Y125.558
G1 F1920 X53.549 Y125.321 E1881.20602
;LAYER:3
G1 F600 E1879.70602
G1 Z1.285
G0 F10500 X104.152 Y32.938 Z1.565
;TYPE:WALL-INNER
G1 Z1.565
G1 F600 E1881.20602
G1 F1740 X104.152 Y28.223 E1881.34645
G1 X151.631 Y28.223 E1882.76053
G1 X151.631 Y32.938 E1882.90096
G1 X104.152 Y32.938 E1884.31505
G0 F10500 X103.652 Y33.438
;TYPE:WALL-OUTER
G1 F1500 X103.652 Y27.723 E1884.48526
G1 X152.131 Y27.723 E1885.92913
G1 X152.131 Y33.438 E1886.09934
G1 X103.652 Y33.438 E1887.54321
G0 F10500 X103.912 Y33.088
G0 X105.122 Y32.763
;TYPE:FILL
G1 F1980 X109.488 Y28.397 E1887.72710
G0 F10500 X109.715 Y28.398
G1 F1980 X113.167 Y31.850 E1887.87250
G0 F10500 X113.166 Y31.790
G1 F1980 X112.193 Y32.763 E1887.91349
G0 F10500 X107.009 Y32.763
G1 F1980 X104.325 Y30.079 E1888.02654
G0 F10500 X116.408 Y28.548
G1 F1980 X116.672 Y28.397 E1888.03288
G1 X116.936 Y28.548 E1888.04194
G0 F10500 X123.479 Y28.548
G1 F1980 X123.743 Y28.397 E1888.04828
G1 X124.007 Y28.548 E1888.05733
G0 F10500 X130.551 Y28.548
G1 F1980 X130.814 Y28.397 E1888.06364
G1 X131.078 Y28.548 E1888.07270
G0 F10500 X137.622 Y28.548
G1 F1980 X137.885 Y28.397 E1888.07900
G1 X138.149 Y28.548 E1888.08806
G0 F10500 X144.693 Y28.548
G1 F1980 X144.956 Y28.397 E1888.09436
G1 X145.220 Y28.548 E1888.10342
G0 F10500 X149.833 Y30.478
G1 F1980 X151.455 Y28.857 E1888.17172
G0 F10500 X150.482 Y28.768
;TYPE:SKIN
G1 F2400 X146.488 Y32.763 E1888.33997
G0 F10500 X147.195 Y32.763
G1 F2400 X150.482 Y29.475 E1888.47844
G0 F10500 X150.482 Y30.182
G1 F2400 X147.902 Y32.763 E1888.58713
G0 F10500 X148.609 Y32.763
G1 F2400 X150.482 Y30.889 E1888.66604
G0 F10500 X150.482 Y31.597
G1 F2400 X149.316 Y32.763 E1888.71515
G0 F10500 X150.024 Y32.763
G1 F2400 X150.482 Y32.304 E1888.73446
G0 F10500 X150.146 Y28.398
G1 F2400 X145.781 Y32.763 E1888.91832
G0 F10500 X145.074 Y32.763
G1 F2400 X149.439 Y28.398 E1889.10217
G0 F10500 X148.732 Y28.398
G1 F2400 X144.367 Y32.763 E1889.28603
G0 F10500 X143.660 Y32.763
G1 F2400 X148.025 Y28.398 E1889.46988
G0 F10500 X147.317 Y28.398
G1 F2400 X142.952 Y32.763 E1889.65373
G0 F10500 X142.245 Y32.763
G1 F2400 X146.610 Y28.398 E1889.83759
G0 F10500 X145.903 Y28.398
G1 F2400 X141.538 Y32.763 E1890.02144
G0 F10500 X140.831 Y32.763
G1 F2400 X145.196 Y28.398 E1890.20530
G0 F10500 X144.489 Y28.398
G1 F2400 X140.124 Y32.763 E1890.38915
G0 F10500 X139.417 Y32.763
G1 F2400 X143.782 Y28.398 E1890.57301
G0 F10500 X143.075 Y28.398
G1 F2400 X138.710 Y32.763 E1890.75686
G0 F10500 X138.003 Y32.763
G1 F2400 X142.368 Y28.398 E1890.94071
G0 F10500 X141.661 Y28.398
G1 F2400 X137.296 Y32.763 E1891.12457
G0 F10500 X136.588 Y32.763
G1 F2400 X140.953 Y28.398 E1891.30842
G0 F10500 X140.246 Y28.398
G1 F2400 X135.881 Y32.763 E1891.49228
G0 F10500 X135.174 Y32.763
G1 F2400 X139.539 Y28.398 E1891.67613
G0 F10500 X138.832 Y28.398
G1 F2400 X134.467 Y32.763 E1891.85998
G0 F10500 X133.760 Y32.763
G1 F2400 X138.125 Y28.398 E1892.04384
G0 F10500 X137.418 Y28.398
G1 F2400 X133.053 Y32.763 E1892.22769
G0 F10500 X132.346 Y32.763
G1 F2400 X136.711 Y28.398 E1892.41155
G0 F10500 X136.004 Y28.398
G1 F2400 X131.639 Y32.763 E1892.59540
G0 F10500 X130.932 Y32.763
G1 F2400 X135.297 Y28.398 E1892.77925
G0 F10500 X134.589 Y28.398
G1 F2400 X130.225 Y32.763 E1892.96309
G0 F10500 X129.517 Y32.763
G1 F2400 X133.882 Y28.398 E1893.14694
G0 F10500 X133.175 Y28.398
G1 F2400 X128.810 Y32.763 E1893.33080
G0 F10500 X128.103 Y32.763
G1 F2400 X132.468 Y28.398 E1893.51465
G0 F10500 X131.761 Y28.398
G1 F2400 X127.396 Y32.763 E1893.69850
G0 F10500 X126.689 Y32.763
G1 F2400 X131.054 Y28.398 E1893.88236
G0 F10500 X130.347 Y28.398
G1 F2400 X125.982 Y32.763 E1894.06621
G0 F10500 X125.275 Y32.763
G1 F2400 X129.640 Y28.398 E1894.25007
G0 F10500 X128.933 Y28.398
G1 F2400 X124.568 Y32.763 E1894.43392
G0 F10500 X123.861 Y32.763
G1 F2400 X128.226 Y28.398 E1894.61777
G0 F10500 X127.518 Y28.398
G1 F2400 X123.153 Y32.763 E1894.80163
G0 F10500 X122.446 Y32.763
G1 F2400 X126.811 Y28.398 E1894.98548
G0 F10500 X126.104 Y28.398
G1 F2400 X121.739 Y32.763 E1895.16934
G0 F10500 X121.032 Y32.763
G1 F2400 X125.397 Y28.398 E1895.35319
G0 F10500 X124.690 Y28.398
G1 F2400 X120.325 Y32.763 E1895.53704
G0 F10500 X119.618 Y32.763
G1 F2400 X123.983 Y28.398 E1895.72090
G0 F10500 X123.276 Y28.398
G1 F2400 X118.911 Y32.763 E1895.90475
G0 F10500 X118.204 Y32.763
G1 F2400 X122.569 Y28.398 E1896.08861
G0 F10500 X121.862 Y28.398
G1 F2400 X117.497 Y32.763 E1896.27246
G0 F10500 X116.789 Y32.763
G1 F2400 X121.154 Y28.398 E1896.45631
G0 F10500 X120.447 Y28.398
G1 F2400 X116.082 Y32.763 E1896.64017
G0 F10500 X115.375 Y32.763
G1 F2400 X119.740 Y28.398 E1896.82402
G0 F10500 X119.033 Y28.398
G1 F2400 X114.668 Y32.763 E1897.00788
G0 F10500 X113.961 Y32.763
G1 F2400 X118.326 Y28.398 E1897.19173
G0 F10500 X117.619 Y28.398
G1 F2400 X113.254 Y32.763 E1897.37558
G0 F10500 X112.547 Y32.763
G1 F2400 X116.912 Y28.398 E1897.55944
G0 F10500 X116.205 Y28.398
G1 F2400 X112.518 Y32.084 E1897.71471
G0 F10500 X112.518 Y31.377
G1 F2400 X115.498 Y28.398 E1897.84021
G0 F10500 X114.791 Y28.398
G1 F2400 X112.518 Y30.670 E1897.93593
G0 F10500 X112.518 Y29.963
G1 F2400 X114.083 Y28.398 E1898.00185
G0 F10500 X113.376 Y28.398
G1 F2400 X112.518 Y29.256 E1898.03799
G0 F10500 X112.518 Y28.549
G1 F2400 X112.669 Y28.398 E1898.04435
G0 F10500 X105.117 Y28.879
G1 F2400 X104.326 Y29.670 E1898.07766
G0 F10500 X104.326 Y30.377
G1 F2400 X105.117 Y29.586 E1898.11098
G0 F10500 X105.117 Y30.293
G1 F2400 X104.326 Y31.084 E1898.14430
G0 F10500 X104.326 Y31.791
G1 F2400 X105.116 Y31.001 E1898.17757
G0 F10500 X105.116 Y31.708
G1 F2400 X104.326 Y32.498 E1898.21085
G0 F10500 X104.769 Y32.763
G1 F2400 X105.116 Y32.415 E1898.22548
G0 F10500 X104.326 Y28.963
G1 F2400 X104.891 Y28.398 E1898.24928
G1 F600 E1896.74928
G1 Z1.665
G0 F10500 X104.152 Y120.226
;TYPE:WALL-INNER
G1 Z1.565
G1 F600 E1898.24928
G1 F1740 X151.631 Y120.226 E1899.66337
G1 X151.631 Y124.940 E1899.80377
G1 X104.152 Y124.940 E1901.21785
G1 X104.152 Y120.226 E1901.35825
G0 F10500 X103.652 Y119.726
;TYPE:WALL-OUTER
G1 F1500 X152.131 Y119.726 E1902.80212
G1 X152.131 Y125.440 E1902.97230
G1 X103.652 Y125.440 E1904.41617
G1 X103.652 Y119.726 E1904.58635
G0 F10500 X104.002 Y119.986
G0 X104.326 Y122.004
;TYPE:FILL
G1 F1980 X107.086 Y124.764 E1904.70260
G0 F10500 X105.044 Y124.764
G1 F1980 X109.409 Y120.400 E1904.88644
G0 F10500 X109.793 Y120.400
G1 F1980 X113.168 Y123.775 E1905.02859
G0 F10500 X113.168 Y123.712
G1 F1980 X112.116 Y124.764 E1905.07290
G0 F10500 X116.330 Y120.550
G1 F1980 X116.672 Y120.400 E1905.07922
G1 X117.014 Y120.549 E1905.09033
G0 F10500 X123.401 Y120.550
G1 F1980 X123.743 Y120.400 E1905.09665
G1 X124.085 Y120.549 E1905.10776
G0 F10500 X130.472 Y120.550
G1 F1980 X130.814 Y120.400 E1905.11407
G1 X131.156 Y120.549 E1905.12519
G0 F10500 X137.542 Y120.551
G1 F1980 X137.885 Y120.400 E1905.13153
G1 X138.228 Y120.550 E1905.14268
G0 F10500 X144.613 Y120.551
G1 F1980 X144.956 Y120.400 E1905.14902
G1 X145.299 Y120.550 E1905.16016
G0 F10500 X149.833 Y122.402
G1 F1980 X151.455 Y120.780 E1905.22848
G0 F10500 X150.482 Y120.692
;TYPE:SKIN
G1 F2400 X146.410 Y124.764 E1905.40000
G0 F10500 X147.117 Y124.764
G1 F2400 X150.482 Y121.399 E1905.54173
G0 F10500 X150.482 Y122.106
G1 F2400 X147.824 Y124.764 E1905.65369
G0 F10500 X148.532 Y124.764
G1 F2400 X150.482 Y122.813 E1905.73584
G0 F10500 X150.482 Y123.520
G1 F2400 X149.239 Y124.764 E1905.78822
G0 F10500 X149.946 Y124.764
G1 F2400 X150.482 Y124.228 E1905.81079
G0 F10500 X150.067 Y120.400
G1 F2400 X145.703 Y124.764 E1905.99461
G0 F10500 X144.996 Y124.764
G1 F2400 X149.360 Y120.400 E1906.17842
G0 F10500 X148.653 Y120.400
G1 F2400 X144.289 Y124.764 E1906.36223
G0 F10500 X143.582 Y124.764
G1 F2400 X147.946 Y120.400 E1906.54604
G0 F10500 X147.239 Y120.400
G1 F2400 X142.875 Y124.764 E1906.72985
G0 F10500 X142.168 Y124.764
G1 F2400 X146.532 Y120.400 E1906.91367
G0 F10500 X145.825 Y120.400
G1 F2400 X141.460 Y124.764 E1907.09750
G0 F10500 X140.753 Y124.764
G1 F2400 X145.118 Y120.400 E1907.28133
G0 F10500 X144.411 Y120.400
G1 F2400 X140.046 Y124.764 E1907.46516
G0 F10500 X139.339 Y124.764
G1 F2400 X143.703 Y120.400 E1907.64898
G0 F10500 X142.996 Y120.400
G1 F2400 X138.632 Y124.764 E1907.83279
G0 F10500 X137.925 Y124.764
G1 F2400 X142.289 Y120.400 E1908.01660
G0 F10500 X141.582 Y120.400
G1 F2400 X137.218 Y124.764 E1908.20041
G0 F10500 X136.511 Y124.764
G1 F2400 X140.875 Y120.400 E1908.38422
G0 F10500 X140.168 Y120.400
G1 F2400 X135.804 Y124.764 E1908.56804
G0 F10500 X135.096 Y124.764
G1 F2400 X139.461 Y120.400 E1908.75187
G0 F10500 X138.754 Y120.400
G1 F2400 X134.389 Y124.764 E1908.93570
G0 F10500 X133.682 Y124.764
G1 F2400 X138.047 Y120.400 E1909.11954
G0 F10500 X137.339 Y120.400
G1 F2400 X132.975 Y124.764 E1909.30335
G0 F10500 X132.268 Y124.764
G1 F2400 X136.632 Y120.400 E1909.48716
G0 F10500 X135.925 Y120.400
G1 F2400 X131.561 Y124.764 E1909.67097
G0 F10500 X130.854 Y124.764
G1 F2400 X135.218 Y120.400 E1909.85478
G0 F10500 X134.511 Y120.400
G1 F2400 X130.147 Y124.764 E1910.03859
G0 F10500 X129.440 Y124.764
G1 F2400 X133.804 Y120.400 E1910.22241
G0 F10500 X133.097 Y120.400
G1 F2400 X128.733 Y124.764 E1910.40622
G0 F10500 X128.025 Y124.764
G1 F2400 X132.390 Y120.400 E1910.59005
G0 F10500 X131.683 Y120.400
G1 F2400 X127.318 Y124.764 E1910.77388
G0 F10500 X126.611 Y124.764
G1 F2400 X130.975 Y120.400 E1910.95770
G0 F10500 X130.268 Y120.400
G1 F2400 X125.904 Y124.764 E1911.14151
G0 F10500 X125.197 Y124.764
G1 F2400 X129.561 Y120.400 E1911.32532
G0 F10500 X128.854 Y120.400
G1 F2400 X124.490 Y124.764 E1911.50913
G0 F10500 X123.783 Y124.764
G1 F2400 X128.147 Y120.400 E1911.69294
G0 F10500 X127.440 Y120.400
G1 F2400 X123.076 Y124.764 E1911.87676
G0 F10500 X122.369 Y124.764
G1 F2400 X126.733 Y120.400 E1912.06057
G0 F10500 X126.026 Y120.400
G1 F2400 X121.661 Y124.764 E1912.24440
G0 F10500 X120.954 Y124.764
G1 F2400 X125.319 Y120.400 E1912.42823
G0 F10500 X124.612 Y120.400
G1 F2400 X120.247 Y124.764 E1912.61207
G0 F10500 X119.540 Y124.764
G1 F2400 X123.904 Y120.400 E1912.79588
G0 F10500 X123.197 Y120.400
G1 F2400 X118.833 Y124.764 E1912.97969
G0 F10500 X118.126 Y124.764
G1 F2400 X122.490 Y120.400 E1913.16350
G0 F10500 X121.783 Y120.400
G1 F2400 X117.419 Y124.764 E1913.34732
G0 F10500 X116.712 Y124.764
G1 F2400 X121.076 Y120.400 E1913.53113
G0 F10500 X120.369 Y120.400
G1 F2400 X116.005 Y124.764 E1913.71494
G0 F10500 X115.298 Y124.764
G1 F2400 X119.662 Y120.400 E1913.89875
G0 F10500 X118.955 Y120.400
G1 F2400 X114.590 Y124.764 E1914.08258
G0 F10500 X113.883 Y124.764
G1 F2400 X118.248 Y120.400 E1914.26642
G0 F10500 X117.540 Y120.400
G1 F2400 X113.176 Y124.764 E1914.45023
G0 F10500 X112.519 Y124.715
G1 F2400 X116.833 Y120.400 E1914.63196
G0 F10500 X116.126 Y120.400
G1 F2400 X112.519 Y124.008 E1914.78390
G0 F10500 X112.519 Y123.301
G1 F2400 X115.419 Y120.400 E1914.90607
G0 F10500 X114.712 Y120.400
G1 F2400 X112.519 Y122.593 E1914.99844
G0 F10500 X112.519 Y121.886
G1 F2400 X114.005 Y120.400 E1915.06103
G0 F10500 X113.298 Y120.400
G1 F2400 X112.519 Y121.179 E1915.09384
G0 F10500 X112.519 Y120.472
G1 F2400 X112.591 Y120.400 E1915.09688
G0 F10500 X105.117 Y120.802
G1 F2400 X104.327 Y121.593 E1915.13017
G0 F10500 X104.327 Y122.300
G1 F2400 X105.117 Y121.509 E1915.16347
G0 F10500 X105.117 Y122.217
G1 F2400 X104.327 Y123.007 E1915.19674
G0 F10500 X104.327 Y123.714
G1 F2400 X105.117 Y122.924 E1915.23002
G0 F10500 X105.117 Y123.631
G1 F2400 X104.327 Y124.421 E1915.26329
G0 F10500 X104.691 Y124.764
G1 F2400 X105.117 Y124.339 E1915.28122
G0 F10500 X104.327 Y120.886
G1 F2400 X104.813 Y120.400 E1915.30169
;LAYER:4
G1 F600 E1913.80169
G1 Z1.665
G0 F10500 X104.152 Y32.938 Z1.945
;TYPE:WALL-INNER
G1 Z1.945
G1 F600 E1915.30169
G1 F2100 X104.152 Y28.223 E1915.44211
G1 X151.631 Y28.223 E1916.85620
G1 X151.631 Y32.938 E1916.99663
G1 X104.152 Y32.938 E1918.41071
G0 F10500 X103.652 Y33.438
;TYPE:WALL-OUTER
G1 F1800 X103.652 Y27.723 E1918.58093
G1 X152.131 Y27.723 E1920.02479
G1 X152.131 Y33.438 E1920.19501
G1 X103.652 Y33.438 E1921.63887
G0 F10500 X103.912 Y33.088
G0 X105.679 Y32.206
;TYPE:FILL
G1 F2400 X109.488 Y28.397 E1921.79931
G0 F10500 X109.715 Y28.398
G1 F2400 X113.713 Y32.396 E1921.96771
G0 F10500 X113.712 Y31.244
G1 F2400 X112.193 Y32.763 E1922.03169
G0 F10500 X107.009 Y32.763
G1 F2400 X105.678 Y31.432 E1922.08775
G0 F10500 X116.408 Y28.548
G1 F2400 X116.672 Y28.397 E1922.09409
G1 X116.936 Y28.548 E1922.10315
G0 F10500 X123.479 Y28.548
G1 F2400 X123.743 Y28.397 E1922.10949
G1 X124.007 Y28.548 E1922.11855
G0 F10500 X130.551 Y28.548
G1 F2400 X130.814 Y28.397 E1922.12485
G1 X131.078 Y28.548 E1922.13391
G0 F10500 X137.622 Y28.548
G1 F2400 X137.885 Y28.397 E1922.14021
G1 X138.149 Y28.548 E1922.14927
G0 F10500 X144.693 Y28.548
G1 F2400 X144.956 Y28.397 E1922.15558
G1 X145.220 Y28.548 E1922.16463
G0 F10500 X149.833 Y30.478
G1 F2400 X151.455 Y28.857 E1922.23293
G0 F10500 X150.483 Y28.507
;TYPE:SKIN
G1 F3000 X150.374 Y28.398 E1922.23752
G0 F10500 X149.666 Y28.398
G1 F3000 X150.483 Y29.214 E1922.27191
G0 F10500 X150.483 Y29.921
G1 F3000 X148.959 Y28.398 E1922.33608
G0 F10500 X148.252 Y28.398
G1 F3000 X150.483 Y30.629 E1922.43005
G0 F10500 X150.483 Y31.336
G1 F3000 X147.545 Y28.398 E1922.55380
G0 F10500 X146.838 Y28.398
G1 F3000 X150.483 Y32.043 E1922.70733
G0 F10500 X150.483 Y32.750
G1 F3000 X146.131 Y28.398 E1922.89064
G0 F10500 X145.424 Y28.398
G1 F3000 X149.789 Y32.763 E1923.07449
G0 F10500 X149.082 Y32.763
G1 F3000 X144.717 Y28.398 E1923.25834
G0 F10500 X144.010 Y28.398
G1 F3000 X148.375 Y32.763 E1923.44220
G0 F10500 X147.667 Y32.763
G1 F3000 X143.302 Y28.398 E1923.62605
G0 F10500 X142.595 Y28.398
G1 F3000 X146.960 Y32.763 E1923.80991
G0 F10500 X146.253 Y32.763
G1 F3000 X141.888 Y28.398 E1923.99376
G0 F10500 X141.181 Y28.398
G1 F3000 X145.546 Y32.763 E1924.17761
G0 F10500 X144.839 Y32.763
G1 F3000 X140.474 Y28.398 E1924.36147
G0 F10500 X139.767 Y28.398
G1 F3000 X144.132 Y32.763 E1924.54532
G0 F10500 X143.425 Y32.763
G1 F3000 X139.060 Y28.398 E1924.72918
G0 F10500 X138.353 Y28.398
G1 F3000 X142.718 Y32.763 E1924.91303
G0 F10500 X142.011 Y32.763
G1 F3000 X137.646 Y28.398 E1925.09689
G0 F10500 X136.939 Y28.398
G1 F3000 X141.303 Y32.763 E1925.28072
G0 F10500 X140.596 Y32.763
G1 F3000 X136.231 Y28.398 E1925.46457
G0 F10500 X135.524 Y28.398
G1 F3000 X139.889 Y32.763 E1925.64843
G0 F10500 X139.182 Y32.763
G1 F3000 X134.817 Y28.398 E1925.83228
G0 F10500 X134.110 Y28.398
G1 F3000 X138.475 Y32.763 E1926.01613
G0 F10500 X137.768 Y32.763
G1 F3000 X133.403 Y28.398 E1926.19999
G0 F10500 X132.696 Y28.398
G1 F3000 X137.061 Y32.763 E1926.38384
G0 F10500 X136.354 Y32.763
G1 F3000 X131.989 Y28.398 E1926.56770
G0 F10500 X131.282 Y28.398
G1 F3000 X135.647 Y32.763 E1926.75155
G0 F10500 X134.940 Y32.763
G1 F3000 X130.575 Y28.398 E1926.93540
G0 F10500 X129.867 Y28.398
G1 F3000 X134.232 Y32.763 E1927.11926
G0 F10500 X133.525 Y32.763
G1 F3000 X129.160 Y28.398 E1927.30311
G0 F10500 X128.453 Y28.398
G1 F3000 X132.818 Y32.763 E1927.48697
G0 F10500 X132.111 Y32.763
G1 F3000 X127.746 Y28.398 E1927.67082
G0 F10500 X127.039 Y28.398
G1 F3000 X131.404 Y32.763 E1927.85468
G0 F10500 X130.697 Y32.763
G1 F3000 X126.332 Y28.398 E1928.03853
G0 F10500 X125.625 Y28.398
G1 F3000 X129.990 Y32.763 E1928.22238
G0 F10500 X129.283 Y32.763
G1 F3000 X124.918 Y28.398 E1928.40624
G0 F10500 X124.211 Y28.398
G1 F3000 X128.576 Y32.763 E1928.59009
G0 F10500 X127.868 Y32.763
G1 F3000 X123.503 Y28.398 E1928.77395
G0 F10500 X122.796 Y28.398
G1 F3000 X127.161 Y32.763 E1928.95780
G0 F10500 X126.454 Y32.763
G1 F3000 X122.089 Y28.398 E1929.14165
G0 F10500 X121.382 Y28.398
G1 F3000 X125.747 Y32.763 E1929.32551
G0 F10500 X125.040 Y32.763
G1 F3000 X120.675 Y28.398 E1929.50936
G0 F10500 X119.968 Y28.398
G1 F3000 X124.333 Y32.763 E1929.69322
G0 F10500 X123.626 Y32.763
G1 F3000 X119.261 Y28.398 E1929.87707
G0 F10500 X118.554 Y28.398
G1 F3000 X122.919 Y32.763 E1930.06092
G0 F10500 X122.212 Y32.763
G1 F3000 X117.847 Y28.398 E1930.24478
G0 F10500 X117.140 Y28.398
G1 F3000 X121.504 Y32.763 E1930.42861
G0 F10500 X120.797 Y32.763
G1 F3000 X116.432 Y28.398 E1930.61246
G0 F10500 X115.725 Y28.398
G1 F3000 X120.090 Y32.763 E1930.79632
G0 F10500 X119.383 Y32.763
G1 F3000 X115.018 Y28.398 E1930.98017
G0 F10500 X114.311 Y28.398
G1 F3000 X118.676 Y32.763 E1931.16403
G0 F10500 X117.969 Y32.763
G1 F3000 X113.604 Y28.398 E1931.34788
G0 F10500 X113.062 Y28.562
G1 F3000 X117.262 Y32.763 E1931.52481
G0 F10500 X116.555 Y32.763
G1 F3000 X113.062 Y29.269 E1931.67195
G0 F10500 X113.062 Y29.977
G1 F3000 X115.848 Y32.763 E1931.78930
G0 F10500 X115.141 Y32.763
G1 F3000 X113.062 Y30.684 E1931.87687
G0 F10500 X113.062 Y31.391
G1 F3000 X114.433 Y32.763 E1931.93463
G0 F10500 X113.726 Y32.763
G1 F3000 X113.062 Y32.098 E1931.96262
G0 F10500 X106.329 Y32.436
G1 F3000 X104.325 Y30.433 E1932.04701
G0 F10500 X104.325 Y31.140
G1 F3000 X105.947 Y32.762 E1932.11533
G0 F10500 X105.240 Y32.762
G1 F3000 X104.325 Y31.847 E1932.15387
G0 F10500 X104.325 Y32.554
G1 F3000 X104.533 Y32.762 E1932.16263
G0 F10500 X106.329 Y31.729
G1 F3000 X104.325 Y29.726 E1932.24702
G0 F10500 X104.325 Y29.018
G1 F3000 X106.329 Y31.022 E1932.33143
G0 F10500 X106.329 Y30.315
G1 F3000 X104.412 Y28.398 E1932.41217
G0 F10500 X105.119 Y28.398
G1 F3000 X106.329 Y29.608 E1932.46314
G0 F10500 X106.329 Y28.901
G1 F3000 X105.826 Y28.398 E1932.48432
G1 F600 E1930.98432
G1 Z2.045
G0 F10500 X104.152 Y120.226
;TYPE:WALL-INNER
G1 Z1.945
G1 F600 E1932.48432
G1 F2100 X151.631 Y120.226 E1933.89841
G1 X151.631 Y124.940 E1934.03881
G1 X104.152 Y124.940 E1935.45289
G1 X104.152 Y120.226 E1935.59329
G0 F10500 X103.652 Y119.726
;TYPE:WALL-OUTER
G1 F1800 X152.131 Y119.726 E1937.03716
G1 X152.131 Y125.440 E1937.20734
G1 X103.652 Y125.440 E1938.65121
G1 X103.652 Y119.726 E1938.82139
G0 F10500 X104.002 Y119.986
G0 X105.679 Y123.356
;TYPE:FILL
G1 F2400 X107.086 Y124.764 E1938.88068
G0 F10500 X105.679 Y124.129
G1 F2400 X109.409 Y120.400 E1939.03776
G0 F10500 X109.793 Y120.400
G1 F2400 X113.714 Y124.320 E1939.20289
G0 F10500 X113.713 Y123.167
G1 F2400 X112.116 Y124.764 E1939.27016
G0 F10500 X116.329 Y120.551
G1 F2400 X116.672 Y120.400 E1939.27650
G1 X117.014 Y120.550 E1939.28762
G0 F10500 X123.400 Y120.551
G1 F2400 X123.743 Y120.400 E1939.29396
G1 X124.085 Y120.550 E1939.30509
G0 F10500 X130.471 Y120.551
G1 F2400 X130.814 Y120.400 E1939.31143
G1 X131.156 Y120.550 E1939.32255
G0 F10500 X137.542 Y120.551
G1 F2400 X137.885 Y120.400 E1939.32889
G1 X138.228 Y120.550 E1939.34004
G0 F10500 X144.613 Y120.551
G1 F2400 X144.956 Y120.400 E1939.34638
G1 X145.299 Y120.550 E1939.35753
G0 F10500 X149.833 Y122.402
G1 F2400 X151.455 Y120.780 E1939.42585
G0 F10500 X150.483 Y121.138
;TYPE:SKIN
G1 F3000 X149.746 Y120.401 E1939.45689
G0 F10500 X149.039 Y120.401
G1 F3000 X150.483 Y121.845 E1939.51771
G0 F10500 X150.483 Y122.552
G1 F3000 X148.331 Y120.401 E1939.60833
G0 F10500 X147.624 Y120.401
G1 F3000 X150.483 Y123.260 E1939.72875
G0 F10500 X150.483 Y123.967
G1 F3000 X146.917 Y120.401 E1939.87895
G0 F10500 X146.210 Y120.401
G1 F3000 X150.483 Y124.674 E1940.05893
G0 F10500 X149.866 Y124.764
G1 F3000 X145.503 Y120.401 E1940.24270
G0 F10500 X144.796 Y120.401
G1 F3000 X149.159 Y124.764 E1940.42647
G0 F10500 X148.452 Y124.764
G1 F3000 X144.089 Y120.401 E1940.61024
G0 F10500 X143.382 Y120.401
G1 F3000 X147.745 Y124.764 E1940.79401
G0 F10500 X147.037 Y124.764
G1 F3000 X142.675 Y120.401 E1940.97776
G0 F10500 X141.967 Y120.401
G1 F3000 X146.330 Y124.764 E1941.16153
G0 F10500 X145.623 Y124.764
G1 F3000 X141.260 Y120.401 E1941.34530
G0 F10500 X140.553 Y120.401
G1 F3000 X144.916 Y124.764 E1941.52907
G0 F10500 X144.209 Y124.764
G1 F3000 X139.846 Y120.401 E1941.71284
G0 F10500 X139.139 Y120.401
G1 F3000 X143.502 Y124.764 E1941.89661
G0 F10500 X142.795 Y124.764
G1 F3000 X138.432 Y120.401 E1942.08038
G0 F10500 X137.725 Y120.401
G1 F3000 X142.088 Y124.764 E1942.26415
G0 F10500 X141.381 Y124.764
G1 F3000 X137.018 Y120.401 E1942.44792
G0 F10500 X136.311 Y120.401
G1 F3000 X140.673 Y124.764 E1942.63167
G0 F10500 X139.966 Y124.764
G1 F3000 X135.603 Y120.401 E1942.81544
G0 F10500 X134.896 Y120.401
G1 F3000 X139.259 Y124.764 E1942.99921
G0 F10500 X138.552 Y124.764
G1 F3000 X134.189 Y120.401 E1943.18298
G0 F10500 X133.482 Y120.401
G1 F3000 X137.845 Y124.764 E1943.36675
G0 F10500 X137.138 Y124.764
G1 F3000 X132.775 Y120.401 E1943.55052
G0 F10500 X132.068 Y120.401
G1 F3000 X136.431 Y124.764 E1943.73429
G0 F10500 X135.724 Y124.764
G1 F3000 X131.361 Y120.401 E1943.91806
G0 F10500 X130.654 Y120.401
G1 F3000 X135.017 Y124.764 E1944.10183
G0 F10500 X134.309 Y124.764
G1 F3000 X129.947 Y120.401 E1944.28557
G0 F10500 X129.240 Y120.401
G1 F3000 X133.602 Y124.764 E1944.46932
G0 F10500 X132.895 Y124.764
G1 F3000 X128.532 Y120.401 E1944.65309
G0 F10500 X127.825 Y120.401
G1 F3000 X132.188 Y124.764 E1944.83686
G0 F10500 X131.481 Y124.764
G1 F3000 X127.118 Y120.401 E1945.02063
G0 F10500 X126.411 Y120.401
G1 F3000 X130.774 Y124.764 E1945.20440
G0 F10500 X130.067 Y124.764
G1 F3000 X125.704 Y120.401 E1945.38817
G0 F10500 X124.997 Y120.401
G1 F3000 X129.360 Y124.764 E1945.57194
G0 F10500 X128.653 Y124.764
G1 F3000 X124.290 Y120.401 E1945.75571
G0 F10500 X123.583 Y120.401
G1 F3000 X127.946 Y124.764 E1945.93948
G0 F10500 X127.238 Y124.764
G1 F3000 X122.876 Y120.401 E1946.12323
G0 F10500 X122.168 Y120.401
G1 F3000 X126.531 Y124.764 E1946.30700
G0 F10500 X125.824 Y124.764
G1 F3000 X121.461 Y120.401 E1946.49077
G0 F10500 X120.754 Y120.401
G1 F3000 X125.117 Y124.764 E1946.67454
G0 F10500 X124.410 Y124.764
G1 F3000 X120.047 Y120.401 E1946.85831
G0 F10500 X119.340 Y120.401
G1 F3000 X123.703 Y124.764 E1947.04208
G0 F10500 X122.996 Y124.764
G1 F3000 X118.633 Y120.401 E1947.22585
G0 F10500 X117.926 Y120.401
G1 F3000 X122.289 Y124.764 E1947.40962
G0 F10500 X121.582 Y124.764
G1 F3000 X117.219 Y120.401 E1947.59339
G0 F10500 X116.512 Y120.401
G1 F3000 X120.874 Y124.764 E1947.77714
G0 F10500 X120.167 Y124.764
G1 F3000 X115.804 Y120.401 E1947.96091
G0 F10500 X115.097 Y120.401
G1 F3000 X119.460 Y124.764 E1948.14468
G0 F10500 X118.753 Y124.764
G1 F3000 X114.390 Y120.401 E1948.32845
G0 F10500 X113.683 Y120.401
G1 F3000 X118.046 Y124.764 E1948.51222
G0 F10500 X117.339 Y124.764
G1 F3000 X113.062 Y120.487 E1948.69236
G0 F10500 X113.062 Y121.194
G1 F3000 X116.632 Y124.764 E1948.84273
G0 F10500 X115.925 Y124.764
G1 F3000 X113.062 Y121.901 E1948.96332
G0 F10500 X113.062 Y122.608
G1 F3000 X115.218 Y124.764 E1949.05413
G0 F10500 X114.510 Y124.764
G1 F3000 X113.062 Y123.315 E1949.11515
G0 F10500 X113.062 Y124.022
G1 F3000 X113.803 Y124.764 E1949.14638
G0 F10500 X106.329 Y124.360
G1 F3000 X104.326 Y122.357 E1949.23074
G0 F10500 X104.326 Y123.064
G1 F3000 X106.025 Y124.764 E1949.30233
G0 F10500 X105.318 Y124.764
G1 F3000 X104.326 Y123.771 E1949.34413
G0 F10500 X104.326 Y124.479
G1 F3000 X104.611 Y124.764 E1949.35614
G0 F10500 X106.329 Y123.653
G1 F3000 X104.326 Y121.650 E1949.44050
G0 F10500 X104.326 Y120.943
G1 F3000 X106.329 Y122.946 E1949.52487
G0 F10500 X106.330 Y122.240
G1 F3000 X104.490 Y120.400 E1949.60237
G0 F10500 X105.197 Y120.400
G1 F3000 X106.330 Y121.533 E1949.65009
G0 F10500 X106.330 Y120.826
G1 F3000 X105.904 Y120.400 E1949.66803
;LAYER:5
G1 F600 E1948.16803
G1 Z2.045
G0 F10500 X104.152 Y32.938 Z2.325
;TYPE:WALL-INNER
G1 Z2.325
G1 F600 E1949.66803
G1 F2100 X104.152 Y28.223 E1949.80846
G1 X151.631 Y28.223 E1951.22255
G1 X151.631 Y32.938 E1951.36298
G1 X104.152 Y32.938 E1952.77706
G0 F10500 X103.652 Y33.438
;TYPE:WALL-OUTER
G1 F1800 X103.652 Y27.723 E1952.94727
G1 X152.131 Y27.723 E1954.39114
G1 X152.131 Y33.438 E1954.56135
G1 X103.652 Y33.438 E1956.00522
G0 F10500 X103.912 Y33.088
G0 X106.891 Y32.644
;TYPE:FILL
G1 F2400 X107.008 Y32.762 E1956.01017
G0 F10500 X106.891 Y30.993
G1 F2400 X109.488 Y28.397 E1956.11954
G0 F10500 X109.715 Y28.398
G1 F2400 X114.079 Y32.762 E1956.30335
G0 F10500 X112.193 Y32.763
G1 F2400 X114.256 Y30.700 E1956.39024
G0 F10500 X116.408 Y28.548
G1 F2400 X116.672 Y28.397 E1956.39658
G1 X116.936 Y28.548 E1956.40564
G0 F10500 X123.479 Y28.548
G1 F2400 X123.743 Y28.397 E1956.41198
G1 X124.007 Y28.548 E1956.42104
G0 F10500 X130.551 Y28.548
G1 F2400 X130.814 Y28.397 E1956.42734
G1 X131.078 Y28.548 E1956.43640
G0 F10500 X137.622 Y28.548
G1 F2400 X137.885 Y28.397 E1956.44271
G1 X138.149 Y28.548 E1956.45177
G0 F10500 X144.693 Y28.548
G1 F2400 X144.956 Y28.397 E1956.45807
G1 X145.220 Y28.548 E1956.46713
G0 F10500 X149.833 Y30.478
G1 F2400 X151.455 Y28.857 E1956.53543
G0 F10500 X150.482 Y28.768
;TYPE:SKIN
G1 F3000 X146.488 Y32.763 E1956.70367
G0 F10500 X147.195 Y32.763
G1 F3000 X150.482 Y29.475 E1956.84214
G0 F10500 X150.482 Y30.182
G1 F3000 X147.902 Y32.763 E1956.95083
G0 F10500 X148.609 Y32.763
G1 F3000 X150.482 Y30.889 E1957.02975
G0 F10500 X150.482 Y31.597
G1 F3000 X149.316 Y32.763 E1957.07886
G0 F10500 X150.024 Y32.763
G1 F3000 X150.482 Y32.304 E1957.09817
G0 F10500 X150.146 Y28.398
G1 F3000 X145.781 Y32.763 E1957.28202
G0 F10500 X145.074 Y32.763
G1 F3000 X149.439 Y28.398 E1957.46588
G0 F10500 X148.732 Y28.398
G1 F3000 X144.367 Y32.763 E1957.64973
G0 F10500 X143.660 Y32.763
G1 F3000 X148.025 Y28.398 E1957.83359
G0 F10500 X147.317 Y28.398
G1 F3000 X142.952 Y32.763 E1958.01744
G0 F10500 X142.245 Y32.763
G1 F3000 X146.610 Y28.398 E1958.20130
G0 F10500 X145.903 Y28.398
G1 F3000 X141.538 Y32.763 E1958.38515
G0 F10500 X140.831 Y32.763
G1 F3000 X145.196 Y28.398 E1958.56900
G0 F10500 X144.489 Y28.398
G1 F3000 X140.124 Y32.763 E1958.75286
G0 F10500 X139.417 Y32.763
G1 F3000 X143.782 Y28.398 E1958.93671
G0 F10500 X143.075 Y28.398
G1 F3000 X138.710 Y32.763 E1959.12057
G0 F10500 X138.003 Y32.763
G1 F3000 X142.368 Y28.398 E1959.30442
G0 F10500 X141.661 Y28.398
G1 F3000 X137.296 Y32.763 E1959.48827
G0 F10500 X136.588 Y32.763
G1 F3000 X140.953 Y28.398 E1959.67213
G0 F10500 X140.246 Y28.398
G1 F3000 X135.881 Y32.763 E1959.85598
G0 F10500 X135.174 Y32.763
G1 F3000 X139.539 Y28.398 E1960.03984
G0 F10500 X138.832 Y28.398
G1 F3000 X134.467 Y32.763 E1960.22369
G0 F10500 X133.760 Y32.763
G1 F3000 X138.125 Y28.398 E1960.40754
G0 F10500 X137.418 Y28.398
G1 F3000 X133.053 Y32.763 E1960.59140
G0 F10500 X132.346 Y32.763
G1 F3000 X136.711 Y28.398 E1960.77525
G0 F10500 X136.004 Y28.398
G1 F3000 X131.639 Y32.763 E1960.95911
G0 F10500 X130.932 Y32.763
G1 F3000 X135.297 Y28.398 E1961.14296
G0 F10500 X134.589 Y28.398
G1 F3000 X130.225 Y32.763 E1961.32679
G0 F10500 X129.517 Y32.763
G1 F3000 X133.882 Y28.398 E1961.51065
G0 F10500 X133.175 Y28.398
G1 F3000 X128.810 Y32.763 E1961.69450
G0 F10500 X128.103 Y32.763
G1 F3000 X132.468 Y28.398 E1961.87836
G0 F10500 X131.761 Y28.398
G1 F3000 X127.396 Y32.763 E1962.06221
G0 F10500 X126.689 Y32.763
G1 F3000 X131.054 Y28.398 E1962.24606
G0 F10500 X130.347 Y28.398
G1 F3000 X125.982 Y32.763 E1962.42992
G0 F10500 X125.275 Y32.763
G1 F3000 X129.640 Y28.398 E1962.61377
G0 F10500 X128.933 Y28.398
G1 F3000 X124.568 Y32.763 E1962.79763
G0 F10500 X123.861 Y32.763
G1 F3000 X128.226 Y28.398 E1962.98148
G0 F10500 X127.518 Y28.398
G1 F3000 X123.153 Y32.763 E1963.16533
G0 F10500 X122.446 Y32.763
G1 F3000 X126.811 Y28.398 E1963.34919
G0 F10500 X126.104 Y28.398
G1 F3000 X121.739 Y32.763 E1963.53304
G0 F10500 X121.032 Y32.763
G1 F3000 X125.397 Y28.398 E1963.71690
G0 F10500 X124.690 Y28.398
G1 F3000 X120.325 Y32.763 E1963.90075
G0 F10500 X119.618 Y32.763
G1 F3000 X123.983 Y28.398 E1964.08460
G0 F10500 X123.276 Y28.398
G1 F3000 X118.911 Y32.763 E1964.26846
G0 F10500 X118.204 Y32.763
G1 F3000 X122.569 Y28.398 E1964.45231
G0 F10500 X121.862 Y28.398
G1 F3000 X117.497 Y32.763 E1964.63617
G0 F10500 X116.789 Y32.763
G1 F3000 X121.154 Y28.398 E1964.82002
G0 F10500 X120.447 Y28.398
G1 F3000 X116.082 Y32.763 E1965.00387
G0 F10500 X115.375 Y32.763
G1 F3000 X119.740 Y28.398 E1965.18773
G0 F10500 X119.033 Y28.398
G1 F3000 X114.668 Y32.763 E1965.37158
G0 F10500 X113.961 Y32.763
G1 F3000 X118.326 Y28.398 E1965.55544
G0 F10500 X117.619 Y28.398
G1 F3000 X113.607 Y32.410 E1965.72442
G0 F10500 X113.607 Y31.703
G1 F3000 X116.912 Y28.398 E1965.86363
G0 F10500 X116.205 Y28.398
G1 F3000 X113.607 Y30.996 E1965.97306
G0 F10500 X113.607 Y30.288
G1 F3000 X115.498 Y28.398 E1966.05269
G0 F10500 X114.791 Y28.398
G1 F3000 X113.607 Y29.581 E1966.10253
G0 F10500 X113.607 Y28.874
G1 F3000 X114.083 Y28.398 E1966.12258
G0 F10500 X107.541 Y28.577
G1 F3000 X104.326 Y31.791 E1966.25798
G0 F10500 X104.326 Y32.498
G1 F3000 X107.541 Y29.284 E1966.39337
G0 F10500 X107.541 Y29.991
G1 F3000 X104.769 Y32.763 E1966.51013
G0 F10500 X105.476 Y32.763
G1 F3000 X107.541 Y30.698 E1966.59711
G0 F10500 X107.541 Y31.405
G1 F3000 X106.183 Y32.763 E1966.65431
G0 F10500 X106.890 Y32.763
G1 F3000 X107.541 Y32.112 E1966.68173
G0 F10500 X104.326 Y31.084
G1 F3000 X107.012 Y28.398 E1966.79486
G0 F10500 X106.305 Y28.398
G1 F3000 X104.326 Y30.377 E1966.87822
G0 F10500 X104.326 Y29.670
G1 F3000 X105.598 Y28.398 E1966.93179
G0 F10500 X104.891 Y28.398
G1 F3000 X104.326 Y28.963 E1966.95559
G1 F600 E1965.45559
G1 Z2.425
G0 F10500 X104.152 Y120.226
;TYPE:WALL-INNER
G1 Z2.325
G1 F600 E1966.95559
G1 F2100 X151.631 Y120.226 E1968.36968
G1 X151.631 Y124.940 E1968.51008
G1 X104.152 Y124.940 E1969.92416
G1 X104.152 Y120.226 E1970.06456
G0 F10500 X103.652 Y119.726
;TYPE:WALL-OUTER
G1 F1800 X152.131 Y119.726 E1971.50843
G1 X152.131 Y125.440 E1971.67861
G1 X103.652 Y125.440 E1973.12248
G1 X103.652 Y119.726 E1973.29266
G0 F10500 X104.002 Y119.986
G0 X106.892 Y122.917
;TYPE:FILL
G1 F2400 X109.409 Y120.400 E1973.39868
G0 F10500 X109.793 Y120.400
G1 F2400 X114.158 Y124.764 E1973.58251
G0 F10500 X112.116 Y124.764
G1 F2400 X114.257 Y122.622 E1973.67271
G0 F10500 X116.329 Y120.551
G1 F2400 X116.672 Y120.400 E1973.67905
G1 X117.014 Y120.550 E1973.69017
G0 F10500 X107.087 Y124.764
G1 F2400 X106.891 Y124.569 E1973.69841
G0 F10500 X123.400 Y120.551
G1 F2400 X123.743 Y120.400 E1973.70475
G1 X124.085 Y120.550 E1973.71587
G0 F10500 X130.471 Y120.551
G1 F2400 X130.814 Y120.400 E1973.72221
G1 X131.156 Y120.550 E1973.73333
G0 F10500 X137.542 Y120.551
G1 F2400 X137.885 Y120.400 E1973.73967
G1 X138.228 Y120.550 E1973.75082
G0 F10500 X144.613 Y120.551
G1 F2400 X144.956 Y120.400 E1973.75716
G1 X145.299 Y120.550 E1973.76831
G0 F10500 X149.833 Y122.402
G1 F2400 X151.455 Y120.780 E1973.83663
G0 F10500 X150.482 Y120.692
;TYPE:SKIN
G1 F3000 X146.410 Y124.764 E1974.00814
G0 F10500 X147.117 Y124.764
G1 F3000 X150.482 Y121.399 E1974.14988
G0 F10500 X150.482 Y122.106
G1 F3000 X147.824 Y124.764 E1974.26183
G0 F10500 X148.532 Y124.764
G1 F3000 X150.482 Y122.813 E1974.34399
G0 F10500 X150.482 Y123.520
G1 F3000 X149.239 Y124.764 E1974.39636
G0 F10500 X149.946 Y124.764
G1 F3000 X150.482 Y124.228 E1974.41894
G0 F10500 X150.067 Y120.400
G1 F3000 X145.703 Y124.764 E1974.60275
G0 F10500 X144.996 Y124.764
G1 F3000 X149.360 Y120.400 E1974.78656
G0 F10500 X148.653 Y120.400
G1 F3000 X144.289 Y124.764 E1974.97038
G0 F10500 X143.582 Y124.764
G1 F3000 X147.946 Y120.400 E1975.15419
G0 F10500 X147.239 Y120.400
G1 F3000 X142.875 Y124.764 E1975.33800
G0 F10500 X142.168 Y124.764
G1 F3000 X146.532 Y120.400 E1975.52181
G0 F10500 X145.825 Y120.400
G1 F3000 X141.460 Y124.764 E1975.70565
G0 F10500 X140.753 Y124.764
G1 F3000 X145.118 Y120.400 E1975.88948
G0 F10500 X144.411 Y120.400
G1 F3000 X140.046 Y124.764 E1976.07331
G0 F10500 X139.339 Y124.764
G1 F3000 X143.703 Y120.400 E1976.25712
G0 F10500 X142.996 Y120.400
G1 F3000 X138.632 Y124.764 E1976.44094
G0 F10500 X137.925 Y124.764
G1 F3000 X142.289 Y120.400 E1976.62475
G0 F10500 X141.582 Y120.400
G1 F3000 X137.218 Y124.764 E1976.80856
G0 F10500 X136.511 Y124.764
G1 F3000 X140.875 Y120.400 E1976.99237
G0 F10500 X140.168 Y120.400
G1 F3000 X135.804 Y124.764 E1977.17618
G0 F10500 X135.096 Y124.764
G1 F3000 X139.461 Y120.400 E1977.36002
G0 F10500 X138.754 Y120.400
G1 F3000 X134.389 Y124.764 E1977.54385
G0 F10500 X133.682 Y124.764
G1 F3000 X138.047 Y120.400 E1977.72768
G0 F10500 X137.339 Y120.400
G1 F3000 X132.975 Y124.764 E1977.91149
G0 F10500 X132.268 Y124.764
G1 F3000 X136.632 Y120.400 E1978.09531
G0 F10500 X135.925 Y120.400
G1 F3000 X131.561 Y124.764 E1978.27912
G0 F10500 X130.854 Y124.764
G1 F3000 X135.218 Y120.400 E1978.46293
G0 F10500 X134.511 Y120.400
G1 F3000 X130.147 Y124.764 E1978.64674
G0 F10500 X129.440 Y124.764
G1 F3000 X133.804 Y120.400 E1978.83055
G0 F10500 X133.097 Y120.400
G1 F3000 X128.733 Y124.764 E1979.01437
G0 F10500 X128.025 Y124.764
G1 F3000 X132.390 Y120.400 E1979.19820
G0 F10500 X131.683 Y120.400
G1 F3000 X127.318 Y124.764 E1979.38203
G0 F10500 X126.611 Y124.764
G1 F3000 X130.975 Y120.400 E1979.56584
G0 F10500 X130.268 Y120.400
G1 F3000 X125.904 Y124.764 E1979.74966
G0 F10500 X125.197 Y124.764
G1 F3000 X129.561 Y120.400 E1979.93347
G0 F10500 X128.854 Y120.400
G1 F3000 X124.490 Y124.764 E1980.11728
G0 F10500 X123.783 Y124.764
G1 F3000 X128.147 Y120.400 E1980.30109
G0 F10500 X127.440 Y120.400
G1 F3000 X123.076 Y124.764 E1980.48490
G0 F10500 X122.369 Y124.764
G1 F3000 X126.733 Y120.400 E1980.66872
G0 F10500 X126.026 Y120.400
G1 F3000 X121.661 Y124.764 E1980.85255
G0 F10500 X120.954 Y124.764
G1 F3000 X125.319 Y120.400 E1981.03638
G0 F10500 X124.612 Y120.400
G1 F3000 X120.247 Y124.764 E1981.22021
G0 F10500 X119.540 Y124.764
G1 F3000 X123.904 Y120.400 E1981.40403
G0 F10500 X123.197 Y120.400
G1 F3000 X118.833 Y124.764 E1981.58784
G0 F10500 X118.126 Y124.764
G1 F3000 X122.490 Y120.400 E1981.77165
G0 F10500 X121.783 Y120.400
G1 F3000 X117.419 Y124.764 E1981.95546
G0 F10500 X116.712 Y124.764
G1 F3000 X121.076 Y120.400 E1982.13927
G0 F10500 X120.369 Y120.400
G1 F3000 X116.005 Y124.764 E1982.32309
G0 F10500 X115.298 Y124.764
G1 F3000 X119.662 Y120.400 E1982.50690
G0 F10500 X118.955 Y120.400
G1 F3000 X114.590 Y124.764 E1982.69073
G0 F10500 X113.883 Y124.764
G1 F3000 X118.248 Y120.400 E1982.87456
G0 F10500 X117.540 Y120.400
G1 F3000 X113.608 Y124.333 E1983.04020
G0 F10500 X113.608 Y123.626
G1 F3000 X116.833 Y120.400 E1983.17606
G0 F10500 X116.126 Y120.400
G1 F3000 X113.608 Y122.919 E1983.28214
G0 F10500 X113.608 Y122.212
G1 F3000 X115.419 Y120.400 E1983.35844
G0 F10500 X114.712 Y120.400
G1 F3000 X113.608 Y121.504 E1983.40494
G0 F10500 X113.608 Y120.797
G1 F3000 X114.005 Y120.400 E1983.42166
G0 F10500 X107.542 Y120.499
G1 F3000 X104.327 Y123.714 E1983.55708
G0 F10500 X104.327 Y124.421
G1 F3000 X107.542 Y121.206 E1983.69249
G0 F10500 X107.542 Y121.913
G1 F3000 X104.692 Y124.764 E1983.81256
G0 F10500 X105.399 Y124.764
G1 F3000 X107.541 Y122.621 E1983.90280
G0 F10500 X107.541 Y123.328
G1 F3000 X106.106 Y124.764 E1983.96326
G0 F10500 X106.813 Y124.764
G1 F3000 X107.541 Y124.035 E1983.99395
G0 F10500 X104.327 Y123.007
G1 F3000 X106.935 Y120.399 E1984.10380
G0 F10500 X106.227 Y120.399
G1 F3000 X104.327 Y122.300 E1984.18385
G0 F10500 X104.327 Y121.593
G1 F3000 X105.520 Y120.399 E1984.23412
G0 F10500 X104.813 Y120.399
G1 F3000 X104.327 Y120.886 E1984.25461
;LAYER:6
M106 S255
G1 F600 E1982.75461
G1 Z2.425
G0 F10500 X105.042 Y32.938 Z2.705
;TYPE:WALL-INNER
G1 Z2.705
G1 F600 E1984.25461
G1 F720 X105.043 Y28.223 E1984.39504
G1 X112.594 Y28.223 E1984.61993
G1 X112.594 Y32.938 E1984.76036
G1 X105.042 Y32.938 E1984.98528
G0 F10500 X104.542 Y33.438
;TYPE:WALL-OUTER
G1 F600 X104.543 Y27.723 E1985.15549
G1 X113.094 Y27.723 E1985.41017
G1 X113.093 Y33.438 E1985.58038
G1 X104.542 Y33.438 E1985.83506
G0 F10500 X104.802 Y33.088
G0 X108.104 Y29.781
;TYPE:FILL
G1 F840 X109.487 Y28.398 E1985.89331
G0 F10500 X109.715 Y28.398
G1 F840 X112.418 Y31.101 E1986.00716
G0 F10500 X112.417 Y32.538
G1 F840 X112.193 Y32.763 E1986.01662
G0 F10500 X108.753 Y32.739
;TYPE:SKIN
G1 F1080 X105.216 Y29.202 E1986.16560
G0 F10500 X105.216 Y29.909
G1 F1080 X108.069 Y32.763 E1986.28579
G0 F10500 X107.362 Y32.763
G1 F1080 X105.216 Y30.616 E1986.37620
G0 F10500 X105.216 Y31.323
G1 F1080 X106.655 Y32.763 E1986.43683
G0 F10500 X105.948 Y32.763
G1 F1080 X105.216 Y32.030 E1986.46768
G0 F10500 X105.216 Y28.494
G1 F1080 X108.753 Y32.032 E1986.61668
G0 F10500 X108.753 Y31.325
G1 F1080 X105.826 Y28.398 E1986.73997
G0 F10500 X106.533 Y28.398
G1 F1080 X108.753 Y30.618 E1986.83348
G0 F10500 X108.753 Y29.911
G1 F1080 X107.240 Y28.398 E1986.89720
G0 F10500 X107.947 Y28.398
G1 F1080 X108.753 Y29.204 E1986.93115
G0 F10500 X108.753 Y28.497
G1 F1080 X108.654 Y28.398 E1986.93532
G1 F600 E1985.43532
G1 Z2.805
G0 F10500 X150.409 Y28.223
;TYPE:WALL-INNER
G1 Z2.705
G1 F600 E1986.93532
G1 F720 X151.631 Y28.223 E1986.97172
G1 X151.631 Y32.938 E1987.11215
G1 X150.409 Y32.938 E1987.14854
G1 X150.409 Y28.223 E1987.28897
G0 F10500 X149.909 Y27.723
;TYPE:WALL-OUTER
G1 F600 X152.131 Y27.723 E1987.35515
G1 X152.131 Y33.438 E1987.52536
G1 X149.909 Y33.438 E1987.59154
G1 X149.909 Y27.723 E1987.76175
G0 F10500 X150.259 Y27.983
G0 X151.455 Y28.857
;TYPE:FILL
G1 F840 X150.583 Y29.728 E1987.79846
G1 F600 E1986.29846
G1 Z2.805
G0 F10500 X150.409 Y120.226
;TYPE:WALL-INNER
G1 Z2.705
G1 F600 E1987.79846
G1 F720 X151.631 Y120.226 E1987.83485
G1 X151.631 Y124.940 E1987.97525
G1 X150.409 Y124.940 E1988.01165
G1 X150.409 Y120.226 E1988.15205
G0 F10500 X149.909 Y119.726
;TYPE:WALL-OUTER
G1 F600 X152.131 Y119.726 E1988.21823
G1 X152.131 Y125.440 E1988.38841
G1 X149.909 Y125.440 E1988.45459
G1 X149.909 Y119.726 E1988.62477
G0 F10500 X150.259 Y119.986
G0 X151.455 Y120.780
;TYPE:FILL
G1 F840 X150.583 Y121.652 E1988.66150
G1 F600 E1987.16150
G1 Z2.805
G0 F10500 X112.594 Y120.226
;TYPE:WALL-INNER
G1 Z2.705
G1 F600 E1988.66150
G1 F720 X112.594 Y124.940 E1988.80190
G1 X105.042 Y124.940 E1989.02682
G1 X105.043 Y120.226 E1989.16722
G1 X112.594 Y120.226 E1989.39211
G0 F10500 X113.094 Y119.726
;TYPE:WALL-OUTER
G1 F600 X113.093 Y125.440 E1989.56230
G1 X104.542 Y125.440 E1989.81697
G1 X104.543 Y119.726 E1989.98716
G1 X113.094 Y119.726 E1990.24183
G0 F10500 X112.744 Y119.986
G0 X112.419 Y123.025
;TYPE:FILL
G1 F840 X109.793 Y120.400 E1990.35242
G0 F10500 X109.409 Y120.400
G1 F840 X108.105 Y121.704 E1990.40734
G0 F10500 X112.116 Y124.764
G1 F840 X112.418 Y124.462 E1990.42007
G0 F10500 X108.754 Y124.664
;TYPE:SKIN
G1 F1080 X105.216 Y121.126 E1990.56909
G0 F10500 X105.216 Y121.833
G1 F1080 X108.147 Y124.764 E1990.69254
G0 F10500 X107.439 Y124.764
G1 F1080 X105.216 Y122.540 E1990.78619
G0 F10500 X105.216 Y123.248
G1 F1080 X106.732 Y124.764 E1990.85005
G0 F10500 X106.025 Y124.764
G1 F1080 X105.216 Y123.955 E1990.88412
G0 F10500 X105.216 Y124.662
G1 F1080 X105.318 Y124.764 E1990.88842
G0 F10500 X108.754 Y123.957
G1 F1080 X105.216 Y120.419 E1991.03744
G0 F10500 X105.904 Y120.400
G1 F1080 X108.754 Y123.250 E1991.15748
G0 F10500 X108.755 Y122.543
G1 F1080 X106.611 Y120.400 E1991.24777
G0 F10500 X107.319 Y120.400
G1 F1080 X108.755 Y121.836 E1991.30825
G0 F10500 X108.755 Y121.129
G1 F1080 X108.026 Y120.400 E1991.33896
;LAYER:7
G1 F600 E1989.83896
G1 Z2.805
G0 F10500 X106.254 Y32.938 Z3.085
;TYPE:WALL-INNER
G1 Z3.085
G1 F600 E1991.33896
G1 F720 X106.255 Y28.223 E1991.47939
G1 X113.139 Y28.223 E1991.68441
G1 X113.138 Y32.938 E1991.82484
G1 X106.254 Y32.938 E1992.02987
G0 F10500 X105.754 Y33.438
;TYPE:WALL-OUTER
G1 F600 X105.755 Y27.723 E1992.20008
G1 X113.639 Y27.723 E1992.43490
G1 X113.638 Y33.438 E1992.60511
G1 X105.754 Y33.438 E1992.83992
G0 F10500 X106.014 Y33.088
G0 X109.316 Y28.569
;TYPE:FILL
G1 F840 X109.487 Y28.398 E1992.84712
G0 F10500 X109.715 Y28.398
G1 F840 X112.962 Y31.645 E1992.98389
G0 F10500 X112.961 Y31.995
G1 F840 X112.193 Y32.763 E1993.01623
G0 F10500 X109.965 Y32.517
;TYPE:SKIN
G1 F1020 X109.718 Y32.763 E1993.02662
G0 F10500 X109.011 Y32.763
G1 F1020 X109.965 Y31.809 E1993.06680
G0 F10500 X109.965 Y31.102
G1 F1020 X108.304 Y32.763 E1993.13676
G0 F10500 X107.597 Y32.763
G1 F1020 X109.965 Y30.395 E1993.23650
G0 F10500 X109.965 Y29.688
G1 F1020 X106.890 Y32.763 E1993.36602
G0 F10500 X106.428 Y32.517
G1 F1020 X109.965 Y28.981 E1993.51498
G0 F10500 X109.841 Y28.398
G1 F1020 X106.428 Y31.810 E1993.65871
G0 F10500 X106.428 Y31.103
G1 F1020 X109.134 Y28.398 E1993.77267
G0 F10500 X108.427 Y28.398
G1 F1020 X106.428 Y30.396 E1993.85685
G0 F10500 X106.428 Y29.689
G1 F1020 X107.719 Y28.398 E1993.91122
G0 F10500 X107.012 Y28.398
G1 F1020 X106.428 Y28.982 E1993.93582
G1 F600 E1992.43582
G1 Z3.185
G0 F10500 X150.409 Y28.223
;TYPE:WALL-INNER
G1 Z3.085
G1 F600 E1993.93582
G1 F720 X151.631 Y28.223 E1993.97222
G1 X151.631 Y32.938 E1994.11264
G1 X150.409 Y32.938 E1994.14904
G1 X150.409 Y28.223 E1994.28947
G0 F10500 X149.909 Y27.723
;TYPE:WALL-OUTER
G1 F600 X152.131 Y27.723 E1994.35565
G1 X152.131 Y33.438 E1994.52586
G1 X149.909 Y33.438 E1994.59204
G1 X149.909 Y27.723 E1994.76225
G0 F10500 X150.259 Y27.983
G0 X151.455 Y28.857
;TYPE:FILL
G1 F840 X150.583 Y29.728 E1994.79896
G1 F600 E1993.29896
G1 Z3.185
G0 F10500 X150.409 Y120.226
;TYPE:WALL-INNER
G1 Z3.085
G1 F600 E1994.79896
G1 F720 X151.631 Y120.226 E1994.83535
G1 X151.631 Y124.940 E1994.97575
G1 X150.409 Y124.940 E1995.01215
G1 X150.409 Y120.226 E1995.15255
G0 F10500 X149.909 Y119.726
;TYPE:WALL-OUTER
G1 F600 X152.131 Y119.726 E1995.21872
G1 X152.131 Y125.440 E1995.38891
G1 X149.909 Y125.440 E1995.45509
G1 X149.909 Y119.726 E1995.62527
G0 F10500 X150.259 Y119.986
G0 X151.455 Y120.780
;TYPE:FILL
G1 F840 X150.583 Y121.652 E1995.66200
G1 F600 E1994.16200
G1 Z3.185
G0 F10500 X113.139 Y120.226
;TYPE:WALL-INNER
G1 Z3.085
G1 F600 E1995.66200
G1 F720 X113.138 Y124.940 E1995.80240
G1 X106.254 Y124.940 E1996.00742
G1 X106.255 Y120.226 E1996.14782
G1 X113.139 Y120.226 E1996.35285
G0 F10500 X113.639 Y119.726
;TYPE:WALL-OUTER
G1 F600 X113.638 Y125.440 E1996.52303
G1 X105.754 Y125.440 E1996.75785
G1 X105.755 Y119.726 E1996.92803
G1 X113.639 Y119.726 E1997.16284
G0 F10500 X113.289 Y119.986
G0 X112.963 Y123.570
;TYPE:FILL
G1 F840 X109.793 Y120.400 E1997.29636
G0 F10500 X109.409 Y120.399
G1 F840 X109.317 Y120.492 E1997.30026
G0 F10500 X112.963 Y123.917
G1 F840 X112.116 Y124.764 E1997.33593
G0 F10500 X109.965 Y124.440
;TYPE:SKIN
G1 F1020 X109.641 Y124.764 E1997.34958
G0 F10500 X108.934 Y124.764
G1 F1020 X109.965 Y123.733 E1997.39301
G0 F10500 X109.965 Y123.025
G1 F1020 X108.227 Y124.764 E1997.46623
G0 F10500 X107.520 Y124.764
G1 F1020 X109.966 Y122.318 E1997.56926
G0 F10500 X109.966 Y121.611
G1 F1020 X106.813 Y124.764 E1997.70206
G0 F10500 X106.429 Y124.440
G1 F1020 X109.966 Y120.903 E1997.85104
G0 F10500 X109.763 Y120.399
G1 F1020 X106.429 Y123.733 E1997.99147
G0 F10500 X106.429 Y123.026
G1 F1020 X109.056 Y120.399 E1998.10212
G0 F10500 X108.349 Y120.399
G1 F1020 X106.430 Y122.318 E1998.18295
G0 F10500 X106.430 Y121.611
G1 F1020 X107.642 Y120.399 E1998.23400
G0 F10500 X106.935 Y120.399
G1 F1020 X106.430 Y120.904 E1998.25527
;LAYER:8
G1 F600 E1996.75527
G1 Z3.185
G0 F10500 X107.467 Y32.938 Z3.465
;TYPE:WALL-INNER
G1 Z3.465
G1 F600 E1998.25527
G1 F660 X107.468 Y28.223 E1998.39570
G1 X113.683 Y28.223 E1998.58080
G1 X113.682 Y32.938 E1998.72123
G1 X107.467 Y32.938 E1998.90633
G0 F10500 X106.967 Y33.438
;TYPE:WALL-OUTER
G1 F600 X106.968 Y27.723 E1999.07654
G1 X114.183 Y27.723 E1999.29143
G1 X114.182 Y33.438 E1999.46164
G1 X106.967 Y33.438 E1999.67653
G0 F10500 X107.227 Y33.088
G0 X112.193 Y32.763
;TYPE:FILL
G1 F780 X113.506 Y31.450 E1999.73183
G0 F10500 X113.506 Y32.189
G1 F780 X110.529 Y29.211 E1999.85725
G0 F10500 X111.179 Y29.508
;TYPE:SKIN
G1 F1020 X110.068 Y28.398 E1999.90402
G0 F10500 X109.361 Y28.398
G1 F1020 X111.179 Y30.216 E1999.98059
G0 F10500 X111.179 Y30.923
G1 F1020 X108.654 Y28.398 E2000.08695
G0 F10500 X107.947 Y28.398
G1 F1020 X111.179 Y31.630 E2000.22308
G0 F10500 X111.179 Y32.337
G1 F1020 X107.641 Y28.799 E2000.37210
G0 F10500 X107.641 Y29.506
G1 F1020 X110.898 Y32.763 E2000.50929
G0 F10500 X110.191 Y32.763
G1 F1020 X107.641 Y30.213 E2000.61669
G0 F10500 X107.641 Y30.920
G1 F1020 X109.484 Y32.763 E2000.69432
G0 F10500 X108.777 Y32.763
G1 F1020 X107.641 Y31.627 E2000.74217
G0 F10500 X107.641 Y32.334
G1 F1020 X108.069 Y32.763 E2000.76022
G0 F10500 X111.179 Y28.801
G1 F1020 X110.776 Y28.398 E2000.77719
G1 F600 E1999.27719
G1 Z3.565
G0 F10500 X150.409 Y28.223
;TYPE:WALL-INNER
G1 Z3.465
G1 F600 E2000.77719
G1 F660 X151.631 Y28.223 E2000.81359
G1 X151.631 Y32.938 E2000.95401
G1 X150.409 Y32.938 E2000.99041
G1 X150.409 Y28.223 E2001.13084
G0 F10500 X149.909 Y27.723
;TYPE:WALL-OUTER
G1 F600 X152.131 Y27.723 E2001.19702
G1 X152.131 Y33.438 E2001.36723
G1 X149.909 Y33.438 E2001.43341
G1 X149.909 Y27.723 E2001.60362
G0 F10500 X150.259 Y27.983
G0 X151.455 Y28.857
;TYPE:FILL
G1 F780 X150.583 Y29.728 E2001.64033
G1 F600 E2000.14033
G1 Z3.565
G0 F10500 X150.409 Y120.226
;TYPE:WALL-INNER
G1 Z3.465
G1 F600 E2001.64033
G1 F660 X151.631 Y120.226 E2001.67672
G1 X151.631 Y124.940 E2001.81712
G1 X150.409 Y124.940 E2001.85352
G1 X150.409 Y120.226 E2001.99392
G0 F10500 X149.909 Y119.726
;TYPE:WALL-OUTER
G1 F600 X152.131 Y119.726 E2002.06009
G1 X152.131 Y125.440 E2002.23028
G1 X149.909 Y125.440 E2002.29645
G1 X149.909 Y119.726 E2002.46664
G0 F10500 X150.259 Y119.986
G0 X151.455 Y120.780
;TYPE:FILL
G1 F780 X150.583 Y121.652 E2002.50337
G1 F600 E2001.00337
G1 Z3.565
G0 F10500 X113.683 Y120.226
;TYPE:WALL-INNER
G1 Z3.465
G1 F600 E2002.50337
G1 F660 X113.682 Y124.940 E2002.64376
G1 X107.467 Y124.940 E2002.82887
G1 X107.468 Y120.226 E2002.96927
G1 X113.683 Y120.226 E2003.15437
G0 F10500 X114.183 Y119.726
;TYPE:WALL-OUTER
G1 F600 X114.182 Y125.440 E2003.32455
G1 X106.967 Y125.440 E2003.53944
G1 X106.968 Y119.726 E2003.70962
G1 X114.183 Y119.726 E2003.92451
G0 F10500 X113.833 Y119.986
G0 X113.506 Y123.373
;TYPE:FILL
G1 F780 X112.116 Y124.764 E2003.98308
G0 F10500 X113.507 Y124.114
G1 F780 X110.529 Y121.136 E2004.10851
G0 F10500 X111.179 Y121.432
;TYPE:SKIN
G1 F1020 X110.147 Y120.400 E2004.15198
G0 F10500 X109.440 Y120.400
G1 F1020 X111.179 Y122.139 E2004.22523
G0 F10500 X111.179 Y122.847
G1 F1020 X108.733 Y120.400 E2004.32827
G0 F10500 X108.026 Y120.400
G1 F1020 X111.179 Y123.554 E2004.46110
G0 F10500 X111.179 Y124.261
G1 F1020 X107.642 Y120.723 E2004.61010
G0 F10500 X107.642 Y121.430
G1 F1020 X110.975 Y124.764 E2004.75050
G0 F10500 X110.268 Y124.764
G1 F1020 X107.642 Y122.137 E2004.86113
G0 F10500 X107.642 Y122.844
G1 F1020 X109.561 Y124.764 E2004.94198
G0 F10500 X108.854 Y124.764
G1 F1020 X107.642 Y123.552 E2004.99303
G0 F10500 X107.642 Y124.259
G1 F1020 X108.147 Y124.764 E2005.01430
G0 F10500 X111.179 Y120.725
G1 F1020 X110.854 Y120.400 E2005.02799
;LAYER:9
G1 F600 E2003.52799
G1 Z3.565
G0 F10500 X108.679 Y32.938 Z3.845
;TYPE:WALL-INNER
G1 Z3.845
G1 F600 E2005.02799
G1 F720 X108.680 Y28.223 E2005.16842
G1 X114.228 Y28.223 E2005.33366
G1 X114.227 Y32.938 E2005.47409
G1 X108.679 Y32.938 E2005.63933
G0 F10500 X108.179 Y33.438
;TYPE:WALL-OUTER
G1 F600 X108.180 Y27.723 E2005.80954
G1 X114.728 Y27.723 E2006.00456
G1 X114.727 Y33.438 E2006.17477
G1 X108.179 Y33.438 E2006.36979
G0 F10500 X108.439 Y33.088
G0 X112.193 Y32.763
;TYPE:FILL
G1 F840 X113.166 Y31.790 E2006.41078
G0 F10500 X113.167 Y31.850
G1 F840 X111.741 Y30.423 E2006.47086
G0 F10500 X112.391 Y30.090
