;This Gcode has been generated specifically for the LulzBot Mini
;Basic settings: Layer height: 0.38 Walls: 1 Fill: 0
;Filament Diameter: 2.85
;Nozzle Size: 0.5
G21                          ; metric values
G90                          ; absolute positioning
M82                          ; set extruder to absolute mode
M107                         ; start with the fan off
G92 E0                       ; set extruder position to 0
M140 S60; get bed heating up
G28                          ; home all
M109 S140                    ; set to cleaning temp and wait
G1 Z150 E-30 F75             ; suck up XXmm of filament
M109 S140                    ; heat up rest of way
G1 X45 Y174 F11520           ; move behind scraper
G1 Z0  F1200                 ; CRITICAL: set Z to height of top of scraper
G1 X45 Y174 Z-.5 F4000       ; wiping ; plunge into wipe pad
G1 X55 Y172 Z-.5 F4000       ; wiping
G1 X45 Y174 Z0 F4000         ; wiping
G1 X55 Y172 F4000            ; wiping
G1 X45 Y174 F4000            ; wiping
G1 X55 Y172 F4000            ; wiping
G1 X45 Y174 F4000            ; wiping
G1 X55 Y172 F4000            ; wiping
G1 X60 Y174 F4000            ; wiping
G1 X80 Y172 F4000            ; wiping
G1 X60 Y174 F4000            ; wiping
G1 X80 Y172 F4000            ; wiping
G1 X60 Y174 F4000            ; wiping
G1 X90 Y172 F4000            ; wiping
G1 X80 Y174 F4000            ; wiping
G1 X100 Y172 F4000           ; wiping
G1 X80 Y174 F4000            ; wiping
G1 X100 Y172 F4000           ; wiping
G1 X80 Y174 F4000            ; wiping
G1 X100 Y172 F4000           ; wiping
G1 X110 Y174 F4000           ; wiping
G1 X100 Y172 F4000           ; wiping
G1 X110 Y174 F4000           ; wiping
G1 X100 Y172 F4000           ; wiping
G1 X110 Y174 F4000           ; wiping
G1 X115 Y172 Z-0.5 F1000     ; wipe slower and bury noz in cleanish area
G1 Z10                       ; raise z
G28 X0 Y0                    ; home x and y
M109 S140                    ; set to probing temp
M204 S300                    ; Set probing acceleration
G29                          ; Probe
M204 S2000                   ; Restore standard acceleration
G1 X5 Y15 Z10 F5000          ; get out the way
G4 S1                        ; pause
M400                         ; clear buffer
M109 S205    ; set extruder temp and wait
G4 S15                       ; wait for bed to temp up
G1 Z2 E0 F75                 ; extrude filament back into nozzle
M140 S60; get bed temping up during first layer

;Layer count: 39
;LAYER:0
M107
G0 F10500 X77.460 Y16.903 Z0.425
;TYPE:SKIRT
G1 F900 X154.084 Y16.903 E3.19047
G1 X154.084 Y143.526 E8.46279
G1 X77.460 Y143.526 E11.65325
G1 X77.460 Y16.903 E16.92558
G1 F600 E15.42558
G1 Z0.525
G0 F10500 X81.709 Y21.152
;TYPE:WALL-INNER
G1 Z0.425
G1 F600 E16.92558
G1 F900 X149.835 Y21.152 E19.76220
G1 X149.835 Y139.277 E24.68069
G1 X81.709 Y139.277 E27.51731
G1 X81.709 Y21.152 E32.43580
G0 F10500 X81.084 Y20.527
;TYPE:WALL-OUTER
G1 F900 X150.460 Y20.527 E35.32447
G1 X150.460 Y139.902 E40.29500
G1 X81.084 Y139.902 E43.18368
G1 X81.084 Y20.527 E48.15421
G0 F10500 X81.927 Y21.382
;TYPE:SKIN
G1 F900 X149.615 Y89.069 E52.13998
G0 F10500 X149.615 Y88.186
G1 F900 X82.800 Y21.371 E56.07438
G0 F10500 X83.684 Y21.371
G1 F900 X149.615 Y87.302 E59.95672
G0 F10500 X149.615 Y86.418
G1 F900 X84.568 Y21.371 E63.78701
G0 F10500 X85.452 Y21.371
G1 F900 X149.615 Y85.534 E67.56525
G0 F10500 X149.615 Y84.650
G1 F900 X86.336 Y21.371 E71.29143
G0 F10500 X87.220 Y21.371
G1 F900 X149.615 Y83.766 E74.96556
G0 F10500 X149.615 Y82.882
G1 F900 X88.104 Y21.371 E78.58763
G0 F10500 X88.987 Y21.371
G1 F900 X149.615 Y81.998 E82.15768
G0 F10500 X149.615 Y81.115
G1 F900 X89.871 Y21.371 E85.67570
G0 F10500 X90.755 Y21.371
G1 F900 X149.615 Y80.231 E89.14167
G0 F10500 X149.615 Y89.953
G1 F900 X81.927 Y22.266 E93.12744
G0 F10500 X81.927 Y23.149
G1 F900 X149.615 Y90.837 E97.11325
G0 F10500 X149.615 Y91.721
G1 F900 X81.927 Y24.033 E101.09905
G0 F10500 X81.927 Y24.917
G1 F900 X149.615 Y92.605 E105.08486
G0 F10500 X149.615 Y93.489
G1 F900 X81.927 Y25.801 E109.07066
G0 F10500 X81.927 Y26.685
G1 F900 X149.615 Y94.373 E113.05647
G0 F10500 X149.615 Y95.257
G1 F900 X81.927 Y27.569 E117.04227
G0 F10500 X81.927 Y28.453
G1 F900 X149.615 Y96.141 E121.02808
G0 F10500 X149.615 Y97.024
G1 F900 X81.927 Y29.337 E125.01385
G0 F10500 X81.927 Y30.221
G1 F900 X149.615 Y97.908 E128.99963
G0 F10500 X149.615 Y98.792
G1 F900 X81.927 Y31.104 E132.98543
G0 F10500 X81.927 Y31.988
G1 F900 X149.615 Y99.676 E136.97124
G0 F10500 X149.615 Y100.560
G1 F900 X81.927 Y32.872 E140.95704
G0 F10500 X81.927 Y33.756
G1 F900 X149.615 Y101.444 E144.94285
G0 F10500 X149.615 Y102.328
G1 F900 X81.927 Y34.640 E148.92865
G0 F10500 X81.927 Y35.524
G1 F900 X149.615 Y103.212 E152.91446
G0 F10500 X149.615 Y104.096
G1 F900 X81.927 Y36.408 E156.90026
G0 F10500 X81.927 Y37.292
G1 F900 X149.615 Y104.979 E160.88604
G0 F10500 X149.615 Y105.863
G1 F900 X81.927 Y38.175 E164.87184
G0 F10500 X81.927 Y39.059
G1 F900 X149.615 Y106.747 E168.85765
G0 F10500 X149.615 Y107.631
G1 F900 X81.927 Y39.943 E172.84345
G0 F10500 X91.639 Y21.371
G1 F900 X149.615 Y79.347 E176.25737
G0 F10500 X149.615 Y78.463
G1 F900 X92.523 Y21.371 E179.61923
G0 F10500 X93.407 Y21.371
G1 F900 X149.615 Y77.579 E182.92903
G0 F10500 X149.615 Y76.695
G1 F900 X94.291 Y21.371 E186.18678
G0 F10500 X95.175 Y21.371
G1 F900 X149.615 Y75.811 E189.39248
G0 F10500 X149.615 Y74.927
G1 F900 X96.059 Y21.371 E192.54612
G0 F10500 X96.942 Y21.371
G1 F900 X149.615 Y74.043 E195.64774
G0 F10500 X149.615 Y73.160
G1 F900 X97.826 Y21.371 E198.69733
G0 F10500 X98.710 Y21.371
G1 F900 X149.615 Y72.276 E201.69487
G0 F10500 X149.615 Y71.392
G1 F900 X99.594 Y21.371 E204.64035
G0 F10500 X100.478 Y21.371
G1 F900 X149.615 Y70.508 E207.53378
G0 F10500 X149.615 Y69.624
G1 F900 X101.362 Y21.371 E210.37516
G0 F10500 X102.246 Y21.371
G1 F900 X149.615 Y68.740 E213.16448
G0 F10500 X149.615 Y67.856
G1 F900 X103.130 Y21.371 E215.90175
G0 F10500 X104.013 Y21.371
G1 F900 X149.615 Y66.972 E218.58699
G0 F10500 X149.615 Y66.089
G1 F900 X104.897 Y21.371 E221.22021
G0 F10500 X105.781 Y21.371
G1 F900 X149.615 Y65.205 E223.80137
G0 F10500 X149.615 Y64.321
G1 F900 X106.665 Y21.371 E226.33048
G0 F10500 X107.549 Y21.371
G1 F900 X149.615 Y63.437 E228.80754
G0 F10500 X149.615 Y62.553
G1 F900 X108.433 Y21.371 E231.23254
G0 F10500 X109.317 Y21.371
G1 F900 X149.615 Y61.669 E233.60548
G0 F10500 X149.615 Y60.785
G1 F900 X110.201 Y21.371 E235.92637
G0 F10500 X111.085 Y21.371
G1 F900 X149.615 Y59.901 E238.19521
G0 F10500 X149.615 Y59.017
G1 F900 X111.968 Y21.371 E240.41202
G0 F10500 X112.852 Y21.371
G1 F900 X149.615 Y58.134 E242.57681
G0 F10500 X149.615 Y57.250
G1 F900 X113.736 Y21.371 E244.68954
G0 F10500 X114.620 Y21.371
G1 F900 X149.615 Y56.366 E246.75022
G0 F10500 X149.615 Y55.482
G1 F900 X115.504 Y21.371 E248.75885
G0 F10500 X116.388 Y21.371
G1 F900 X149.615 Y54.598 E250.71542
G0 F10500 X149.615 Y53.714
G1 F900 X117.272 Y21.371 E252.61993
G0 F10500 X118.156 Y21.371
G1 F900 X149.615 Y52.830 E254.47240
G0 F10500 X149.615 Y51.946
G1 F900 X119.040 Y21.371 E256.27280
G0 F10500 X119.923 Y21.371
G1 F900 X149.615 Y51.063 E258.02121
G0 F10500 X149.615 Y50.179
G1 F900 X120.807 Y21.371 E259.71757
G0 F10500 X121.691 Y21.371
G1 F900 X149.615 Y49.295 E261.36188
G0 F10500 X149.615 Y48.411
G1 F900 X122.575 Y21.371 E262.95413
G0 F10500 X123.459 Y21.371
G1 F900 X149.615 Y47.527 E264.49432
G0 F10500 X149.615 Y46.643
G1 F900 X124.343 Y21.371 E265.98246
G0 F10500 X125.227 Y21.371
G1 F900 X149.615 Y45.759 E267.41855
G0 F10500 X149.615 Y44.875
G1 F900 X126.111 Y21.371 E268.80258
G0 F10500 X126.994 Y21.371
G1 F900 X149.615 Y43.991 E270.13459
G0 F10500 X149.615 Y43.108
G1 F900 X127.878 Y21.371 E271.41457
G0 F10500 X128.762 Y21.371
G1 F900 X149.615 Y42.224 E272.64250
G0 F10500 X149.615 Y41.340
G1 F900 X129.646 Y21.371 E273.81837
G0 F10500 X130.530 Y21.371
G1 F900 X149.615 Y40.456 E274.94219
G0 F10500 X149.615 Y39.572
G1 F900 X131.414 Y21.371 E276.01395
G0 F10500 X132.298 Y21.371
G1 F900 X149.615 Y38.688 E277.03367
G0 F10500 X149.615 Y37.804
G1 F900 X133.182 Y21.371 E278.00132
G0 F10500 X134.066 Y21.371
G1 F900 X149.615 Y36.920 E278.91692
G0 F10500 X149.615 Y36.036
G1 F900 X134.949 Y21.371 E279.78050
G0 F10500 X135.833 Y21.371
G1 F900 X149.615 Y35.153 E280.59205
G0 F10500 X149.615 Y34.269
G1 F900 X136.717 Y21.371 E281.35155
G0 F10500 X137.601 Y21.371
G1 F900 X149.615 Y33.385 E282.05900
G0 F10500 X149.615 Y32.501
G1 F900 X138.485 Y21.371 E282.71439
G0 F10500 X139.369 Y21.371
G1 F900 X149.615 Y31.617 E283.31772
G0 F10500 X149.615 Y30.733
G1 F900 X140.253 Y21.371 E283.86900
G0 F10500 X141.137 Y21.371
G1 F900 X149.615 Y29.849 E284.36823
G0 F10500 X149.615 Y28.965
G1 F900 X142.020 Y21.371 E284.81543
G0 F10500 X142.904 Y21.371
G1 F900 X149.615 Y28.082 E285.21061
G0 F10500 X149.615 Y27.198
G1 F900 X143.788 Y21.371 E285.55373
G0 F10500 X144.672 Y21.371
G1 F900 X149.615 Y26.314 E285.84480
G0 F10500 X149.615 Y25.430
G1 F900 X145.556 Y21.371 E286.08381
G0 F10500 X146.440 Y21.371
G1 F900 X149.615 Y24.546 E286.27077
G0 F10500 X149.615 Y23.662
G1 F900 X147.324 Y21.371 E286.40568
G0 F10500 X148.208 Y21.371
G1 F900 X149.615 Y22.778 E286.48853
G0 F10500 X149.615 Y21.894
G1 F900 X149.092 Y21.371 E286.51932
G0 F10500 X81.927 Y40.827
G1 F900 X149.615 Y108.515 E290.50513
G0 F10500 X149.615 Y109.399
G1 F900 X81.927 Y41.711 E294.49093
G0 F10500 X81.927 Y42.595
G1 F900 X149.615 Y110.283 E298.47674
G0 F10500 X149.615 Y111.167
G1 F900 X81.927 Y43.479 E302.46254
G0 F10500 X81.927 Y44.363
G1 F900 X149.615 Y112.050 E306.44832
G0 F10500 X149.615 Y112.934
G1 F900 X81.927 Y45.247 E310.43409
G0 F10500 X81.927 Y46.130
G1 F900 X149.615 Y113.818 E314.41990
G0 F10500 X149.615 Y114.702
G1 F900 X81.927 Y47.014 E318.40570
G0 F10500 X81.927 Y47.898
G1 F900 X149.615 Y115.586 E322.39151
G0 F10500 X149.615 Y116.470
G1 F900 X81.927 Y48.782 E326.37731
G0 F10500 X81.927 Y49.666
G1 F900 X149.615 Y117.354 E330.36312
G0 F10500 X149.615 Y118.238
G1 F900 X81.927 Y50.550 E334.34892
G0 F10500 X81.927 Y51.434
G1 F900 X149.615 Y119.122 E338.33473
G0 F10500 X149.615 Y120.005
G1 F900 X81.927 Y52.318 E342.32050
G0 F10500 X81.927 Y53.202
G1 F900 X149.615 Y120.889 E346.30628
G0 F10500 X149.615 Y121.773
G1 F900 X81.927 Y54.085 E350.29208
G0 F10500 X81.927 Y54.969
G1 F900 X149.615 Y122.657 E354.27789
G0 F10500 X149.615 Y123.541
G1 F900 X81.927 Y55.853 E358.26369
G0 F10500 X81.927 Y56.737
G1 F900 X149.615 Y124.425 E362.24950
G0 F10500 X149.615 Y125.309
G1 F900 X81.927 Y57.621 E366.23530
G0 F10500 X81.927 Y58.505
G1 F900 X149.615 Y126.193 E370.22111
G0 F10500 X149.615 Y127.076
G1 F900 X81.927 Y59.389 E374.20688
G0 F10500 X81.927 Y60.273
G1 F900 X149.615 Y127.960 E378.19266
G0 F10500 X149.615 Y128.844
G1 F900 X81.927 Y61.156 E382.17846
G0 F10500 X81.927 Y62.040
G1 F900 X149.615 Y129.728 E386.16427
G0 F10500 X149.615 Y130.612
G1 F900 X81.927 Y62.924 E390.15007
G0 F10500 X81.927 Y63.808
G1 F900 X149.615 Y131.496 E394.13588
G0 F10500 X149.615 Y132.380
G1 F900 X81.927 Y64.692 E398.12168
G0 F10500 X81.927 Y65.576
G1 F900 X149.615 Y133.264 E402.10749
G0 F10500 X149.615 Y134.148
G1 F900 X81.927 Y66.460 E406.09329
G0 F10500 X81.927 Y67.344
G1 F900 X149.615 Y135.031 E410.07907
G0 F10500 X149.615 Y135.915
G1 F900 X81.927 Y68.228 E414.06484
G0 F10500 X81.927 Y69.111
G1 F900 X149.615 Y136.799 E418.05065
G0 F10500 X149.615 Y137.683
G1 F900 X81.927 Y69.995 E422.03645
G0 F10500 X81.927 Y70.879
G1 F900 X149.615 Y138.567 E426.02226
G0 F10500 X149.221 Y139.057
G1 F900 X81.927 Y71.763 E429.98486
G0 F10500 X81.927 Y72.647
G1 F900 X148.337 Y139.057 E433.89541
G0 F10500 X147.453 Y139.057
G1 F900 X81.927 Y73.531 E437.75391
G0 F10500 X81.927 Y74.415
G1 F900 X146.569 Y139.057 E441.56035
G0 F10500 X145.685 Y139.057
G1 F900 X81.927 Y75.299 E445.31473
G0 F10500 X81.927 Y76.182
G1 F900 X144.802 Y139.057 E449.01713
G0 F10500 X143.918 Y139.057
G1 F900 X81.927 Y77.066 E452.66746
G0 F10500 X81.927 Y77.950
G1 F900 X143.034 Y139.057 E456.26575
G0 F10500 X142.150 Y139.057
G1 F900 X81.927 Y78.834 E459.81198
G0 F10500 X81.927 Y79.718
G1 F900 X141.266 Y139.057 E463.30615
G0 F10500 X140.382 Y139.057
G1 F900 X81.927 Y80.602 E466.74827
G0 F10500 X81.927 Y81.486
G1 F900 X139.498 Y139.057 E470.13834
G0 F10500 X138.614 Y139.057
G1 F900 X81.927 Y82.370 E473.47635
G0 F10500 X81.927 Y83.254
G1 F900 X137.730 Y139.057 E476.76230
G0 F10500 X136.847 Y139.057
G1 F900 X81.927 Y84.137 E479.99627
G0 F10500 X81.927 Y85.021
G1 F900 X135.963 Y139.057 E483.17817
G0 F10500 X135.079 Y139.057
G1 F900 X81.927 Y85.905 E486.30803
G0 F10500 X81.927 Y86.789
G1 F900 X134.195 Y139.057 E489.38582
G0 F10500 X133.311 Y139.057
G1 F900 X81.927 Y87.673 E492.41157
G0 F10500 X81.927 Y88.557
G1 F900 X132.427 Y139.057 E495.38526
G0 F10500 X131.543 Y139.057
G1 F900 X81.927 Y89.441 E498.30690
G0 F10500 X81.927 Y90.325
G1 F900 X130.659 Y139.057 E501.17648
G0 F10500 X129.776 Y139.057
G1 F900 X81.927 Y91.208 E503.99406
G0 F10500 X81.927 Y92.092
G1 F900 X128.892 Y139.057 E506.75960
G0 F10500 X128.008 Y139.057
G1 F900 X81.927 Y92.976 E509.47307
G0 F10500 X81.927 Y93.860
G1 F900 X127.124 Y139.057 E512.13450
G0 F10500 X126.240 Y139.057
G1 F900 X81.927 Y94.744 E514.74386
G0 F10500 X81.927 Y95.628
G1 F900 X125.356 Y139.057 E517.30118
G0 F10500 X124.472 Y139.057
G1 F900 X81.927 Y96.512 E519.80644
G0 F10500 X81.927 Y97.396
G1 F900 X123.588 Y139.057 E522.25965
G0 F10500 X122.704 Y139.057
G1 F900 X81.927 Y98.280 E524.66080
G0 F10500 X81.927 Y99.163
G1 F900 X121.821 Y139.057 E527.00995
G0 F10500 X120.937 Y139.057
G1 F900 X81.927 Y100.047 E529.30706
G0 F10500 X81.927 Y100.931
G1 F900 X120.053 Y139.057 E531.55210
G0 F10500 X119.169 Y139.057
G1 F900 X81.927 Y101.815 E533.74510
G0 F10500 X81.927 Y102.699
G1 F900 X118.285 Y139.057 E535.88604
G0 F10500 X117.401 Y139.057
G1 F900 X81.927 Y103.583 E537.97492
G0 F10500 X81.927 Y104.467
G1 F900 X116.517 Y139.057 E540.01175
G0 F10500 X115.633 Y139.057
G1 F900 X81.927 Y105.351 E541.99653
G0 F10500 X81.927 Y106.235
G1 F900 X114.749 Y139.057 E543.92925
G0 F10500 X113.866 Y139.057
G1 F900 X81.927 Y107.118 E545.80998
G0 F10500 X81.927 Y108.002
G1 F900 X112.982 Y139.057 E547.63865
G0 F10500 X112.098 Y139.057
G1 F900 X81.927 Y108.886 E549.41527
G0 F10500 X81.927 Y109.770
G1 F900 X111.214 Y139.057 E551.13983
G0 F10500 X110.330 Y139.057
G1 F900 X81.927 Y110.654 E552.81234
G0 F10500 X81.927 Y111.538
G1 F900 X109.446 Y139.057 E554.43280
G0 F10500 X108.562 Y139.057
G1 F900 X81.927 Y112.422 E556.00120
G0 F10500 X81.927 Y113.306
G1 F900 X107.678 Y139.057 E557.51754
G0 F10500 X106.795 Y139.057
G1 F900 X81.927 Y114.189 E558.98189
G0 F10500 X81.927 Y115.073
G1 F900 X105.911 Y139.057 E560.39419
G0 F10500 X105.027 Y139.057
G1 F900 X81.927 Y115.957 E561.75443
G0 F10500 X81.927 Y116.841
G1 F900 X104.143 Y139.057 E563.06262
G0 F10500 X103.259 Y139.057
G1 F900 X81.927 Y117.725 E564.31875
G0 F10500 X81.927 Y118.609
G1 F900 X102.375 Y139.057 E565.52283
G0 F10500 X101.491 Y139.057
G1 F900 X81.927 Y119.493 E566.67486
G0 F10500 X81.927 Y120.377
G1 F900 X100.607 Y139.057 E567.77483
G0 F10500 X99.723 Y139.057
G1 F900 X81.927 Y121.261 E568.82275
G0 F10500 X81.927 Y122.144
G1 F900 X98.840 Y139.057 E569.81867
G0 F10500 X97.956 Y139.057
G1 F900 X81.927 Y123.028 E570.76254
G0 F10500 X81.927 Y123.912
G1 F900 X97.072 Y139.057 E571.65435
G0 F10500 X96.188 Y139.057
G1 F900 X81.927 Y124.796 E572.49411
G0 F10500 X81.927 Y125.680
G1 F900 X95.304 Y139.057 E573.28181
G0 F10500 X94.420 Y139.057
G1 F900 X81.927 Y126.564 E574.01746
G0 F10500 X81.927 Y127.448
G1 F900 X93.536 Y139.057 E574.70106
G0 F10500 X92.652 Y139.057
G1 F900 X81.927 Y128.332 E575.33260
G0 F10500 X81.927 Y129.215
G1 F900 X91.769 Y139.057 E575.91214
G0 F10500 X90.885 Y139.057
G1 F900 X81.927 Y130.099 E576.43963
G0 F10500 X81.927 Y130.983
G1 F900 X90.001 Y139.057 E576.91507
G0 F10500 X89.117 Y139.057
G1 F900 X81.927 Y131.867 E577.33845
G0 F10500 X81.927 Y132.751
G1 F900 X88.233 Y139.057 E577.70978
G0 F10500 X87.349 Y139.057
G1 F900 X81.927 Y133.635 E578.02906
G0 F10500 X81.927 Y134.519
G1 F900 X86.465 Y139.057 E578.29628
G0 F10500 X85.581 Y139.057
G1 F900 X81.927 Y135.403 E578.51144
G0 F10500 X81.927 Y136.287
G1 F900 X84.697 Y139.057 E578.67455
G0 F10500 X83.814 Y139.057
G1 F900 X81.927 Y137.170 E578.78567
G0 F10500 X81.927 Y138.054
G1 F900 X82.930 Y139.057 E578.84473
G0 F10500 X82.046 Y139.057
G1 F900 X81.927 Y138.938 E578.85174
;LAYER:1
M106 S191
G0 F10500 X81.522 Y139.464 Z0.805
;TYPE:WALL-INNER
G1 F1140 X81.522 Y20.965 E582.38104
G1 X150.022 Y20.965 E584.42120
G1 X150.022 Y139.464 E587.95050
G1 X81.522 Y139.464 E589.99066
G0 F10500 X81.022 Y139.964
;TYPE:WALL-OUTER
G1 F1080 X81.022 Y20.465 E593.54975
G1 X150.522 Y20.465 E595.61969
G1 X150.522 Y139.964 E599.17878
G1 X81.022 Y139.964 E601.24872
G0 F10500 X81.696 Y139.273
;TYPE:SKIN
G1 F1380 X149.846 Y71.124 E604.11918
G0 F10500 X149.846 Y71.831
G1 F1380 X82.389 Y139.288 E606.96048
G0 F10500 X83.096 Y139.288
G1 F1380 X149.846 Y72.538 E609.77199
G0 F10500 X149.846 Y73.245
G1 F1380 X83.803 Y139.288 E612.55373
G0 F10500 X84.510 Y139.288
G1 F1380 X149.846 Y73.952 E615.30568
G0 F10500 X149.846 Y74.659
G1 F1380 X85.217 Y139.288 E618.02786
G0 F10500 X85.924 Y139.288
G1 F1380 X149.846 Y75.366 E620.72026
G0 F10500 X149.846 Y76.074
G1 F1380 X86.631 Y139.288 E623.38286
G0 F10500 X87.339 Y139.288
G1 F1380 X149.846 Y76.781 E626.01565
G0 F10500 X149.846 Y77.488
G1 F1380 X88.046 Y139.288 E628.61867
G0 F10500 X88.753 Y139.288
G1 F1380 X149.846 Y78.195 E631.19192
G0 F10500 X149.846 Y78.902
G1 F1380 X89.460 Y139.288 E633.73538
G0 F10500 X90.167 Y139.288
G1 F1380 X149.846 Y79.609 E636.24906
G0 F10500 X149.846 Y70.417
G1 F1380 X81.696 Y138.566 E639.11952
G0 F10500 X81.696 Y137.859
G1 F1380 X149.846 Y69.710 E641.98998
G0 F10500 X149.846 Y69.003
G1 F1380 X81.696 Y137.152 E644.86044
G0 F10500 X81.696 Y136.445
G1 F1380 X149.846 Y68.295 E647.73093
G0 F10500 X149.846 Y67.588
G1 F1380 X81.696 Y135.738 E650.60141
G0 F10500 X81.696 Y135.031
G1 F1380 X149.846 Y66.881 E653.47189
G0 F10500 X149.846 Y66.174
G1 F1380 X81.696 Y134.324 E656.34237
G0 F10500 X81.696 Y133.617
G1 F1380 X149.846 Y65.467 E659.21286
G0 F10500 X149.846 Y64.760
G1 F1380 X81.696 Y132.909 E662.08332
G0 F10500 X81.696 Y132.202
G1 F1380 X149.846 Y64.053 E664.95378
G0 F10500 X149.846 Y63.346
G1 F1380 X81.696 Y131.495 E667.82424
G0 F10500 X81.696 Y130.788
G1 F1380 X149.846 Y62.639 E670.69470
G0 F10500 X149.846 Y61.931
G1 F1380 X81.696 Y130.081 E673.56518
G0 F10500 X81.696 Y129.374
G1 F1380 X149.846 Y61.224 E676.43566
G0 F10500 X149.846 Y60.517
G1 F1380 X81.696 Y128.667 E679.30615
G0 F10500 X81.696 Y127.960
G1 F1380 X149.846 Y59.810 E682.17663
G0 F10500 X149.846 Y59.103
G1 F1380 X81.696 Y127.253 E685.04711
G0 F10500 X81.696 Y126.545
G1 F1380 X149.846 Y58.396 E687.91757
G0 F10500 X149.846 Y57.689
G1 F1380 X81.696 Y125.838 E690.78803
G0 F10500 X81.696 Y125.131
G1 F1380 X149.846 Y56.982 E693.65849
G0 F10500 X149.846 Y56.275
G1 F1380 X81.696 Y124.424 E696.52896
G0 F10500 X81.696 Y123.717
G1 F1380 X149.846 Y55.567 E699.39944
G0 F10500 X149.846 Y54.860
G1 F1380 X81.696 Y123.010 E702.26992
G0 F10500 X81.696 Y122.303
G1 F1380 X149.846 Y54.153 E705.14040
G0 F10500 X149.846 Y53.446
G1 F1380 X81.696 Y121.596 E708.01088
G0 F10500 X81.696 Y120.889
G1 F1380 X149.846 Y52.739 E710.88137
G0 F10500 X149.846 Y52.032
G1 F1380 X81.696 Y120.181 E713.75183
G0 F10500 X90.874 Y139.288
G1 F1380 X149.846 Y80.316 E716.23573
G0 F10500 X149.846 Y81.023
G1 F1380 X91.581 Y139.288 E718.68986
G0 F10500 X92.288 Y139.288
G1 F1380 X149.846 Y81.730 E721.11420
G0 F10500 X149.846 Y82.438
G1 F1380 X92.995 Y139.288 E723.50875
G0 F10500 X93.702 Y139.288
G1 F1380 X149.846 Y83.145 E725.87352
G0 F10500 X149.846 Y83.852
G1 F1380 X94.410 Y139.288 E728.20849
G0 F10500 X95.117 Y139.288
G1 F1380 X149.846 Y84.559 E730.51367
G0 F10500 X149.846 Y85.266
G1 F1380 X95.824 Y139.288 E732.78908
G0 F10500 X96.531 Y139.288
G1 F1380 X149.846 Y85.973 E735.03472
G0 F10500 X149.846 Y86.680
G1 F1380 X97.238 Y139.288 E737.25057
G0 F10500 X97.945 Y139.288
G1 F1380 X149.846 Y87.387 E739.43664
G0 F10500 X149.846 Y88.094
G1 F1380 X98.652 Y139.288 E741.59294
G0 F10500 X99.359 Y139.288
G1 F1380 X149.846 Y88.802 E743.71943
G0 F10500 X149.846 Y89.509
G1 F1380 X100.066 Y139.288 E745.81615
G0 F10500 X100.774 Y139.288
G1 F1380 X149.846 Y90.216 E747.88306
G0 F10500 X149.846 Y90.923
G1 F1380 X101.481 Y139.288 E749.92020
G0 F10500 X102.188 Y139.288
G1 F1380 X149.846 Y91.630 E751.92756
G0 F10500 X149.846 Y92.337
G1 F1380 X102.895 Y139.288 E753.90513
G0 F10500 X103.602 Y139.288
G1 F1380 X149.846 Y93.044 E755.85293
G0 F10500 X149.846 Y93.751
G1 F1380 X104.309 Y139.288 E757.77096
G0 F10500 X105.016 Y139.288
G1 F1380 X149.846 Y94.458 E759.65920
G0 F10500 X149.846 Y95.165
G1 F1380 X105.723 Y139.288 E761.51766
G0 F10500 X106.430 Y139.288
G1 F1380 X149.846 Y95.873 E763.34633
G0 F10500 X149.846 Y96.580
G1 F1380 X107.137 Y139.288 E765.14521
G0 F10500 X107.845 Y139.288
G1 F1380 X149.846 Y97.287 E766.91429
G0 F10500 X149.846 Y97.994
G1 F1380 X108.552 Y139.288 E768.65360
G0 F10500 X109.259 Y139.288
G1 F1380 X149.846 Y98.701 E770.36313
G0 F10500 X149.846 Y99.408
G1 F1380 X109.966 Y139.288 E772.04288
G0 F10500 X110.673 Y139.288
G1 F1380 X149.846 Y100.115 E773.69284
G0 F10500 X149.846 Y100.822
G1 F1380 X111.380 Y139.288 E775.31304
G0 F10500 X112.087 Y139.288
G1 F1380 X149.846 Y101.529 E776.90345
G0 F10500 X149.846 Y102.237
G1 F1380 X112.794 Y139.288 E778.46406
G0 F10500 X113.501 Y139.288
G1 F1380 X149.846 Y102.944 E779.99489
G0 F10500 X149.846 Y103.651
G1 F1380 X114.209 Y139.288 E781.49592
G0 F10500 X114.916 Y139.288
G1 F1380 X149.846 Y104.358 E782.96718
G0 F10500 X149.846 Y105.065
G1 F1380 X115.623 Y139.288 E784.40865
G0 F10500 X116.329 Y139.289
G1 F1380 X149.846 Y105.772 E785.82039
G0 F10500 X149.846 Y106.479
G1 F1380 X117.036 Y139.289 E787.20235
G0 F10500 X117.743 Y139.289
G1 F1380 X149.846 Y107.186 E788.55453
G0 F10500 X149.846 Y107.893
G1 F1380 X118.450 Y139.289 E789.87693
G0 F10500 X119.158 Y139.289
G1 F1380 X149.846 Y108.600 E791.16953
G0 F10500 X149.846 Y109.308
G1 F1380 X119.865 Y139.289 E792.43233
G0 F10500 X120.572 Y139.289
G1 F1380 X149.846 Y110.015 E793.66536
G0 F10500 X149.846 Y110.722
G1 F1380 X121.279 Y139.289 E794.86860
G0 F10500 X121.986 Y139.289
G1 F1380 X149.846 Y111.429 E796.04207
G0 F10500 X149.846 Y112.136
G1 F1380 X122.693 Y139.289 E797.18575
G0 F10500 X123.400 Y139.289
G1 F1380 X149.846 Y112.843 E798.29966
G0 F10500 X149.846 Y113.550
G1 F1380 X124.107 Y139.289 E799.38379
G0 F10500 X124.814 Y139.289
G1 F1380 X149.846 Y114.257 E800.43814
G0 F10500 X149.846 Y114.964
G1 F1380 X125.522 Y139.289 E801.46269
G0 F10500 X126.229 Y139.289
G1 F1380 X149.846 Y115.672 E802.45744
G0 F10500 X149.846 Y116.379
G1 F1380 X126.936 Y139.289 E803.42241
G0 F10500 X127.643 Y139.289
G1 F1380 X149.846 Y117.086 E804.35760
G0 F10500 X149.846 Y117.793
G1 F1380 X128.350 Y139.289 E805.26301
G0 F10500 X129.057 Y139.289
G1 F1380 X149.846 Y118.500 E806.13864
G0 F10500 X149.846 Y119.207
G1 F1380 X129.764 Y139.289 E806.98450
G0 F10500 X130.471 Y139.289
G1 F1380 X149.846 Y119.914 E807.80058
G0 F10500 X149.846 Y120.621
G1 F1380 X131.178 Y139.289 E808.58687
G0 F10500 X131.886 Y139.289
G1 F1380 X149.846 Y121.328 E809.34337
G0 F10500 X149.846 Y122.036
G1 F1380 X132.593 Y139.289 E810.07007
G0 F10500 X133.300 Y139.289
G1 F1380 X149.846 Y122.743 E810.76699
G0 F10500 X149.846 Y123.450
G1 F1380 X134.007 Y139.289 E811.43413
G0 F10500 X134.714 Y139.289
G1 F1380 X149.846 Y124.157 E812.07149
G0 F10500 X149.846 Y124.864
G1 F1380 X135.421 Y139.289 E812.67907
G0 F10500 X136.128 Y139.289
G1 F1380 X149.846 Y125.571 E813.25687
G0 F10500 X149.846 Y126.278
G1 F1380 X136.835 Y139.289 E813.80490
G0 F10500 X137.542 Y139.289
G1 F1380 X149.846 Y126.985 E814.32314
G0 F10500 X149.846 Y127.692
G1 F1380 X138.249 Y139.289 E814.81161
G0 F10500 X138.957 Y139.289
G1 F1380 X149.846 Y128.399 E815.27027
G0 F10500 X149.846 Y129.107
G1 F1380 X139.664 Y139.289 E815.69914
G0 F10500 X140.371 Y139.289
G1 F1380 X149.846 Y129.814 E816.09823
G0 F10500 X149.846 Y130.521
G1 F1380 X141.078 Y139.289 E816.46754
G0 F10500 X141.785 Y139.289
G1 F1380 X149.846 Y131.228 E816.80707
G0 F10500 X149.846 Y131.935
G1 F1380 X142.492 Y139.289 E817.11682
G0 F10500 X143.199 Y139.289
G1 F1380 X149.846 Y132.642 E817.39679
G0 F10500 X149.846 Y133.349
G1 F1380 X143.906 Y139.289 E817.64698
G0 F10500 X144.613 Y139.289
G1 F1380 X149.846 Y134.056 E817.86740
G0 F10500 X149.846 Y134.763
G1 F1380 X145.321 Y139.289 E818.05801
G0 F10500 X146.028 Y139.289
G1 F1380 X149.846 Y135.471 E818.21883
G0 F10500 X149.846 Y136.178
G1 F1380 X146.735 Y139.289 E818.34986
G0 F10500 X147.442 Y139.289
G1 F1380 X149.846 Y136.885 E818.45112
G0 F10500 X149.846 Y137.592
G1 F1380 X148.149 Y139.289 E818.52260
G0 F10500 X148.856 Y139.289
G1 F1380 X149.846 Y138.299 E818.56429
G0 F10500 X149.846 Y139.006
G1 F1380 X149.563 Y139.289 E818.57621
G0 F10500 X81.696 Y119.474
G1 F1380 X149.846 Y51.325 E821.44668
G0 F10500 X149.846 Y50.618
G1 F1380 X81.696 Y118.767 E824.31714
G0 F10500 X81.696 Y118.060
G1 F1380 X149.846 Y49.911 E827.18760
G0 F10500 X149.846 Y49.204
G1 F1380 X81.696 Y117.353 E830.05806
G0 F10500 X81.696 Y116.646
G1 F1380 X149.846 Y48.496 E832.92854
G0 F10500 X149.846 Y47.789
G1 F1380 X81.696 Y115.939 E835.79902
G0 F10500 X81.696 Y115.232
G1 F1380 X149.846 Y47.082 E838.66951
G0 F10500 X149.846 Y46.375
G1 F1380 X81.696 Y114.525 E841.53999
G0 F10500 X81.696 Y113.818
G1 F1380 X149.846 Y45.668 E844.41047
G0 F10500 X149.846 Y44.961
G1 F1380 X81.696 Y113.110 E847.28093
G0 F10500 X81.696 Y112.403
G1 F1380 X149.846 Y44.254 E850.15139
G0 F10500 X149.846 Y43.547
G1 F1380 X81.696 Y111.696 E853.02185
G0 F10500 X81.696 Y110.989
G1 F1380 X149.846 Y42.840 E855.89231
G0 F10500 X149.846 Y42.132
G1 F1380 X81.696 Y110.282 E858.76280
G0 F10500 X81.696 Y109.575
G1 F1380 X149.846 Y41.425 E861.63328
G0 F10500 X149.846 Y40.718
G1 F1380 X81.696 Y108.868 E864.50376
G0 F10500 X81.696 Y108.161
G1 F1380 X149.846 Y40.011 E867.37424
G0 F10500 X149.846 Y39.304
G1 F1380 X81.696 Y107.454 E870.24473
G0 F10500 X81.696 Y106.746
G1 F1380 X149.846 Y38.597 E873.11519
G0 F10500 X149.846 Y37.890
G1 F1380 X81.696 Y106.039 E875.98565
G0 F10500 X81.696 Y105.332
G1 F1380 X149.846 Y37.183 E878.85611
G0 F10500 X149.846 Y36.476
G1 F1380 X81.696 Y104.625 E881.72657
G0 F10500 X81.696 Y103.918
G1 F1380 X149.846 Y35.768 E884.59705
G0 F10500 X149.846 Y35.061
G1 F1380 X81.696 Y103.211 E887.46753
G0 F10500 X81.696 Y102.504
G1 F1380 X149.846 Y34.354 E890.33802
G0 F10500 X149.846 Y33.647
G1 F1380 X81.696 Y101.797 E893.20850
G0 F10500 X81.696 Y101.090
G1 F1380 X149.846 Y32.940 E896.07898
G0 F10500 X149.846 Y32.233
G1 F1380 X81.696 Y100.382 E898.94944
G0 F10500 X81.696 Y99.675
G1 F1380 X149.846 Y31.526 E901.81990
G0 F10500 X149.846 Y30.819
G1 F1380 X81.696 Y98.968 E904.69036
G0 F10500 X81.696 Y98.261
G1 F1380 X149.846 Y30.112 E907.56083
G0 F10500 X149.846 Y29.405
G1 F1380 X81.696 Y97.554 E910.43129
G0 F10500 X81.696 Y96.847
G1 F1380 X149.846 Y28.697 E913.30177
G0 F10500 X149.846 Y27.990
G1 F1380 X81.696 Y96.140 E916.17225
G0 F10500 X81.696 Y95.433
G1 F1380 X149.846 Y27.283 E919.04273
G0 F10500 X149.846 Y26.576
G1 F1380 X81.696 Y94.726 E921.91322
G0 F10500 X81.696 Y94.019
G1 F1380 X149.846 Y25.869 E924.78370
G0 F10500 X149.846 Y25.162
G1 F1380 X81.696 Y93.311 E927.65416
G0 F10500 X81.696 Y92.604
G1 F1380 X149.846 Y24.455 E930.52462
G0 F10500 X149.846 Y23.748
G1 F1380 X81.696 Y91.897 E933.39508
G0 F10500 X81.696 Y91.190
G1 F1380 X149.846 Y23.041 E936.26554
G0 F10500 X149.846 Y22.333
G1 F1380 X81.696 Y90.483 E939.13602
G0 F10500 X81.696 Y89.776
G1 F1380 X149.846 Y21.626 E942.00651
G0 F10500 X149.626 Y21.139
G1 F1380 X81.696 Y89.069 E944.86772
G0 F10500 X81.696 Y88.362
G1 F1380 X148.919 Y21.139 E947.69916
G0 F10500 X148.212 Y21.139
G1 F1380 X81.696 Y87.655 E950.50082
G0 F10500 X81.696 Y86.947
G1 F1380 X147.505 Y21.139 E953.27268
G0 F10500 X146.798 Y21.139
G1 F1380 X81.696 Y86.240 E956.01475
G0 F10500 X81.696 Y85.533
G1 F1380 X146.091 Y21.139 E958.72705
G0 F10500 X145.383 Y21.139
G1 F1380 X81.696 Y84.826 E961.40955
G0 F10500 X81.696 Y84.119
G1 F1380 X144.676 Y21.139 E964.06228
G0 F10500 X143.969 Y21.139
G1 F1380 X81.696 Y83.412 E966.68522
G0 F10500 X81.696 Y82.705
G1 F1380 X143.262 Y21.139 E969.27838
G0 F10500 X142.555 Y21.139
G1 F1380 X81.696 Y81.998 E971.84177
G0 F10500 X81.696 Y81.291
G1 F1380 X141.848 Y21.139 E974.37537
G0 F10500 X141.141 Y21.139
G1 F1380 X81.696 Y80.584 E976.87920
G0 F10500 X81.696 Y79.876
G1 F1380 X140.434 Y21.139 E979.35323
G0 F10500 X139.727 Y21.139
G1 F1380 X81.696 Y79.169 E981.79748
G0 F10500 X81.696 Y78.462
G1 F1380 X139.020 Y21.139 E984.21195
G0 F10500 X138.312 Y21.139
G1 F1380 X81.696 Y77.755 E986.59661
G0 F10500 X81.696 Y77.048
G1 F1380 X137.605 Y21.139 E988.95151
G0 F10500 X136.898 Y21.139
G1 F1380 X81.696 Y76.341 E991.27662
G0 F10500 X81.696 Y75.634
G1 F1380 X136.191 Y21.139 E993.57195
G0 F10500 X135.484 Y21.139
G1 F1380 X81.696 Y74.927 E995.83750
G0 F10500 X81.696 Y74.220
G1 F1380 X134.777 Y21.139 E998.07328
G0 F10500 X134.070 Y21.139
G1 F1380 X81.696 Y73.512 E1000.27925
G0 F10500 X81.696 Y72.805
G1 F1380 X133.363 Y21.139 E1002.45545
G0 F10500 X132.656 Y21.139
G1 F1380 X81.696 Y72.098 E1004.60187
G0 F10500 X81.696 Y71.391
G1 F1380 X131.948 Y21.139 E1006.71848
G0 F10500 X131.241 Y21.139
G1 F1380 X81.696 Y70.684 E1008.80532
G0 F10500 X81.696 Y69.977
G1 F1380 X130.534 Y21.139 E1010.86238
G0 F10500 X129.827 Y21.139
G1 F1380 X81.696 Y69.270 E1012.88966
G0 F10500 X81.696 Y68.563
G1 F1380 X129.120 Y21.139 E1014.88716
G0 F10500 X128.413 Y21.139
G1 F1380 X81.696 Y67.856 E1016.85489
G0 F10500 X81.696 Y67.148
G1 F1380 X127.706 Y21.139 E1018.79281
G0 F10500 X126.999 Y21.139
G1 F1380 X81.696 Y66.441 E1020.70095
G0 F10500 X81.696 Y65.734
G1 F1380 X126.292 Y21.139 E1022.57932
G0 F10500 X125.584 Y21.139
G1 F1380 X81.696 Y65.027 E1024.42789
G0 F10500 X81.696 Y64.320
G1 F1380 X124.877 Y21.139 E1026.24667
G0 F10500 X124.170 Y21.139
G1 F1380 X81.696 Y63.613 E1028.03568
G0 F10500 X81.696 Y62.906
G1 F1380 X123.463 Y21.139 E1029.79491
G0 F10500 X122.756 Y21.139
G1 F1380 X81.696 Y62.199 E1031.52436
G0 F10500 X81.696 Y61.492
G1 F1380 X122.049 Y21.139 E1033.22403
G0 F10500 X121.342 Y21.139
G1 F1380 X81.696 Y60.785 E1034.89392
G0 F10500 X81.696 Y60.077
G1 F1380 X120.635 Y21.139 E1036.53401
G0 F10500 X119.928 Y21.139
G1 F1380 X81.696 Y59.370 E1038.14433
G0 F10500 X81.696 Y58.663
G1 F1380 X119.221 Y21.139 E1039.72486
G0 F10500 X118.513 Y21.139
G1 F1380 X81.696 Y57.956 E1041.27559
G0 F10500 X81.696 Y57.249
G1 F1380 X117.806 Y21.139 E1042.79655
G0 F10500 X117.099 Y21.139
G1 F1380 X81.696 Y56.542 E1044.28773
G0 F10500 X81.696 Y55.835
G1 F1380 X116.392 Y21.139 E1045.74912
G0 F10500 X115.685 Y21.139
G1 F1380 X81.696 Y55.128 E1047.18074
G0 F10500 X81.696 Y54.421
G1 F1380 X114.978 Y21.139 E1048.58258
G0 F10500 X114.271 Y21.139
G1 F1380 X81.696 Y53.713 E1049.95462
G0 F10500 X81.696 Y53.006
G1 F1380 X113.564 Y21.139 E1051.29688
G0 F10500 X112.857 Y21.139
G1 F1380 X81.696 Y52.299 E1052.60937
G0 F10500 X81.696 Y51.592
G1 F1380 X112.149 Y21.139 E1053.89205
G0 F10500 X111.442 Y21.139
G1 F1380 X81.696 Y50.885 E1055.14495
G0 F10500 X81.696 Y50.178
G1 F1380 X110.735 Y21.139 E1056.36808
G0 F10500 X110.028 Y21.139
G1 F1380 X81.696 Y49.471 E1057.56142
G0 F10500 X81.696 Y48.764
G1 F1380 X109.321 Y21.139 E1058.72499
G0 F10500 X108.614 Y21.139
G1 F1380 X81.696 Y48.057 E1059.85878
G0 F10500 X81.696 Y47.349
G1 F1380 X107.907 Y21.139 E1060.96276
G0 F10500 X107.200 Y21.139
G1 F1380 X81.696 Y46.642 E1062.03697
G0 F10500 X81.696 Y45.935
G1 F1380 X106.493 Y21.139 E1063.08140
G0 F10500 X105.786 Y21.139
G1 F1380 X81.696 Y45.228 E1064.09605
G0 F10500 X81.696 Y44.521
G1 F1380 X105.078 Y21.139 E1065.08091
G0 F10500 X104.371 Y21.139
G1 F1380 X81.696 Y43.814 E1066.03598
G0 F10500 X81.696 Y43.107
G1 F1380 X103.664 Y21.139 E1066.96127
G0 F10500 X102.957 Y21.139
G1 F1380 X81.696 Y42.400 E1067.85679
G0 F10500 X81.696 Y41.693
G1 F1380 X102.250 Y21.139 E1068.72252
G0 F10500 X101.543 Y21.139
G1 F1380 X81.696 Y40.986 E1069.55848
G0 F10500 X81.696 Y40.278
G1 F1380 X100.836 Y21.139 E1070.36464
G0 F10500 X100.129 Y21.139
G1 F1380 X81.696 Y39.571 E1071.14101
G0 F10500 X81.696 Y38.864
G1 F1380 X99.422 Y21.139 E1071.88761
G0 F10500 X98.714 Y21.139
G1 F1380 X81.696 Y38.157 E1072.60441
G0 F10500 X81.696 Y37.450
G1 F1380 X98.007 Y21.139 E1073.29143
G0 F10500 X97.300 Y21.139
G1 F1380 X81.696 Y36.743 E1073.94867
G0 F10500 X81.696 Y36.036
G1 F1380 X96.593 Y21.139 E1074.57614
G0 F10500 X95.886 Y21.139
G1 F1380 X81.696 Y35.329 E1075.17382
G0 F10500 X81.696 Y34.622
G1 F1380 X95.179 Y21.139 E1075.74172
G0 F10500 X94.472 Y21.139
G1 F1380 X81.696 Y33.914 E1076.27983
G0 F10500 X81.696 Y33.207
G1 F1380 X93.765 Y21.139 E1076.78816
G0 F10500 X93.058 Y21.139
G1 F1380 X81.696 Y32.500 E1077.26670
G0 F10500 X81.696 Y31.793
G1 F1380 X92.350 Y21.139 E1077.71545
G0 F10500 X91.643 Y21.139
G1 F1380 X81.696 Y31.086 E1078.13442
G0 F10500 X81.696 Y30.379
G1 F1380 X90.936 Y21.139 E1078.52361
G0 F10500 X90.229 Y21.139
G1 F1380 X81.696 Y29.672 E1078.88302
G0 F10500 X81.696 Y28.965
G1 F1380 X89.522 Y21.139 E1079.21265
G0 F10500 X88.815 Y21.139
G1 F1380 X81.696 Y28.258 E1079.51250
G0 F10500 X81.696 Y27.551
G1 F1380 X88.108 Y21.139 E1079.78258
G0 F10500 X87.401 Y21.139
G1 F1380 X81.696 Y26.843 E1080.02285
G0 F10500 X81.696 Y26.136
G1 F1380 X86.694 Y21.139 E1080.23334
G0 F10500 X85.987 Y21.139
G1 F1380 X81.696 Y25.429 E1080.41406
G0 F10500 X81.696 Y24.722
G1 F1380 X85.279 Y21.139 E1080.56498
G0 F10500 X84.572 Y21.139
G1 F1380 X81.696 Y24.015 E1080.68611
G0 F10500 X81.696 Y23.308
G1 F1380 X83.865 Y21.139 E1080.77747
G0 F10500 X83.158 Y21.139
G1 F1380 X81.696 Y22.601 E1080.83905
G0 F10500 X81.696 Y21.894
G1 F1380 X82.451 Y21.139 E1080.87085
;LAYER:2
G0 F10500 X81.522 Y20.965 Z1.185
;TYPE:WALL-INNER
G1 F1440 X150.022 Y20.965 E1082.91101
G1 X150.022 Y139.464 E1086.44032
G1 X81.522 Y139.464 E1088.48048
G1 X81.522 Y20.965 E1092.00978
G0 F10500 X81.022 Y20.465
;TYPE:WALL-OUTER
G1 F1320 X150.522 Y20.465 E1094.07972
G1 X150.522 Y139.964 E1097.63881
G1 X81.022 Y139.964 E1099.70875
G1 X81.022 Y20.465 E1103.26784
G0 F10500 X81.696 Y21.238
;TYPE:SKIN
G1 F1920 X149.846 Y89.388 E1106.13832
G0 F10500 X149.846 Y88.681
G1 F1920 X82.305 Y21.140 E1108.98315
G0 F10500 X83.012 Y21.140
G1 F1920 X149.846 Y87.974 E1111.79820
G0 F10500 X149.846 Y87.267
G1 F1920 X83.719 Y21.140 E1114.58347
G0 F10500 X84.426 Y21.140
G1 F1920 X149.846 Y86.560 E1117.33897
G0 F10500 X149.846 Y85.853
G1 F1920 X85.133 Y21.140 E1120.06468
G0 F10500 X85.840 Y21.140
G1 F1920 X149.846 Y85.146 E1122.76062
G0 F10500 X149.846 Y84.439
G1 F1920 X86.547 Y21.140 E1125.42678
G0 F10500 X87.254 Y21.140
G1 F1920 X149.846 Y83.732 E1128.06316
G0 F10500 X149.846 Y83.024
G1 F1920 X87.961 Y21.140 E1130.66974
G0 F10500 X88.669 Y21.140
G1 F1920 X149.846 Y82.317 E1133.24652
G0 F10500 X149.846 Y81.610
G1 F1920 X89.376 Y21.140 E1135.79352
G0 F10500 X90.083 Y21.140
G1 F1920 X149.846 Y80.903 E1138.31074
G0 F10500 X149.846 Y80.196
G1 F1920 X90.790 Y21.140 E1140.79818
G0 F10500 X91.497 Y21.140
G1 F1920 X149.846 Y79.489 E1143.25584
G0 F10500 X149.846 Y78.782
G1 F1920 X92.204 Y21.140 E1145.68373
G0 F10500 X92.911 Y21.140
G1 F1920 X149.846 Y78.075 E1148.08183
G0 F10500 X149.846 Y77.368
G1 F1920 X93.618 Y21.140 E1150.45016
G0 F10500 X94.325 Y21.140
G1 F1920 X149.846 Y76.660 E1152.78869
G0 F10500 X149.846 Y75.953
G1 F1920 X95.033 Y21.140 E1155.09741
G0 F10500 X95.740 Y21.140
G1 F1920 X149.846 Y75.246 E1157.37636
G0 F10500 X149.846 Y74.539
G1 F1920 X96.447 Y21.140 E1159.62553
G0 F10500 X97.154 Y21.140
G1 F1920 X149.846 Y73.832 E1161.84492
G0 F10500 X149.846 Y73.125
G1 F1920 X97.861 Y21.140 E1164.03453
G0 F10500 X98.568 Y21.140
G1 F1920 X149.846 Y72.418 E1166.19437
G0 F10500 X149.846 Y71.711
G1 F1920 X99.275 Y21.140 E1168.32442
G0 F10500 X99.982 Y21.140
G1 F1920 X149.846 Y71.004 E1170.42469
G0 F10500 X149.846 Y70.297
G1 F1920 X100.689 Y21.140 E1172.49519
G0 F10500 X101.396 Y21.140
G1 F1920 X149.846 Y69.589 E1174.53589
G0 F10500 X149.846 Y68.882
G1 F1920 X102.104 Y21.140 E1176.54678
G0 F10500 X102.811 Y21.140
G1 F1920 X149.846 Y68.175 E1178.52790
G0 F10500 X149.846 Y67.468
G1 F1920 X103.518 Y21.140 E1180.47924
G0 F10500 X104.225 Y21.140
G1 F1920 X149.846 Y66.761 E1182.40080
G0 F10500 X149.846 Y66.054
G1 F1920 X104.932 Y21.140 E1184.29258
G0 F10500 X105.639 Y21.140
G1 F1920 X149.846 Y65.347 E1186.15458
G0 F10500 X149.846 Y64.640
G1 F1920 X106.346 Y21.140 E1187.98680
G0 F10500 X107.053 Y21.140
G1 F1920 X149.846 Y63.933 E1189.78925
G0 F10500 X149.846 Y63.225
G1 F1920 X107.760 Y21.140 E1191.56189
G0 F10500 X108.468 Y21.140
G1 F1920 X149.846 Y62.518 E1193.30473
G0 F10500 X149.846 Y61.811
G1 F1920 X109.175 Y21.140 E1195.01780
G0 F10500 X109.882 Y21.140
G1 F1920 X149.846 Y61.104 E1196.70108
G0 F10500 X149.846 Y60.397
G1 F1920 X110.589 Y21.140 E1198.35459
G0 F10500 X111.296 Y21.140
G1 F1920 X149.846 Y59.690 E1199.97832
G0 F10500 X149.846 Y58.983
G1 F1920 X112.003 Y21.140 E1201.57227
G0 F10500 X112.710 Y21.140
G1 F1920 X149.846 Y58.276 E1203.13644
G0 F10500 X149.846 Y57.569
G1 F1920 X113.417 Y21.140 E1204.67083
G0 F10500 X114.124 Y21.140
G1 F1920 X149.846 Y56.861 E1206.17542
G0 F10500 X149.846 Y56.154
G1 F1920 X114.832 Y21.140 E1207.65022
G0 F10500 X115.539 Y21.140
G1 F1920 X149.846 Y55.447 E1209.09523
G0 F10500 X149.846 Y54.740
G1 F1920 X116.246 Y21.140 E1210.51046
G0 F10500 X116.953 Y21.140
G1 F1920 X149.846 Y54.033 E1211.89592
G0 F10500 X149.846 Y53.326
G1 F1920 X117.660 Y21.140 E1213.25159
G0 F10500 X118.367 Y21.140
G1 F1920 X149.846 Y52.619 E1214.57749
G0 F10500 X149.846 Y51.912
G1 F1920 X119.074 Y21.140 E1215.87361
G0 F10500 X119.781 Y21.140
G1 F1920 X149.846 Y51.205 E1217.13995
G0 F10500 X149.846 Y50.498
G1 F1920 X120.488 Y21.140 E1218.37651
G0 F10500 X121.195 Y21.140
G1 F1920 X149.846 Y49.790 E1219.58327
G0 F10500 X149.846 Y49.083
G1 F1920 X121.903 Y21.140 E1220.76023
G0 F10500 X122.610 Y21.140
G1 F1920 X149.846 Y48.376 E1221.90741
G0 F10500 X149.846 Y47.669
G1 F1920 X123.317 Y21.140 E1223.02482
G0 F10500 X124.024 Y21.140
G1 F1920 X149.846 Y46.962 E1224.11244
G0 F10500 X149.846 Y46.255
G1 F1920 X124.731 Y21.140 E1225.17029
G0 F10500 X125.438 Y21.140
G1 F1920 X149.846 Y45.548 E1226.19835
G0 F10500 X149.846 Y44.841
G1 F1920 X126.145 Y21.140 E1227.19664
G0 F10500 X126.852 Y21.140
G1 F1920 X149.846 Y44.134 E1228.16515
G0 F10500 X149.846 Y43.426
G1 F1920 X127.559 Y21.140 E1229.10386
G0 F10500 X128.267 Y21.140
G1 F1920 X149.846 Y42.719 E1230.01277
G0 F10500 X149.846 Y42.012
G1 F1920 X128.974 Y21.140 E1230.89190
G0 F10500 X129.681 Y21.140
G1 F1920 X149.846 Y41.305 E1231.74125
G0 F10500 X149.846 Y40.598
G1 F1920 X130.388 Y21.140 E1232.56082
G0 F10500 X131.095 Y21.140
G1 F1920 X149.846 Y39.891 E1233.35061
G0 F10500 X149.846 Y39.184
G1 F1920 X131.802 Y21.140 E1234.11063
G0 F10500 X132.509 Y21.140
G1 F1920 X149.846 Y38.477 E1234.84086
G0 F10500 X149.846 Y37.770
G1 F1920 X133.216 Y21.140 E1235.54132
G0 F10500 X133.923 Y21.140
G1 F1920 X149.846 Y37.063 E1236.21200
G0 F10500 X149.846 Y36.355
G1 F1920 X134.631 Y21.140 E1236.85285
G0 F10500 X135.338 Y21.140
G1 F1920 X149.846 Y35.648 E1237.46393
G0 F10500 X149.846 Y34.941
G1 F1920 X136.045 Y21.140 E1238.04523
G0 F10500 X136.752 Y21.140
G1 F1920 X149.846 Y34.234 E1238.59675
G0 F10500 X149.846 Y33.527
G1 F1920 X137.459 Y21.140 E1239.11849
G0 F10500 X138.166 Y21.140
G1 F1920 X149.846 Y32.820 E1239.61045
G0 F10500 X149.846 Y32.113
G1 F1920 X138.873 Y21.140 E1240.07264
G0 F10500 X139.580 Y21.140
G1 F1920 X149.846 Y31.406 E1240.50504
G0 F10500 X149.846 Y30.699
G1 F1920 X140.287 Y21.140 E1240.90767
G0 F10500 X140.994 Y21.140
G1 F1920 X149.846 Y29.991 E1241.28049
G0 F10500 X149.846 Y29.284
G1 F1920 X141.702 Y21.140 E1241.62352
G0 F10500 X142.409 Y21.140
G1 F1920 X149.846 Y28.577 E1241.93677
G0 F10500 X149.846 Y27.870
G1 F1920 X143.116 Y21.140 E1242.22023
G0 F10500 X143.823 Y21.140
G1 F1920 X149.846 Y27.163 E1242.47392
G0 F10500 X149.846 Y26.456
G1 F1920 X144.530 Y21.140 E1242.69783
G0 F10500 X145.237 Y21.140
G1 F1920 X149.846 Y25.749 E1242.89197
G0 F10500 X149.846 Y25.042
G1 F1920 X145.944 Y21.140 E1243.05632
G0 F10500 X146.651 Y21.140
G1 F1920 X149.846 Y24.335 E1243.19089
G0 F10500 X149.846 Y23.627
G1 F1920 X147.358 Y21.140 E1243.29567
G0 F10500 X148.066 Y21.140
G1 F1920 X149.846 Y22.920 E1243.37064
G0 F10500 X149.846 Y22.213
G1 F1920 X148.773 Y21.140 E1243.41583
G0 F10500 X149.480 Y21.140
G1 F1920 X149.846 Y21.506 E1243.43125
G0 F10500 X81.696 Y21.945
G1 F1920 X149.846 Y90.096 E1246.30175
G0 F10500 X149.846 Y90.803
G1 F1920 X81.696 Y22.652 E1249.17226
G0 F10500 X81.696 Y23.359
G1 F1920 X149.846 Y91.510 E1252.04276
G0 F10500 X149.846 Y92.217
G1 F1920 X81.696 Y24.067 E1254.91324
G0 F10500 X81.696 Y24.774
G1 F1920 X149.846 Y92.924 E1257.78372
G0 F10500 X149.846 Y93.631
G1 F1920 X81.696 Y25.481 E1260.65421
G0 F10500 X81.696 Y26.188
G1 F1920 X149.846 Y94.338 E1263.52469
G0 F10500 X149.846 Y95.045
G1 F1920 X81.696 Y26.895 E1266.39517
G0 F10500 X81.696 Y27.602
G1 F1920 X149.846 Y95.752 E1269.26565
G0 F10500 X149.846 Y96.459
G1 F1920 X81.696 Y28.309 E1272.13613
G0 F10500 X81.696 Y29.016
G1 F1920 X149.846 Y97.167 E1275.00664
G0 F10500 X149.846 Y97.874
G1 F1920 X81.696 Y29.723 E1277.87714
G0 F10500 X81.696 Y30.431
G1 F1920 X149.846 Y98.581 E1280.74762
G0 F10500 X149.846 Y99.288
G1 F1920 X81.696 Y31.138 E1283.61811
G0 F10500 X81.696 Y31.845
G1 F1920 X149.846 Y99.995 E1286.48859
G0 F10500 X149.846 Y100.702
G1 F1920 X81.696 Y32.552 E1289.35907
G0 F10500 X81.696 Y33.259
G1 F1920 X149.846 Y101.409 E1292.22955
G0 F10500 X149.846 Y102.116
G1 F1920 X81.696 Y33.966 E1295.10003
G0 F10500 X81.696 Y34.673
G1 F1920 X149.846 Y102.823 E1297.97052
G0 F10500 X149.846 Y103.531
G1 F1920 X81.696 Y35.380 E1300.84102
G0 F10500 X81.696 Y36.087
G1 F1920 X149.846 Y104.238 E1303.71152
G0 F10500 X149.846 Y104.945
G1 F1920 X81.696 Y36.795 E1306.58201
G0 F10500 X81.696 Y37.502
G1 F1920 X149.846 Y105.652 E1309.45249
G0 F10500 X149.846 Y106.359
G1 F1920 X81.696 Y38.209 E1312.32297
G0 F10500 X81.696 Y38.916
G1 F1920 X149.846 Y107.066 E1315.19345
G0 F10500 X149.846 Y107.773
G1 F1920 X81.696 Y39.623 E1318.06393
G0 F10500 X81.696 Y40.330
G1 F1920 X149.846 Y108.480 E1320.93442
G0 F10500 X149.846 Y109.187
G1 F1920 X81.696 Y41.037 E1323.80490
G0 F10500 X81.696 Y41.744
G1 F1920 X149.846 Y109.895 E1326.67540
G0 F10500 X149.846 Y110.602
G1 F1920 X81.696 Y42.451 E1329.54590
G0 F10500 X81.696 Y43.158
G1 F1920 X149.846 Y111.309 E1332.41641
G0 F10500 X149.846 Y112.016
G1 F1920 X81.696 Y43.866 E1335.28689
G0 F10500 X81.696 Y44.573
G1 F1920 X149.846 Y112.723 E1338.15737
G0 F10500 X149.846 Y113.430
G1 F1920 X81.696 Y45.280 E1341.02785
G0 F10500 X81.696 Y45.987
G1 F1920 X149.846 Y114.137 E1343.89834
G0 F10500 X149.846 Y114.844
G1 F1920 X81.696 Y46.694 E1346.76882
G0 F10500 X81.696 Y47.401
G1 F1920 X149.846 Y115.551 E1349.63930
G0 F10500 X149.846 Y116.258
G1 F1920 X81.696 Y48.108 E1352.50978
G0 F10500 X81.696 Y48.815
G1 F1920 X149.846 Y116.966 E1355.38029
G0 F10500 X149.846 Y117.673
G1 F1920 X81.696 Y49.522 E1358.25079
G0 F10500 X81.696 Y50.230
G1 F1920 X149.846 Y118.380 E1361.12127
G0 F10500 X149.846 Y119.087
G1 F1920 X81.696 Y50.937 E1363.99175
G0 F10500 X81.696 Y51.644
G1 F1920 X149.846 Y119.794 E1366.86224
G0 F10500 X149.846 Y120.501
G1 F1920 X81.696 Y52.351 E1369.73272
G0 F10500 X81.696 Y53.058
G1 F1920 X149.846 Y121.208 E1372.60320
G0 F10500 X149.846 Y121.915
G1 F1920 X81.696 Y53.765 E1375.47368
G0 F10500 X81.696 Y54.472
G1 F1920 X149.846 Y122.622 E1378.34417
G0 F10500 X149.846 Y123.330
G1 F1920 X81.696 Y55.179 E1381.21467
G0 F10500 X81.696 Y55.886
G1 F1920 X149.846 Y124.037 E1384.08517
G0 F10500 X149.846 Y124.744
G1 F1920 X81.696 Y56.593 E1386.95568
G0 F10500 X81.696 Y57.301
G1 F1920 X149.846 Y125.451 E1389.82616
G0 F10500 X149.846 Y126.158
G1 F1920 X81.696 Y58.008 E1392.69664
G0 F10500 X81.696 Y58.715
G1 F1920 X149.846 Y126.865 E1395.56712
G0 F10500 X149.846 Y127.572
G1 F1920 X81.696 Y59.422 E1398.43760
G0 F10500 X81.696 Y60.129
G1 F1920 X149.846 Y128.279 E1401.30809
G0 F10500 X149.846 Y128.986
G1 F1920 X81.696 Y60.836 E1404.17857
G0 F10500 X81.696 Y61.543
G1 F1920 X149.846 Y129.693 E1407.04905
G0 F10500 X149.846 Y130.401
G1 F1920 X81.696 Y62.250 E1409.91955
G0 F10500 X81.696 Y62.957
G1 F1920 X149.846 Y131.108 E1412.79006
G0 F10500 X149.846 Y131.815
G1 F1920 X81.696 Y63.665 E1415.66054
G0 F10500 X81.696 Y64.372
G1 F1920 X149.846 Y132.522 E1418.53102
G0 F10500 X149.846 Y133.229
G1 F1920 X81.696 Y65.079 E1421.40150
G0 F10500 X81.696 Y65.786
G1 F1920 X149.846 Y133.936 E1424.27199
G0 F10500 X149.846 Y134.643
G1 F1920 X81.696 Y66.493 E1427.14247
G0 F10500 X81.696 Y67.200
G1 F1920 X149.846 Y135.350 E1430.01295
G0 F10500 X149.846 Y136.057
G1 F1920 X81.696 Y67.907 E1432.88343
G0 F10500 X81.696 Y68.614
G1 F1920 X149.846 Y136.765 E1435.75394
G0 F10500 X149.846 Y137.472
G1 F1920 X81.696 Y69.321 E1438.62444
G0 F10500 X81.696 Y70.029
G1 F1920 X149.846 Y138.179 E1441.49492
G0 F10500 X149.846 Y138.886
G1 F1920 X81.696 Y70.736 E1444.36540
G0 F10500 X81.696 Y71.443
G1 F1920 X149.541 Y139.288 E1447.22304
G0 F10500 X148.834 Y139.288
G1 F1920 X81.696 Y72.150 E1450.05090
G0 F10500 X81.696 Y72.857
G1 F1920 X148.127 Y139.288 E1452.84897
G0 F10500 X147.420 Y139.288
G1 F1920 X81.696 Y73.564 E1455.61727
G0 F10500 X81.696 Y74.271
G1 F1920 X146.713 Y139.288 E1458.35579
G0 F10500 X146.006 Y139.288
G1 F1920 X81.696 Y74.978 E1461.06453
G0 F10500 X81.696 Y75.685
G1 F1920 X145.299 Y139.288 E1463.74350
G0 F10500 X144.592 Y139.288
G1 F1920 X81.696 Y76.392 E1466.39268
G0 F10500 X81.696 Y77.100
G1 F1920 X143.884 Y139.288 E1469.01204
G0 F10500 X143.177 Y139.288
G1 F1920 X81.696 Y77.807 E1471.60163
G0 F10500 X81.696 Y78.514
G1 F1920 X142.470 Y139.288 E1474.16143
G0 F10500 X141.763 Y139.288
G1 F1920 X81.696 Y79.221 E1476.69146
G0 F10500 X81.696 Y79.928
G1 F1920 X141.056 Y139.288 E1479.19170
G0 F10500 X140.349 Y139.288
G1 F1920 X81.696 Y80.635 E1481.66217
G0 F10500 X81.696 Y81.342
G1 F1920 X139.642 Y139.288 E1484.10286
G0 F10500 X138.935 Y139.288
G1 F1920 X81.696 Y82.049 E1486.51377
G0 F10500 X81.696 Y82.756
G1 F1920 X138.228 Y139.288 E1488.89490
G0 F10500 X137.520 Y139.288
G1 F1920 X81.696 Y83.464 E1491.24621
G0 F10500 X81.696 Y84.171
G1 F1920 X136.813 Y139.288 E1493.56774
G0 F10500 X136.106 Y139.288
G1 F1920 X81.696 Y84.878 E1495.85950
G0 F10500 X81.696 Y85.585
G1 F1920 X135.399 Y139.288 E1498.12147
G0 F10500 X134.692 Y139.288
G1 F1920 X81.696 Y86.292 E1500.35366
G0 F10500 X81.696 Y86.999
G1 F1920 X133.985 Y139.288 E1502.55608
G0 F10500 X133.278 Y139.288
G1 F1920 X81.696 Y87.706 E1504.72872
G0 F10500 X81.696 Y88.413
G1 F1920 X132.571 Y139.288 E1506.87157
G0 F10500 X131.864 Y139.288
G1 F1920 X81.696 Y89.120 E1508.98465
G0 F10500 X81.696 Y89.828
G1 F1920 X131.156 Y139.288 E1511.06791
G0 F10500 X130.449 Y139.288
G1 F1920 X81.696 Y90.535 E1513.12139
G0 F10500 X81.696 Y91.242
G1 F1920 X129.742 Y139.288 E1515.14509
G0 F10500 X129.035 Y139.288
G1 F1920 X81.696 Y91.949 E1517.13901
G0 F10500 X81.696 Y92.656
G1 F1920 X128.328 Y139.288 E1519.10316
G0 F10500 X127.621 Y139.288
G1 F1920 X81.696 Y93.363 E1521.03752
G0 F10500 X81.696 Y94.070
G1 F1920 X126.914 Y139.288 E1522.94211
G0 F10500 X126.207 Y139.288
G1 F1920 X81.696 Y94.777 E1524.81691
G0 F10500 X81.696 Y95.484
G1 F1920 X125.500 Y139.288 E1526.66194
G0 F10500 X124.793 Y139.288
G1 F1920 X81.696 Y96.191 E1528.47719
G0 F10500 X81.696 Y96.899
G1 F1920 X124.085 Y139.288 E1530.26261
G0 F10500 X123.378 Y139.288
G1 F1920 X81.696 Y97.606 E1532.01826
G0 F10500 X81.696 Y98.313
G1 F1920 X122.671 Y139.288 E1533.74413
G0 F10500 X121.964 Y139.288
G1 F1920 X81.696 Y99.020 E1535.44022
G0 F10500 X81.696 Y99.727
G1 F1920 X121.257 Y139.288 E1537.10653
G0 F10500 X120.550 Y139.288
G1 F1920 X81.696 Y100.434 E1538.74307
G0 F10500 X81.696 Y101.141
G1 F1920 X119.843 Y139.288 E1540.34982
G0 F10500 X119.136 Y139.288
G1 F1920 X81.696 Y101.848 E1541.92680
G0 F10500 X81.696 Y102.555
G1 F1920 X118.429 Y139.288 E1543.47399
G0 F10500 X117.721 Y139.288
G1 F1920 X81.696 Y103.263 E1544.99137
G0 F10500 X81.696 Y103.970
G1 F1920 X117.014 Y139.288 E1546.47896
G0 F10500 X116.307 Y139.288
G1 F1920 X81.696 Y104.677 E1547.93678
G0 F10500 X81.696 Y105.384
G1 F1920 X115.599 Y139.288 E1549.36480
G0 F10500 X114.892 Y139.288
G1 F1920 X81.696 Y106.091 E1550.76304
G0 F10500 X81.696 Y106.798
G1 F1920 X114.185 Y139.288 E1552.13150
G0 F10500 X113.478 Y139.288
G1 F1920 X81.696 Y107.505 E1553.47018
G0 F10500 X81.696 Y108.212
G1 F1920 X112.771 Y139.288 E1554.77908
G0 F10500 X112.064 Y139.288
G1 F1920 X81.696 Y108.919 E1556.05820
G0 F10500 X81.696 Y109.627
G1 F1920 X111.357 Y139.288 E1557.30753
G0 F10500 X110.650 Y139.288
G1 F1920 X81.696 Y110.334 E1558.52707
G0 F10500 X81.696 Y111.041
G1 F1920 X109.943 Y139.288 E1559.71684
G0 F10500 X109.235 Y139.288
G1 F1920 X81.696 Y111.748 E1560.87680
G0 F10500 X81.696 Y112.455
G1 F1920 X108.528 Y139.288 E1562.00699
G0 F10500 X107.821 Y139.288
G1 F1920 X81.696 Y113.162 E1563.10740
G0 F10500 X81.696 Y113.869
G1 F1920 X107.114 Y139.288 E1564.17802
G0 F10500 X106.407 Y139.288
G1 F1920 X81.696 Y114.576 E1565.21887
G0 F10500 X81.696 Y115.283
G1 F1920 X105.700 Y139.288 E1566.22995
G0 F10500 X104.993 Y139.288
G1 F1920 X81.696 Y115.990 E1567.21124
G0 F10500 X81.696 Y116.698
G1 F1920 X104.286 Y139.288 E1568.16273
G0 F10500 X103.579 Y139.288
G1 F1920 X81.696 Y117.405 E1569.08444
G0 F10500 X81.696 Y118.112
G1 F1920 X102.872 Y139.288 E1569.97638
G0 F10500 X102.164 Y139.288
G1 F1920 X81.696 Y118.819 E1570.83851
G0 F10500 X81.696 Y119.526
G1 F1920 X101.457 Y139.288 E1571.67087
G0 F10500 X100.750 Y139.288
G1 F1920 X81.696 Y120.233 E1572.47344
G0 F10500 X81.696 Y120.940
G1 F1920 X100.043 Y139.288 E1573.24624
G0 F10500 X99.336 Y139.288
G1 F1920 X81.696 Y121.647 E1573.98926
G0 F10500 X81.696 Y122.354
G1 F1920 X98.629 Y139.288 E1574.70250
G0 F10500 X97.922 Y139.288
G1 F1920 X81.696 Y123.062 E1575.38594
G0 F10500 X81.696 Y123.769
G1 F1920 X97.215 Y139.288 E1576.03960
G0 F10500 X96.508 Y139.288
G1 F1920 X81.696 Y124.476 E1576.66348
G0 F10500 X81.696 Y125.183
G1 F1920 X95.800 Y139.288 E1577.25757
G0 F10500 X95.093 Y139.288
G1 F1920 X81.696 Y125.890 E1577.82187
G0 F10500 X81.696 Y126.597
G1 F1920 X94.386 Y139.288 E1578.35640
G0 F10500 X93.679 Y139.288
G1 F1920 X81.696 Y127.304 E1578.86114
G0 F10500 X81.696 Y128.011
G1 F1920 X92.972 Y139.288 E1579.33611
G0 F10500 X92.265 Y139.288
G1 F1920 X81.696 Y128.718 E1579.78130
G0 F10500 X81.696 Y129.425
G1 F1920 X91.558 Y139.288 E1580.19671
G0 F10500 X90.851 Y139.288
G1 F1920 X81.696 Y130.133 E1580.58231
G0 F10500 X81.696 Y130.840
G1 F1920 X90.144 Y139.288 E1580.93814
G0 F10500 X89.436 Y139.288
G1 F1920 X81.696 Y131.547 E1581.26417
G0 F10500 X81.696 Y132.254
G1 F1920 X88.729 Y139.288 E1581.56043
G0 F10500 X88.022 Y139.288
G1 F1920 X81.696 Y132.961 E1581.82690
G0 F10500 X81.696 Y133.668
G1 F1920 X87.315 Y139.288 E1582.06359
G0 F10500 X86.608 Y139.288
G1 F1920 X81.696 Y134.375 E1582.27051
G0 F10500 X81.696 Y135.082
G1 F1920 X85.901 Y139.288 E1582.44764
G0 F10500 X85.194 Y139.288
G1 F1920 X81.696 Y135.789 E1582.59500
G0 F10500 X81.696 Y136.497
G1 F1920 X84.487 Y139.288 E1582.71256
G0 F10500 X83.780 Y139.288
G1 F1920 X81.696 Y137.204 E1582.80034
G0 F10500 X81.696 Y137.911
G1 F1920 X83.073 Y139.288 E1582.85834
G0 F10500 X82.365 Y139.288
G1 F1920 X81.696 Y138.618 E1582.88653
;LAYER:3
M106 S255
G1 F600 E1581.38653
G1 Z1.285
G0 F10500 X139.077 Y27.465 Z1.565
;TYPE:WALL-INNER
G1 Z1.565
G1 F600 E1582.88653
G1 F660 X139.078 Y24.368 E1582.97877
G1 X149.749 Y24.368 E1583.29659
G1 X149.748 Y27.465 E1583.38883
G1 X139.077 Y27.465 E1583.70665
G0 F10500 X138.577 Y27.965
;TYPE:WALL-OUTER
G1 F600 X138.578 Y23.868 E1583.82867
G1 X150.249 Y23.868 E1584.17627
G1 X150.248 Y27.965 E1584.29830
G1 X138.577 Y27.965 E1584.64590
G0 F10500 X139.251 Y27.271
;TYPE:SKIN
G1 F960 X139.560 Y26.609 E1584.67188
G1 X139.560 Y25.901 E1584.69786
G1 X139.560 Y25.194 E1584.72380
G1 X139.859 Y24.542 E1584.74516
G1 F600 E1583.24516
G1 Z1.665
G0 F10500 X139.078 Y132.574
;TYPE:WALL-INNER
G1 Z1.565
G1 F600 E1584.74516
G1 F660 X149.749 Y132.574 E1585.06298
G1 X149.748 Y135.671 E1585.15522
G1 X139.077 Y135.671 E1585.47304
G1 X139.078 Y132.574 E1585.56528
G0 F10500 X138.578 Y132.074
;TYPE:WALL-OUTER
G1 F600 X150.249 Y132.074 E1585.91288
G1 X150.248 Y136.171 E1586.03490
G1 X138.577 Y136.171 E1586.38250
G1 X138.578 Y132.074 E1586.50453
G0 F10500 X139.840 Y132.748
;TYPE:SKIN
G1 F960 X139.560 Y133.381 E1586.52931
G1 X139.560 Y134.089 E1586.55528
G1 X139.560 Y134.796 E1586.58127
G1 X139.251 Y135.459 E1586.60305
;LAYER:4
G1 F600 E1585.10305
G1 Z1.665
G0 F10500 X139.316 Y27.465 Z1.945
;TYPE:WALL-INNER
G1 Z1.945
G1 F600 E1586.60305
G1 F660 X139.317 Y24.368 E1586.69529
G1 X149.706 Y24.368 E1587.00471
G1 X149.705 Y27.465 E1587.09695
G1 X139.316 Y27.465 E1587.40637
G0 F10500 X138.817 Y27.965
;TYPE:WALL-OUTER
G1 F540 X138.817 Y23.868 E1587.52839
G1 X150.205 Y23.868 E1587.86757
G1 X150.205 Y27.965 E1587.98959
G1 X138.817 Y27.965 E1588.32876
G0 F10500 X140.072 Y27.289
;TYPE:SKIN
G1 F960 X139.799 Y26.662 E1588.35329
G1 X139.799 Y25.955 E1588.37931
G1 X139.799 Y25.248 E1588.40534
G1 X139.490 Y24.586 E1588.42710
G1 F600 E1586.92710
G1 Z2.045
G0 F10500 X139.317 Y132.574
;TYPE:WALL-INNER
G1 Z1.945
G1 F600 E1588.42710
G1 F660 X149.706 Y132.574 E1588.73652
G1 X149.705 Y135.671 E1588.82876
G1 X139.316 Y135.671 E1589.13817
G1 X139.317 Y132.574 E1589.23041
G0 F10500 X138.817 Y132.074
;TYPE:WALL-OUTER
G1 F540 X150.205 Y132.074 E1589.56959
G1 X150.205 Y136.171 E1589.69161
G1 X138.817 Y136.171 E1590.03078
G1 X138.817 Y132.074 E1590.15281
G0 F10500 X139.490 Y132.773
;TYPE:SKIN
G1 F960 X139.799 Y133.436 E1590.17886
G1 X139.799 Y134.142 E1590.20489
G1 X139.799 Y134.849 E1590.23092
G1 X140.092 Y135.496 E1590.25207
;LAYER:5
G1 F600 E1588.75207
G1 Z2.045
G0 F10500 X139.555 Y27.465 Z2.325
;TYPE:WALL-INNER
G1 Z2.325
G1 F600 E1590.25207
G1 F660 X139.556 Y24.368 E1590.34431
G1 X149.662 Y24.368 E1590.64530
G1 X149.661 Y27.465 E1590.73754
G1 X139.555 Y27.465 E1591.03853
G0 F10500 X139.056 Y27.965
;TYPE:WALL-OUTER
G1 F540 X139.056 Y23.868 E1591.16055
G1 X150.161 Y23.868 E1591.49130
G1 X150.161 Y27.965 E1591.61332
G1 X139.056 Y27.965 E1591.94407
G0 F10500 X139.941 Y27.289
;TYPE:SKIN
G1 F960 X140.038 Y26.838 E1591.96116
G1 X140.038 Y26.131 E1591.98714
G1 X140.038 Y25.423 E1592.01312
G1 X140.103 Y24.651 E1592.03910
G1 X139.730 Y24.671 E1592.05023
G1 F600 E1590.55023
G1 Z2.425
G0 F10500 X139.556 Y132.574
;TYPE:WALL-INNER
G1 Z2.325
G1 F600 E1592.05023
G1 F660 X149.662 Y132.574 E1592.35122
G1 X149.661 Y135.671 E1592.44346
G1 X139.555 Y135.671 E1592.74445
G1 X139.556 Y132.574 E1592.83669
G0 F10500 X139.056 Y132.074
;TYPE:WALL-OUTER
G1 F540 X150.161 Y132.074 E1593.16743
G1 X150.161 Y136.171 E1593.28945
G1 X139.056 Y136.171 E1593.62020
G1 X139.056 Y132.074 E1593.74222
G0 F10500 X139.840 Y132.748
;TYPE:SKIN
G1 F960 X140.038 Y132.903 E1593.74686
G1 X140.038 Y133.610 E1593.77285
G1 X140.038 Y134.318 E1593.79883
G1 X139.825 Y135.238 E1593.82482
G1 X140.347 Y135.070 E1593.84115
;LAYER:6
G1 F600 E1592.34115
G1 Z2.425
G0 F10500 X139.795 Y27.465 Z2.705
;TYPE:WALL-INNER
G1 Z2.705
G1 F600 E1593.84115
G1 F660 X139.796 Y24.368 E1593.93339
G1 X149.619 Y24.368 E1594.22595
G1 X149.618 Y27.465 E1594.31819
G1 X139.795 Y27.465 E1594.61075
G0 F10500 X139.296 Y27.965
;TYPE:WALL-OUTER
G1 F540 X139.296 Y23.868 E1594.73277
G1 X150.118 Y23.868 E1595.05509
G1 X150.118 Y27.965 E1595.17711
G1 X139.296 Y27.965 E1595.49943
G0 F10500 X140.073 Y27.290
;TYPE:SKIN
G1 F960 X140.278 Y27.141 E1595.50383
G1 X140.278 Y26.434 E1595.52990
G1 X140.278 Y25.727 E1595.55597
G1 X140.061 Y24.803 E1595.58204
G1 X140.588 Y24.976 E1595.59856
G1 F600 E1594.09856
G1 Z2.805
G0 F10500 X139.796 Y132.574
;TYPE:WALL-INNER
G1 Z2.705
G1 F600 E1595.59856
G1 F660 X149.619 Y132.574 E1595.89112
G1 X149.618 Y135.671 E1595.98336
G1 X139.795 Y135.671 E1596.27592
G1 X139.796 Y132.574 E1596.36816
G0 F10500 X139.296 Y132.074
;TYPE:WALL-OUTER
G1 F540 X150.118 Y132.074 E1596.69047
G1 X150.118 Y136.171 E1596.81250
G1 X139.296 Y136.171 E1597.13481
G1 X139.296 Y132.074 E1597.25683
G0 F10500 X139.969 Y133.252
;TYPE:SKIN
G1 F960 X140.278 Y133.914 E1597.28286
G1 X140.278 Y134.621 E1597.30888
G1 X140.339 Y135.390 E1597.33498
G1 X139.968 Y135.372 E1597.34605
G0 F10500 X140.588 Y133.163
G1 F960 X140.174 Y132.749 E1597.36348
;LAYER:7
G1 F600 E1595.86348
G1 Z2.805
G0 F10500 X140.034 Y27.465 Z3.085
;TYPE:WALL-INNER
G1 Z3.085
G1 F600 E1597.36348
G1 F660 X140.035 Y24.368 E1597.45572
G1 X149.576 Y24.368 E1597.73989
G1 X149.575 Y27.465 E1597.83213
G1 X140.034 Y27.465 E1598.11629
G0 F10500 X139.535 Y27.965
;TYPE:WALL-OUTER
G1 F540 X139.535 Y23.868 E1598.23831
G1 X150.075 Y23.868 E1598.55223
G1 X150.075 Y27.965 E1598.67425
G1 X139.535 Y27.965 E1598.98817
G0 F10500 X140.208 Y27.022
;TYPE:SKIN
G1 F960 X140.517 Y26.359 E1599.01418
G1 X140.517 Y25.651 E1599.04016
G1 X140.696 Y24.765 E1599.06616
G1 X140.208 Y24.900 E1599.08124
G0 F10500 X140.826 Y27.111
G1 F960 X140.647 Y27.290 E1599.08878
G1 F600 E1597.58878
G1 Z3.185
G0 F10500 X140.035 Y132.574
;TYPE:WALL-INNER
G1 Z3.085
G1 F600 E1599.08878
G1 F660 X149.576 Y132.574 E1599.37295
G1 X149.575 Y135.671 E1599.46519
G1 X140.034 Y135.671 E1599.74935
G1 X140.035 Y132.574 E1599.84159
G0 F10500 X139.535 Y132.074
;TYPE:WALL-OUTER
G1 F540 X150.075 Y132.074 E1600.15551
G1 X150.075 Y136.171 E1600.27753
G1 X139.535 Y136.171 E1600.59145
G1 X139.535 Y132.074 E1600.71347
G0 F10500 X140.547 Y132.749
;TYPE:SKIN
G1 F960 X140.518 Y133.131 E1600.72771
G1 X140.518 Y133.838 E1600.75369
G1 X140.517 Y134.546 E1600.77971
G1 X140.418 Y135.352 E1600.80574
G1 X140.827 Y135.297 E1600.81803
;LAYER:8
G1 F600 E1599.31803
G1 Z3.185
G0 F10500 X140.273 Y27.465 Z3.465
;TYPE:WALL-INNER
G1 Z3.465
G1 F600 E1600.81803
G1 F660 X140.274 Y24.368 E1600.91027
G1 X149.533 Y24.368 E1601.18603
G1 X149.532 Y27.465 E1601.27827
G1 X140.273 Y27.465 E1601.55403
G0 F10500 X139.774 Y27.965
;TYPE:WALL-OUTER
G1 F540 X139.774 Y23.868 E1601.67606
G1 X150.032 Y23.868 E1601.98157
G1 X150.032 Y27.965 E1602.10360
G1 X139.774 Y27.965 E1602.40912
G0 F10500 X140.780 Y27.290
;TYPE:SKIN
G1 F960 X140.756 Y26.912 E1602.42319
G1 X140.756 Y26.205 E1602.44926
G1 X140.756 Y25.498 E1602.47533
G1 X140.654 Y24.688 E1602.50140
G1 X141.066 Y24.747 E1602.51379
G1 F600 E1601.01379
G1 Z3.565
G0 F10500 X140.274 Y132.574
;TYPE:WALL-INNER
G1 Z3.465
G1 F600 E1602.51379
G1 F660 X149.533 Y132.574 E1602.78956
G1 X149.532 Y135.671 E1602.88180
G1 X140.273 Y135.671 E1603.15756
G1 X140.274 Y132.574 E1603.24980
G0 F10500 X139.774 Y132.074
;TYPE:WALL-OUTER
G1 F540 X150.032 Y132.074 E1603.55532
G1 X150.032 Y136.171 E1603.67734
G1 X139.774 Y136.171 E1603.98286
G1 X139.774 Y132.074 E1604.10488
G0 F10500 X140.447 Y133.023
;TYPE:SKIN
G1 F960 X140.756 Y133.685 E1604.13090
G1 X140.756 Y134.392 E1604.15693
G1 X140.932 Y135.275 E1604.18299
G1 X140.446 Y135.143 E1604.19799
G0 F10500 X141.066 Y132.934
G1 F960 X140.881 Y132.749 E1604.20579
;LAYER:9
G1 F600 E1602.70579
G1 Z3.565
G0 F10500 X140.514 Y27.465 Z3.845
;TYPE:WALL-INNER
G1 Z3.845
G1 F600 E1604.20579
G1 F660 X140.514 Y24.368 E1604.29803
G1 X149.488 Y24.368 E1604.56530
G1 X149.488 Y27.465 E1604.65754
G1 X140.514 Y27.465 E1604.92482
G0 F10500 X140.014 Y27.965
;TYPE:WALL-OUTER
G1 F540 X140.014 Y23.868 E1605.04684
G1 X149.988 Y23.868 E1605.34390
G1 X149.988 Y27.965 E1605.46592
G1 X140.014 Y27.965 E1605.76298
G0 F10500 X140.688 Y27.249
;TYPE:SKIN
G1 F960 X140.996 Y26.587 E1605.78890
G1 X140.996 Y25.880 E1605.81480
G1 X140.996 Y25.172 E1605.84074
G1 X141.273 Y24.542 E1605.86124
G1 F600 E1604.36124
G1 Z3.945
G0 F10500 X140.514 Y132.574
;TYPE:WALL-INNER
G1 Z3.845
G1 F600 E1605.86124
G1 F660 X149.488 Y132.574 E1606.12851
G1 X149.488 Y135.671 E1606.22075
G1 X140.514 Y135.671 E1606.48803
G1 X140.514 Y132.574 E1606.58027
G0 F10500 X140.014 Y132.074
;TYPE:WALL-OUTER
G1 F540 X149.988 Y132.074 E1606.87733
G1 X149.988 Y136.171 E1606.99935
G1 X140.014 Y136.171 E1607.29641
G1 X140.014 Y132.074 E1607.41843
G0 F10500 X140.688 Y133.315
;TYPE:SKIN
G1 F960 X141.280 Y133.076 E1607.44227
G1 X140.996 Y134.067 E1607.46825
G1 X140.996 Y134.774 E1607.49419
G1 X140.688 Y135.436 E1607.51594
;LAYER:10
G1 F600 E1606.01594
G1 Z3.945
G0 F10500 X140.753 Y27.465 Z4.225
;TYPE:WALL-INNER
G1 Z4.225
G1 F600 E1607.51594
G1 F660 X140.753 Y24.368 E1607.60818
G1 X149.445 Y24.368 E1607.86705
G1 X149.445 Y27.465 E1607.95929
G1 X140.753 Y27.465 E1608.21817
G0 F10500 X140.253 Y27.965
;TYPE:WALL-OUTER
G1 F540 X140.253 Y23.868 E1608.34019
G1 X149.945 Y23.868 E1608.62885
G1 X149.945 Y27.965 E1608.75088
G1 X140.253 Y27.965 E1609.03954
G0 F10500 X141.487 Y27.290
;TYPE:SKIN
G1 F960 X141.236 Y26.684 E1609.06313
G1 X141.236 Y25.977 E1609.08912
G1 X141.236 Y25.270 E1609.11510
G1 X140.927 Y24.608 E1609.13686
G1 F600 E1607.63686
G1 Z4.325
G0 F10500 X140.753 Y132.574
;TYPE:WALL-INNER
G1 Z4.225
G1 F600 E1609.13686
G1 F660 X149.445 Y132.574 E1609.39574
G1 X149.445 Y135.671 E1609.48798
G1 X140.753 Y135.671 E1609.74686
G1 X140.753 Y132.574 E1609.83909
G0 F10500 X140.253 Y132.074
;TYPE:WALL-OUTER
G1 F540 X149.945 Y132.074 E1610.12775
G1 X149.945 Y136.171 E1610.24978
G1 X140.253 Y136.171 E1610.53844
G1 X140.253 Y132.074 E1610.66046
G0 F10500 X140.927 Y132.795
;TYPE:SKIN
G1 F960 X141.236 Y133.457 E1610.68644
G1 X141.236 Y134.164 E1610.71242
G1 X141.236 Y134.871 E1610.73841
G1 X141.506 Y135.495 E1610.75866
;LAYER:11
G1 F600 E1609.25866
G1 Z4.325
G0 F10500 X140.992 Y27.465 Z4.605
;TYPE:WALL-INNER
G1 Z4.605
G1 F600 E1610.75866
G1 F660 X140.992 Y24.368 E1610.85090
G1 X149.402 Y24.368 E1611.10138
G1 X149.402 Y27.465 E1611.19361
G1 X140.992 Y27.465 E1611.44409
G0 F10500 X140.492 Y27.965
;TYPE:WALL-OUTER
G1 F540 X140.492 Y23.868 E1611.56612
G1 X149.902 Y23.868 E1611.84638
G1 X149.902 Y27.965 E1611.96840
G1 X140.492 Y27.965 E1612.24866
G0 F10500 X141.354 Y27.290
;TYPE:SKIN
G1 F960 X141.475 Y26.815 E1612.26676
G1 X141.475 Y26.108 E1612.29275
G1 X141.475 Y25.401 E1612.31873
G1 X141.528 Y24.640 E1612.34472
G1 X141.166 Y24.649 E1612.35551
G1 F600 E1610.85551
G1 Z4.705
G0 F10500 X140.992 Y132.574
;TYPE:WALL-INNER
G1 Z4.605
G1 F600 E1612.35551
G1 F660 X149.402 Y132.574 E1612.60599
G1 X149.402 Y135.671 E1612.69823
G1 X140.992 Y135.671 E1612.94870
G1 X140.992 Y132.574 E1613.04094
G0 F10500 X140.492 Y132.074
;TYPE:WALL-OUTER
G1 F540 X149.902 Y132.074 E1613.32121
G1 X149.902 Y136.171 E1613.44323
G1 X140.492 Y136.171 E1613.72349
G1 X140.492 Y132.074 E1613.84551
G0 F10500 X141.166 Y132.837
;TYPE:SKIN
G1 F960 X141.519 Y132.837 E1613.84923
G1 X141.475 Y133.588 E1613.87522
G1 X141.475 Y134.296 E1613.90120
G1 X141.250 Y135.227 E1613.92722
G1 X141.784 Y135.048 E1613.94399
;LAYER:12
G1 F600 E1612.44399
G1 Z4.705
G0 F10500 X141.231 Y27.465 Z4.985
;TYPE:WALL-INNER
G1 Z4.985
G1 F600 E1613.94399
G1 F660 X141.231 Y24.368 E1614.03623
G1 X149.359 Y24.368 E1614.27831
G1 X149.359 Y27.465 E1614.37055
G1 X141.231 Y27.465 E1614.61263
G0 F10500 X140.731 Y27.965
;TYPE:WALL-OUTER
G1 F540 X140.731 Y23.868 E1614.73465
G1 X149.859 Y23.868 E1615.00652
G1 X149.859 Y27.965 E1615.12854
G1 X140.731 Y27.965 E1615.40040
G0 F10500 X141.487 Y27.290
;TYPE:SKIN
G1 F960 X141.714 Y27.162 E1615.40386
G1 X141.714 Y26.455 E1615.42985
G1 X141.714 Y25.748 E1615.45583
G1 X141.487 Y24.814 E1615.48182
G1 X142.023 Y24.997 E1615.49869
G1 F600 E1613.99869
G1 Z5.085
G0 F10500 X141.231 Y132.574
;TYPE:WALL-INNER
G1 Z4.985
G1 F600 E1615.49869
G1 F660 X149.359 Y132.574 E1615.74077
G1 X149.359 Y135.671 E1615.83301
G1 X141.231 Y135.671 E1616.07509
G1 X141.231 Y132.574 E1616.16733
G0 F10500 X140.731 Y132.074
;TYPE:WALL-OUTER
G1 F540 X149.859 Y132.074 E1616.43919
G1 X149.859 Y136.171 E1616.56122
G1 X140.731 Y136.171 E1616.83308
G1 X140.731 Y132.074 E1616.95510
G0 F10500 X141.587 Y132.748
;TYPE:SKIN
G1 F960 X141.714 Y133.228 E1616.97344
G1 X141.714 Y133.935 E1616.99942
G1 X141.714 Y134.642 E1617.02541
G1 X141.764 Y135.400 E1617.05142
G1 X141.405 Y135.394 E1617.06212
;LAYER:13
G1 F600 E1615.56212
G1 Z5.085
G0 F10500 X141.471 Y27.465 Z5.365
;TYPE:WALL-INNER
G1 Z5.365
G1 F600 E1617.06212
G1 F660 X141.471 Y24.368 E1617.15436
G1 X149.315 Y24.368 E1617.38798
G1 X149.315 Y27.465 E1617.48022
G1 X141.471 Y27.465 E1617.71384
G0 F10500 X140.971 Y27.965
;TYPE:WALL-OUTER
G1 F540 X140.971 Y23.868 E1617.83586
G1 X149.815 Y23.868 E1618.09926
G1 X149.815 Y27.965 E1618.22129
G1 X140.971 Y27.965 E1618.48469
G0 F10500 X141.645 Y26.999
;TYPE:SKIN
G1 F960 X141.953 Y26.337 E1618.51066
G1 X141.953 Y25.630 E1618.53660
G1 X142.121 Y24.755 E1618.56255
G1 X141.645 Y24.878 E1618.57719
G0 F10500 X142.262 Y27.089
G1 F960 X142.061 Y27.290 E1618.58566
G1 F600 E1617.08566
G1 Z5.465
G0 F10500 X141.471 Y132.574
;TYPE:WALL-INNER
G1 Z5.365
G1 F600 E1618.58566
G1 F660 X149.315 Y132.574 E1618.81928
G1 X149.315 Y135.671 E1618.91152
G1 X141.471 Y135.671 E1619.14514
G1 X141.471 Y132.574 E1619.23738
G0 F10500 X140.971 Y132.074
;TYPE:WALL-OUTER
G1 F540 X149.815 Y132.074 E1619.50078
G1 X149.815 Y136.171 E1619.62281
G1 X140.971 Y136.171 E1619.88621
G1 X140.971 Y132.074 E1620.00823
G0 F10500 X141.645 Y133.065
;TYPE:SKIN
G1 F960 X142.112 Y132.951 E1620.02158
G1 X141.953 Y133.817 E1620.04754
G1 X141.953 Y134.524 E1620.07344
G1 X141.843 Y135.341 E1620.09937
G1 X142.262 Y135.277 E1620.11199
;LAYER:14
G1 F600 E1618.61199
G1 Z5.465
G0 F10500 X141.710 Y27.465 Z5.745
;TYPE:WALL-INNER
G1 Z5.745
G1 F600 E1620.11199
G1 F660 X141.710 Y24.368 E1620.20423
G1 X149.272 Y24.368 E1620.42945
G1 X149.272 Y27.465 E1620.52169
G1 X141.710 Y27.465 E1620.74691
G0 F10500 X141.210 Y27.965
;TYPE:WALL-OUTER
G1 F540 X141.210 Y23.868 E1620.86893
G1 X149.772 Y23.868 E1621.12394
G1 X149.772 Y27.965 E1621.24596
G1 X141.210 Y27.965 E1621.50097
G0 F10500 X142.194 Y27.290
;TYPE:SKIN
G1 F960 X142.192 Y26.934 E1621.51405
G1 X142.192 Y26.227 E1621.54008
G1 X142.192 Y25.520 E1621.56610
G1 X142.079 Y24.699 E1621.59217
G1 X142.502 Y24.769 E1621.60494
G1 F600 E1620.10494
G1 Z5.845
G0 F10500 X141.710 Y132.574
;TYPE:WALL-INNER
G1 Z5.745
G1 F600 E1621.60494
G1 F660 X149.272 Y132.574 E1621.83016
G1 X149.272 Y135.671 E1621.92240
G1 X141.710 Y135.671 E1622.14762
G1 X141.710 Y132.574 E1622.23986
G0 F10500 X141.210 Y132.074
;TYPE:WALL-OUTER
G1 F540 X149.772 Y132.074 E1622.49487
G1 X149.772 Y136.171 E1622.61689
G1 X141.210 Y136.171 E1622.87189
G1 X141.210 Y132.074 E1622.99392
G0 F10500 X141.883 Y133.044
;TYPE:SKIN
G1 F960 X142.192 Y133.707 E1623.01997
G1 X142.192 Y134.414 E1623.04600
G1 X142.357 Y135.286 E1623.07201
G1 X141.883 Y135.166 E1623.08657
G0 F10500 X142.502 Y132.956
G1 F960 X142.294 Y132.748 E1623.09533
;LAYER:15
G1 F600 E1621.59533
G1 Z5.845
G0 F10500 X141.949 Y27.465 Z6.125
;TYPE:WALL-INNER
G1 Z6.125
G1 F600 E1623.09533
G1 F660 X141.949 Y24.368 E1623.18757
G1 X149.229 Y24.368 E1623.40439
G1 X149.229 Y27.465 E1623.49663
G1 X141.949 Y27.465 E1623.71346
G0 F10500 X141.449 Y27.965
;TYPE:WALL-OUTER
G1 F540 X141.449 Y23.868 E1623.83548
G1 X149.729 Y23.868 E1624.08208
G1 X149.729 Y27.965 E1624.20411
G1 X141.449 Y27.965 E1624.45071
G0 F10500 X142.123 Y27.228
;TYPE:SKIN
G1 F960 X142.431 Y26.566 E1624.47668
G1 X142.431 Y25.859 E1624.50262
G1 X142.431 Y25.152 E1624.52856
G1 X142.687 Y24.542 E1624.54827
G1 F600 E1623.04827
G1 Z6.225
G0 F10500 X141.949 Y132.574
;TYPE:WALL-INNER
G1 Z6.125
G1 F600 E1624.54827
G1 F660 X149.229 Y132.574 E1624.76509
G1 X149.229 Y135.671 E1624.85733
G1 X141.949 Y135.671 E1625.07415
G1 X141.949 Y132.574 E1625.16639
G0 F10500 X141.449 Y132.074
;TYPE:WALL-OUTER
G1 F540 X149.729 Y132.074 E1625.41300
G1 X149.729 Y136.171 E1625.53502
G1 X141.449 Y136.171 E1625.78162
G1 X141.449 Y132.074 E1625.90365
G0 F10500 X142.123 Y133.294
;TYPE:SKIN
G1 F960 X142.704 Y133.066 E1625.92662
G1 X142.431 Y134.046 E1625.95256
G1 X142.431 Y134.753 E1625.97850
G1 X142.123 Y135.415 E1626.00025
;LAYER:16
G1 F600 E1624.50025
G1 Z6.225
G0 F10500 X142.188 Y27.465 Z6.505
;TYPE:WALL-INNER
G1 Z6.505
G1 F600 E1626.00025
G1 F660 X142.188 Y24.368 E1626.09249
G1 X149.186 Y24.368 E1626.30091
G1 X149.186 Y27.465 E1626.39315
G1 X142.188 Y27.465 E1626.60157
G0 F10500 X141.688 Y27.965
;TYPE:WALL-OUTER
G1 F540 X141.688 Y23.868 E1626.72360
G1 X149.686 Y23.868 E1626.96180
G1 X149.686 Y27.965 E1627.08383
G1 X141.688 Y27.965 E1627.32203
G0 F10500 X142.902 Y27.290
;TYPE:SKIN
G1 F960 X142.670 Y26.705 E1627.34483
G1 X142.670 Y25.998 E1627.37085
G1 X142.670 Y25.291 E1627.39688
G1 X142.361 Y24.628 E1627.41866
G1 F600 E1625.91866
G1 Z6.605
G0 F10500 X142.188 Y132.574
;TYPE:WALL-INNER
G1 Z6.505
G1 F600 E1627.41866
G1 F660 X149.186 Y132.574 E1627.62709
G1 X149.186 Y135.671 E1627.71933
G1 X142.188 Y135.671 E1627.92775
G1 X142.188 Y132.574 E1628.01999
G0 F10500 X141.688 Y132.074
;TYPE:WALL-OUTER
G1 F540 X149.686 Y132.074 E1628.25820
G1 X149.686 Y136.171 E1628.38022
G1 X141.688 Y136.171 E1628.61843
G1 X141.688 Y132.074 E1628.74045
G0 F10500 X142.361 Y132.815
;TYPE:SKIN
G1 F960 X142.670 Y133.478 E1628.76651
G1 X142.670 Y134.185 E1628.79253
G1 X142.670 Y134.892 E1628.81856
G1 X142.920 Y135.495 E1628.83800
;LAYER:17
G1 F600 E1627.33800
G1 Z6.605
G0 F10500 X142.428 Y27.465 Z6.885
;TYPE:WALL-INNER
G1 Z6.885
G1 F600 E1628.83800
G1 F660 X142.428 Y24.368 E1628.93024
G1 X149.142 Y24.368 E1629.13021
G1 X149.142 Y27.465 E1629.22244
G1 X142.428 Y27.465 E1629.42241
G0 F10500 X141.928 Y27.965
;TYPE:WALL-OUTER
G1 F540 X141.928 Y23.868 E1629.54443
G1 X149.642 Y23.868 E1629.77418
G1 X149.642 Y27.965 E1629.89620
G1 X141.928 Y27.965 E1630.12595
G0 F10500 X142.769 Y27.290
;TYPE:SKIN
G1 F960 X142.910 Y26.794 E1630.14487
G1 X142.910 Y26.087 E1630.17077
G1 X142.910 Y25.380 E1630.19667
G1 X142.952 Y24.630 E1630.22258
G1 X142.602 Y24.627 E1630.23301
G1 F600 E1628.73301
G1 Z6.985
G0 F10500 X142.428 Y132.574
;TYPE:WALL-INNER
G1 Z6.885
G1 F600 E1630.23301
G1 F660 X149.142 Y132.574 E1630.43297
G1 X149.142 Y135.671 E1630.52521
G1 X142.428 Y135.671 E1630.72518
G1 X142.428 Y132.574 E1630.81742
G0 F10500 X141.928 Y132.074
;TYPE:WALL-OUTER
G1 F540 X149.642 Y132.074 E1631.04716
G1 X149.642 Y136.171 E1631.16919
G1 X141.928 Y136.171 E1631.39894
G1 X141.928 Y132.074 E1631.52096
G0 F10500 X142.278 Y132.334
G0 X143.218 Y132.906
;TYPE:SKIN
G1 F960 X142.910 Y133.567 E1631.54689
G1 X142.910 Y134.275 E1631.57283
G1 X142.676 Y135.216 E1631.59876
G1 X143.218 Y135.027 E1631.61586
;LAYER:18
G1 F600 E1630.11586
G1 Z6.985
G0 F10500 X142.667 Y27.465 Z7.265
;TYPE:WALL-INNER
G1 Z7.265
G1 F600 E1631.61586
G1 F660 X142.667 Y24.368 E1631.70810
G1 X149.099 Y24.368 E1631.89966
G1 X149.099 Y27.465 E1631.99190
G1 X142.667 Y27.465 E1632.18347
G0 F10500 X142.167 Y27.965
;TYPE:WALL-OUTER
G1 F540 X142.167 Y23.868 E1632.30549
G1 X149.599 Y23.868 E1632.52684
G1 X149.599 Y27.965 E1632.64886
G1 X142.167 Y27.965 E1632.87021
G0 F10500 X142.427 Y27.615
G0 X143.459 Y27.140
;TYPE:SKIN
G1 F960 X143.150 Y26.477 E1632.89623
G1 X143.150 Y25.770 E1632.92221
G1 X142.912 Y24.824 E1632.94824
G1 X143.459 Y25.019 E1632.96554
G1 F600 E1631.46554
G1 Z7.365
G0 F10500 X142.667 Y132.574
;TYPE:WALL-INNER
G1 Z7.265
G1 F600 E1632.96554
G1 F660 X149.099 Y132.574 E1633.15710
G1 X149.099 Y135.671 E1633.24934
G1 X142.667 Y135.671 E1633.44091
G1 X142.667 Y132.574 E1633.53315
G0 F10500 X142.167 Y132.074
;TYPE:WALL-OUTER
G1 F540 X149.599 Y132.074 E1633.75450
G1 X149.599 Y136.171 E1633.87652
G1 X142.167 Y136.171 E1634.09787
G1 X142.167 Y132.074 E1634.21989
G0 F10500 X143.002 Y132.749
;TYPE:SKIN
G1 F960 X143.150 Y133.250 E1634.23913
G1 X143.150 Y133.957 E1634.26511
G1 X143.150 Y134.664 E1634.29109
G1 X143.189 Y135.411 E1634.31707
G1 X142.841 Y135.416 E1634.32744
;LAYER:19
G1 F600 E1632.82744
G1 Z7.365
G0 F10500 X142.906 Y27.465 Z7.645
;TYPE:WALL-INNER
G1 Z7.645
G1 F600 E1634.32744
G1 F660 X142.906 Y24.368 E1634.41968
G1 X149.056 Y24.368 E1634.60284
G1 X149.056 Y27.465 E1634.69508
G1 X142.906 Y27.465 E1634.87825
G0 F10500 X142.406 Y27.965
;TYPE:WALL-OUTER
G1 F540 X142.406 Y23.868 E1635.00027
G1 X149.556 Y23.868 E1635.21322
G1 X149.556 Y27.965 E1635.33525
G1 X142.406 Y27.965 E1635.54820
G0 F10500 X143.080 Y26.978
;TYPE:SKIN
G1 F960 X143.389 Y26.315 E1635.57421
G1 X143.389 Y25.608 E1635.60019
G1 X143.546 Y24.744 E1635.62619
G1 X143.080 Y24.856 E1635.64047
G0 F10500 X143.698 Y27.068
G1 F960 X143.476 Y27.290 E1635.64982
G1 F600 E1634.14982
G1 Z7.745
G0 F10500 X142.906 Y132.574
;TYPE:WALL-INNER
G1 Z7.645
G1 F600 E1635.64982
G1 F660 X149.056 Y132.574 E1635.83298
G1 X149.056 Y135.671 E1635.92522
G1 X142.906 Y135.671 E1636.10839
G1 X142.906 Y132.574 E1636.20063
G0 F10500 X142.406 Y132.074
;TYPE:WALL-OUTER
G1 F540 X149.556 Y132.074 E1636.41358
G1 X149.556 Y136.171 E1636.53560
G1 X142.406 Y136.171 E1636.74855
G1 X142.406 Y132.074 E1636.87058
G0 F10500 X143.375 Y132.749
;TYPE:SKIN
G1 F960 X143.389 Y133.089 E1636.88300
G1 X143.389 Y133.796 E1636.90899
G1 X143.389 Y134.503 E1636.93497
G1 X143.268 Y135.330 E1636.96096
G1 X143.698 Y135.255 E1636.97396
;LAYER:20
G1 F600 E1635.47396
G1 Z7.745
G0 F10500 X143.145 Y27.465 Z8.025
;TYPE:WALL-INNER
G1 Z8.025
G1 F600 E1636.97396
G1 F660 X143.145 Y24.368 E1637.06620
G1 X149.013 Y24.368 E1637.24097
G1 X149.013 Y27.465 E1637.33321
G1 X143.145 Y27.465 E1637.50798
G0 F10500 X142.645 Y27.965
;TYPE:WALL-OUTER
G1 F540 X142.645 Y23.868 E1637.63000
G1 X149.513 Y23.868 E1637.83455
G1 X149.513 Y27.965 E1637.95657
G1 X142.645 Y27.965 E1638.16112
G0 F10500 X143.609 Y27.290
;TYPE:SKIN
G1 F960 X143.628 Y26.955 E1638.17334
G1 X143.628 Y26.248 E1638.19932
G1 X143.628 Y25.541 E1638.22535
G1 X143.504 Y24.710 E1638.25137
G1 X143.937 Y24.790 E1638.26449
G1 F600 E1636.76449
G1 Z8.125
G0 F10500 X143.145 Y132.574
;TYPE:WALL-INNER
G1 Z8.025
G1 F600 E1638.26449
G1 F660 X149.013 Y132.574 E1638.43926
G1 X149.013 Y135.671 E1638.53149
G1 X143.145 Y135.671 E1638.70626
G1 X143.145 Y132.574 E1638.79850
G0 F10500 X142.645 Y132.074
;TYPE:WALL-OUTER
G1 F540 X149.513 Y132.074 E1639.00306
G1 X149.513 Y136.171 E1639.12508
G1 X142.645 Y136.171 E1639.32963
G1 X142.645 Y132.074 E1639.45165
G0 F10500 X143.319 Y133.066
;TYPE:SKIN
G1 F960 X143.628 Y133.728 E1639.47763
G1 X143.628 Y134.435 E1639.50362
G1 X143.782 Y135.296 E1639.52961
G1 X143.319 Y135.187 E1639.54378
G0 F10500 X143.937 Y132.977
G1 F960 X143.709 Y132.749 E1639.55338
;LAYER:21
G1 F600 E1638.05338
G1 Z8.125
G0 F10500 X143.385 Y27.465 Z8.405
;TYPE:WALL-INNER
G1 Z8.405
G1 F600 E1639.55338
G1 F660 X143.385 Y24.368 E1639.64562
G1 X148.969 Y24.368 E1639.81193
G1 X148.969 Y27.465 E1639.90417
G1 X143.385 Y27.465 E1640.07048
G0 F10500 X142.885 Y27.965
;TYPE:WALL-OUTER
G1 F540 X142.885 Y23.868 E1640.19251
G1 X149.469 Y23.868 E1640.38860
G1 X149.469 Y27.965 E1640.51062
G1 X142.885 Y27.965 E1640.70672
G0 F10500 X143.559 Y27.206
;TYPE:SKIN
G1 F960 X143.867 Y26.544 E1640.73264
G1 X143.867 Y25.837 E1640.75858
G1 X143.867 Y25.130 E1640.78452
G1 X144.101 Y24.542 E1640.80337
G1 F600 E1639.30337
G1 Z8.505
G0 F10500 X143.385 Y132.574
;TYPE:WALL-INNER
G1 Z8.405
G1 F600 E1640.80337
G1 F660 X148.969 Y132.574 E1640.96968
G1 X148.969 Y135.671 E1641.06192
G1 X143.385 Y135.671 E1641.22823
G1 X143.385 Y132.574 E1641.32047
G0 F10500 X142.885 Y132.074
;TYPE:WALL-OUTER
G1 F540 X149.469 Y132.074 E1641.51656
G1 X149.469 Y136.171 E1641.63859
G1 X142.885 Y136.171 E1641.83468
G1 X142.885 Y132.074 E1641.95670
G0 F10500 X143.559 Y133.272
;TYPE:SKIN
G1 F960 X144.129 Y133.055 E1641.97879
G1 X143.867 Y134.024 E1642.00474
G1 X143.867 Y134.731 E1642.03064
G1 X143.559 Y135.393 E1642.05239
;LAYER:22
G1 F600 E1640.55239
G1 Z8.505
G0 F10500 X143.624 Y27.465 Z8.785
;TYPE:WALL-INNER
G1 Z8.785
G1 F600 E1642.05239
G1 F660 X143.624 Y24.368 E1642.14463
G1 X148.926 Y24.368 E1642.30254
G1 X148.926 Y27.465 E1642.39478
G1 X143.624 Y27.465 E1642.55269
G0 F10500 X143.124 Y27.965
;TYPE:WALL-OUTER
G1 F540 X143.124 Y23.868 E1642.67471
G1 X149.426 Y23.868 E1642.86241
G1 X149.426 Y27.965 E1642.98443
G1 X143.124 Y27.965 E1643.17212
G0 F10500 X144.316 Y27.290
;TYPE:SKIN
G1 F960 X144.106 Y26.727 E1643.19396
G1 X144.106 Y26.020 E1643.21998
G1 X144.106 Y25.313 E1643.24601
G1 X143.797 Y24.650 E1643.26779
G1 F600 E1641.76779
G1 Z8.885
G0 F10500 X143.624 Y132.574
;TYPE:WALL-INNER
G1 Z8.785
G1 F600 E1643.26779
G1 F660 X148.926 Y132.574 E1643.42571
G1 X148.926 Y135.671 E1643.51795
G1 X143.624 Y135.671 E1643.67586
G1 X143.624 Y132.574 E1643.76810
G0 F10500 X143.124 Y132.074
;TYPE:WALL-OUTER
G1 F540 X149.426 Y132.074 E1643.95579
G1 X149.426 Y136.171 E1644.07781
G1 X143.124 Y136.171 E1644.26551
G1 X143.124 Y132.074 E1644.38753
G0 F10500 X143.797 Y132.837
;TYPE:SKIN
G1 F960 X144.106 Y133.500 E1644.41359
G1 X144.106 Y134.207 E1644.43961
G1 X144.106 Y134.914 E1644.46564
G1 X144.334 Y135.495 E1644.48423
;LAYER:23
G1 F600 E1642.98423
G1 Z8.885
G0 F10500 X143.863 Y27.465 Z9.165
;TYPE:WALL-INNER
G1 Z9.165
G1 F600 E1644.48423
G1 F660 X143.863 Y24.368 E1644.57647
G1 X148.883 Y24.368 E1644.72598
G1 X148.883 Y27.465 E1644.81822
G1 X143.863 Y27.465 E1644.96773
G0 F10500 X143.363 Y27.965
;TYPE:WALL-OUTER
G1 F540 X143.363 Y23.868 E1645.08975
G1 X149.383 Y23.868 E1645.26905
G1 X149.383 Y27.965 E1645.39107
G1 X143.363 Y27.965 E1645.57037
G0 F10500 X144.183 Y27.290
;TYPE:SKIN
G1 F960 X144.345 Y26.773 E1645.59022
G1 X144.345 Y26.066 E1645.61616
G1 X144.345 Y25.359 E1645.64210
G1 X144.654 Y24.697 E1645.66386
G1 F600 E1644.16386
G1 Z9.265
G0 F10500 X143.863 Y132.574
;TYPE:WALL-INNER
G1 Z9.165
G1 F600 E1645.66386
G1 F660 X148.883 Y132.574 E1645.81337
G1 X148.883 Y135.671 E1645.90561
G1 X143.863 Y135.671 E1646.05512
G1 X143.863 Y132.574 E1646.14736
G0 F10500 X143.363 Y132.074
;TYPE:WALL-OUTER
G1 F540 X149.383 Y132.074 E1646.32666
G1 X149.383 Y136.171 E1646.44868
G1 X143.363 Y136.171 E1646.62798
G1 X143.363 Y132.074 E1646.75000
G0 F10500 X143.713 Y132.334
G0 X144.654 Y132.884
;TYPE:SKIN
G1 F960 X144.345 Y133.546 E1646.77598
G1 X144.345 Y134.253 E1646.80192
G1 X144.100 Y135.205 E1646.82786
G1 X144.654 Y135.005 E1646.84540
;LAYER:24
G1 F600 E1645.34540
G1 Z9.265
G0 F10500 X144.102 Y27.465 Z9.545
;TYPE:WALL-INNER
G1 Z9.545
G1 F600 E1646.84540
G1 F660 X144.102 Y24.368 E1646.93764
G1 X148.840 Y24.368 E1647.07876
G1 X148.840 Y27.465 E1647.17100
G1 X144.102 Y27.465 E1647.31211
G0 F10500 X143.602 Y27.965
;TYPE:WALL-OUTER
G1 F540 X143.602 Y23.868 E1647.43413
G1 X149.340 Y23.868 E1647.60503
G1 X149.340 Y27.965 E1647.72705
G1 X143.602 Y27.965 E1647.89795
G0 F10500 X143.862 Y27.615
G0 X144.894 Y27.161
;TYPE:SKIN
G1 F960 X144.584 Y26.498 E1647.92402
G1 X144.584 Y25.791 E1647.95004
G1 X144.336 Y24.835 E1647.97611
G1 X144.894 Y25.040 E1647.99381
G1 F600 E1646.49381
G1 Z9.645
G0 F10500 X144.102 Y132.574
;TYPE:WALL-INNER
G1 Z9.545
G1 F600 E1647.99381
G1 F660 X148.840 Y132.574 E1648.13493
G1 X148.840 Y135.671 E1648.22716
G1 X144.102 Y135.671 E1648.36828
G1 X144.102 Y132.574 E1648.46052
G0 F10500 X143.602 Y132.074
;TYPE:WALL-OUTER
G1 F540 X149.340 Y132.074 E1648.63141
G1 X149.340 Y136.171 E1648.75344
G1 X143.602 Y136.171 E1648.92433
G1 X143.602 Y132.074 E1649.04636
G0 F10500 X144.415 Y132.748
;TYPE:SKIN
G1 F960 X144.584 Y133.271 E1649.06652
G1 X144.584 Y133.978 E1649.09255
G1 X144.584 Y134.685 E1649.11858
G1 X144.894 Y135.348 E1649.14038
;LAYER:25
G1 F600 E1647.64038
G1 Z9.645
G0 F10500 X144.342 Y27.465 Z9.925
;TYPE:WALL-INNER
G1 Z9.925
G1 F600 E1649.14038
G1 F660 X144.342 Y24.368 E1649.23261
G1 X148.796 Y24.368 E1649.36527
G1 X148.796 Y27.465 E1649.45751
G1 X144.342 Y27.465 E1649.59016
G0 F10500 X143.842 Y27.965
;TYPE:WALL-OUTER
G1 F540 X143.842 Y23.868 E1649.71219
G1 X149.296 Y23.868 E1649.87462
G1 X149.296 Y27.965 E1649.99665
G1 X143.842 Y27.965 E1650.15909
G0 F10500 X144.516 Y26.957
;TYPE:SKIN
G1 F960 X144.824 Y26.294 E1650.18500
G1 X144.824 Y25.587 E1650.21090
G1 X144.970 Y24.734 E1650.23683
G1 X144.516 Y24.835 E1650.25068
G0 F10500 X145.132 Y27.047
G1 F960 X144.890 Y27.290 E1650.26089
G1 F600 E1648.76089
G1 Z10.025
G0 F10500 X144.342 Y132.574
;TYPE:WALL-INNER
G1 Z9.925
G1 F600 E1650.26089
G1 F660 X148.796 Y132.574 E1650.39355
G1 X148.796 Y135.671 E1650.48579
G1 X144.342 Y135.671 E1650.61844
G1 X144.342 Y132.574 E1650.71068
G0 F10500 X143.842 Y132.074
;TYPE:WALL-OUTER
G1 F540 X149.296 Y132.074 E1650.87312
G1 X149.296 Y136.171 E1650.99514
G1 X143.842 Y136.171 E1651.15758
G1 X143.842 Y132.074 E1651.27960
G0 F10500 X144.790 Y132.748
;TYPE:SKIN
G1 F960 X144.824 Y133.068 E1651.29118
G1 X144.824 Y133.775 E1651.31708
G1 X144.824 Y134.482 E1651.34298
G1 X144.693 Y135.320 E1651.36890
G1 X145.132 Y135.234 E1651.38222
;LAYER:26
G1 F600 E1649.88222
G1 Z10.025
G0 F10500 X144.581 Y27.465 Z10.305
;TYPE:WALL-INNER
G1 Z10.305
G1 F600 E1651.38222
G1 F660 X144.581 Y24.368 E1651.47446
G1 X148.753 Y24.368 E1651.59872
G1 X148.753 Y27.465 E1651.69096
G1 X144.581 Y27.465 E1651.81521
G0 F10500 X144.081 Y27.965
;TYPE:WALL-OUTER
G1 F540 X144.081 Y23.868 E1651.93724
G1 X149.253 Y23.868 E1652.09127
G1 X149.253 Y27.965 E1652.21330
G1 X144.081 Y27.965 E1652.36734
G0 F10500 X145.022 Y27.289
;TYPE:SKIN
G1 F960 X145.064 Y26.977 E1652.37859
G1 X145.064 Y26.269 E1652.40457
G1 X145.064 Y25.562 E1652.43055
G1 X144.929 Y24.721 E1652.45653
G1 X145.373 Y24.811 E1652.47002
G1 F600 E1650.97002
G1 Z10.405
G0 F10500 X144.581 Y132.574
;TYPE:WALL-INNER
G1 Z10.305
G1 F600 E1652.47002
G1 F660 X148.753 Y132.574 E1652.59428
G1 X148.753 Y135.671 E1652.68652
G1 X144.581 Y135.671 E1652.81077
G1 X144.581 Y132.574 E1652.90301
G0 F10500 X144.081 Y132.074
;TYPE:WALL-OUTER
G1 F540 X149.253 Y132.074 E1653.05705
G1 X149.253 Y136.171 E1653.17907
G1 X144.081 Y136.171 E1653.33311
G1 X144.081 Y132.074 E1653.45514
G0 F10500 X144.755 Y133.088
;TYPE:SKIN
G1 F960 X145.064 Y133.750 E1653.48112
G1 X145.064 Y134.457 E1653.50710
G1 X145.207 Y135.308 E1653.53311
G1 X144.755 Y135.209 E1653.54689
G0 F10500 X145.373 Y132.999
G1 F960 X145.123 Y132.748 E1653.55744
;LAYER:27
G1 F600 E1652.05744
G1 Z10.405
G0 F10500 X144.820 Y27.465 Z10.685
;TYPE:WALL-INNER
G1 Z10.685
G1 F600 E1653.55744
G1 F660 X144.820 Y24.368 E1653.64968
G1 X148.710 Y24.368 E1653.76554
G1 X148.710 Y27.465 E1653.85778
G1 X144.820 Y27.465 E1653.97364
G0 F10500 X144.320 Y27.965
;TYPE:WALL-OUTER
G1 F540 X144.320 Y23.868 E1654.09566
G1 X149.210 Y23.868 E1654.24130
G1 X149.210 Y27.965 E1654.36332
G1 X144.320 Y27.965 E1654.50896
G0 F10500 X144.994 Y27.186
;TYPE:SKIN
G1 F960 X145.302 Y26.523 E1654.53496
G1 X145.302 Y25.816 E1654.56094
G1 X145.563 Y24.848 E1654.58692
G1 X144.994 Y25.064 E1654.60505
G1 F600 E1653.10505
G1 Z10.785
G0 F10500 X144.820 Y132.574
;TYPE:WALL-INNER
G1 Z10.685
G1 F600 E1654.60505
G1 F660 X148.710 Y132.574 E1654.72091
G1 X148.710 Y135.671 E1654.81314
G1 X144.820 Y135.671 E1654.92900
G1 X144.820 Y132.574 E1655.02124
G0 F10500 X144.320 Y132.074
;TYPE:WALL-OUTER
G1 F540 X149.210 Y132.074 E1655.16688
G1 X149.210 Y136.171 E1655.28890
G1 X144.320 Y136.171 E1655.43454
G1 X144.320 Y132.074 E1655.55657
G0 F10500 X145.497 Y132.748
;TYPE:SKIN
G1 F960 X145.303 Y133.296 E1655.57776
G1 X145.303 Y134.003 E1655.60374
G1 X145.303 Y134.710 E1655.62973
G1 X144.994 Y135.373 E1655.65151
;LAYER:28
G1 F600 E1654.15151
G1 Z10.785
G0 F10500 X145.059 Y27.465 Z11.065
;TYPE:WALL-INNER
G1 Z11.065
G1 F600 E1655.65151
G1 F660 X145.059 Y24.368 E1655.74375
G1 X148.667 Y24.368 E1655.85121
G1 X148.667 Y27.465 E1655.94345
G1 X145.059 Y27.465 E1656.05091
G0 F10500 X144.559 Y27.965
;TYPE:WALL-OUTER
G1 F540 X144.559 Y23.868 E1656.17293
G1 X149.167 Y23.868 E1656.31017
G1 X149.167 Y27.965 E1656.43220
G1 X144.559 Y27.965 E1656.56944
G0 F10500 X145.729 Y27.289
;TYPE:SKIN
G1 F960 X145.541 Y26.747 E1656.59035
G1 X145.541 Y26.040 E1656.61633
G1 X145.541 Y25.333 E1656.64232
G1 X145.233 Y24.671 E1656.66407
G1 F600 E1655.16407
G1 Z11.165
G0 F10500 X145.059 Y132.574
;TYPE:WALL-INNER
G1 Z11.065
G1 F600 E1656.66407
G1 F660 X148.667 Y132.574 E1656.77152
G1 X148.667 Y135.671 E1656.86376
G1 X145.059 Y135.671 E1656.97122
G1 X145.059 Y132.574 E1657.06346
G0 F10500 X144.559 Y132.074
;TYPE:WALL-OUTER
G1 F540 X149.167 Y132.074 E1657.20070
G1 X149.167 Y136.171 E1657.32272
G1 X144.559 Y136.171 E1657.45997
G1 X144.559 Y132.074 E1657.58199
G0 F10500 X145.233 Y132.859
;TYPE:SKIN
G1 F960 X145.541 Y133.521 E1657.60795
G1 X145.542 Y134.228 E1657.63394
G1 X145.800 Y135.193 E1657.65994
G1 X145.233 Y134.980 E1657.67798
;LAYER:29
G1 F600 E1656.17798
G1 Z11.165
G0 F10500 X145.299 Y27.465 Z11.445
;TYPE:WALL-INNER
G1 Z11.445
G1 F600 E1657.67798
G1 F660 X145.299 Y24.368 E1657.77022
G1 X148.623 Y24.368 E1657.86922
G1 X148.623 Y27.465 E1657.96146
G1 X145.299 Y27.465 E1658.06046
G0 F10500 X144.799 Y27.965
;TYPE:WALL-OUTER
G1 F540 X144.799 Y23.868 E1658.18248
G1 X149.123 Y23.868 E1658.31126
G1 X149.123 Y27.965 E1658.43329
G1 X144.799 Y27.965 E1658.56207
G0 F10500 X145.597 Y27.290
;TYPE:SKIN
G1 F960 X145.780 Y26.752 E1658.58275
G1 X145.780 Y26.045 E1658.60861
G1 X145.780 Y25.338 E1658.63447
G1 X146.088 Y24.677 E1658.65619
G1 F600 E1657.15619
G1 Z11.545
G0 F10500 X145.299 Y132.574
;TYPE:WALL-INNER
G1 Z11.445
G1 F600 E1658.65619
G1 F660 X148.623 Y132.574 E1658.75519
G1 X148.623 Y135.671 E1658.84743
G1 X145.299 Y135.671 E1658.94643
G1 X145.299 Y132.574 E1659.03866
G0 F10500 X144.799 Y132.074
;TYPE:WALL-OUTER
G1 F540 X149.123 Y132.074 E1659.16745
G1 X149.123 Y136.171 E1659.28947
G1 X144.799 Y136.171 E1659.41825
G1 X144.799 Y132.074 E1659.54028
G0 F10500 X145.149 Y132.334
G0 X146.088 Y132.864
;TYPE:SKIN
G1 F960 X145.780 Y133.525 E1659.56617
G1 X145.781 Y134.232 E1659.59207
G1 X145.525 Y135.195 E1659.61800
G1 X146.089 Y134.985 E1659.63593
;LAYER:30
G1 F600 E1658.13593
G1 Z11.545
G0 F10500 X145.538 Y27.465 Z11.825
;TYPE:WALL-INNER
G1 Z11.825
G1 F600 E1659.63593
G1 F660 X145.538 Y24.368 E1659.72817
G1 X148.580 Y24.368 E1659.81877
G1 X148.581 Y27.282 E1659.90556
G1 X148.581 Y27.465 E1659.91101
G1 X145.538 Y27.465 E1660.00164
G0 F10500 X145.038 Y27.965
;TYPE:WALL-OUTER
G1 F540 X145.038 Y23.868 E1660.12366
G1 X149.080 Y23.868 E1660.24405
G1 X149.080 Y27.965 E1660.36607
G1 X145.038 Y27.965 E1660.48645
G0 F10500 X145.298 Y27.615
G0 X146.330 Y27.182
;TYPE:SKIN
G1 F960 X146.021 Y26.519 E1660.51246
G1 X146.021 Y25.812 E1660.53845
G1 X145.761 Y24.846 E1660.56443
G1 X146.330 Y25.061 E1660.58255
G1 F600 E1659.08255
G1 Z11.925
G0 F10500 X145.538 Y132.574
;TYPE:WALL-INNER
G1 Z11.825
G1 F600 E1660.58255
G1 F660 X148.580 Y132.574 E1660.67315
G1 X148.581 Y135.488 E1660.75994
G1 X148.581 Y135.671 E1660.76539
G1 X145.538 Y135.671 E1660.85602
G1 X145.538 Y132.574 E1660.94826
G0 F10500 X145.038 Y132.074
;TYPE:WALL-OUTER
G1 F540 X149.080 Y132.074 E1661.06864
G1 X149.080 Y136.171 E1661.19066
G1 X145.038 Y136.171 E1661.31105
G1 X145.038 Y132.074 E1661.43307
G0 F10500 X145.830 Y132.749
;TYPE:SKIN
G1 F960 X146.021 Y133.292 E1661.45409
G1 X146.021 Y133.999 E1661.48007
G1 X146.021 Y134.706 E1661.50606
G1 X146.330 Y135.369 E1661.52784
;LAYER:31
G1 F600 E1660.02784
G1 Z11.925
G0 F10500 X145.777 Y27.465 Z12.205
;TYPE:WALL-INNER
G1 Z12.205
G1 F600 E1661.52784
G1 F660 X145.776 Y24.540 E1661.61496
G1 X145.776 Y24.368 E1661.62008
G1 X148.537 Y24.368 E1661.70231
G1 X148.538 Y27.410 E1661.79291
G1 X148.538 Y27.465 E1661.79455
G1 X145.777 Y27.465 E1661.87678
G0 F10500 X145.277 Y27.965
;TYPE:WALL-OUTER
G1 F540 X145.277 Y23.868 E1661.99881
G1 X149.037 Y23.868 E1662.11079
G1 X149.037 Y27.965 E1662.23281
G1 X145.277 Y27.965 E1662.34480
G0 F10500 X146.304 Y27.290
;TYPE:SKIN
G1 F960 X146.259 Y26.981 E1662.35590
G1 X146.259 Y26.274 E1662.38185
G1 X146.259 Y25.567 E1662.40779
G1 X146.395 Y24.723 E1662.43376
G1 X145.951 Y24.815 E1662.44726
G1 F600 E1660.94726
G1 Z12.305
G0 F10500 X145.776 Y132.574
;TYPE:WALL-INNER
G1 Z12.205
G1 F600 E1662.44726
G1 F660 X148.537 Y132.574 E1662.52950
G1 X148.538 Y135.616 E1662.62010
G1 X148.538 Y135.671 E1662.62173
G1 X145.777 Y135.671 E1662.70397
G1 X145.776 Y132.746 E1662.79108
G1 X145.776 Y132.574 E1662.79621
G0 F10500 X145.277 Y132.074
;TYPE:WALL-OUTER
G1 F540 X149.037 Y132.074 E1662.90819
G1 X149.037 Y136.171 E1663.03021
G1 X145.277 Y136.171 E1663.14220
G1 X145.277 Y132.074 E1663.26422
G0 F10500 X146.204 Y132.748
;TYPE:SKIN
G1 F960 X146.259 Y133.047 E1663.27487
G1 X146.259 Y133.754 E1663.30081
G1 X146.259 Y134.461 E1663.32675
G1 X146.118 Y135.309 E1663.35272
G1 X146.568 Y135.213 E1663.36642
;LAYER:32
G1 F600 E1661.86642
G1 Z12.305
G0 F10500 X146.016 Y27.465 Z12.585
;TYPE:WALL-INNER
G1 Z12.585
G1 F600 E1663.36642
G1 F660 X146.015 Y24.417 E1663.45720
G1 X146.015 Y24.368 E1663.45866
G1 X148.494 Y24.368 E1663.53249
G1 X148.495 Y27.465 E1663.62473
G1 X146.016 Y27.465 E1663.69856
G0 F10500 X145.516 Y27.965
;TYPE:WALL-OUTER
G1 F540 X145.516 Y23.868 E1663.82059
G1 X148.994 Y23.868 E1663.92417
G1 X148.994 Y27.965 E1664.04620
G1 X145.516 Y27.965 E1664.14978
G0 F10500 X146.437 Y27.290
;TYPE:SKIN
G1 F960 X146.498 Y26.997 E1664.16023
G1 X146.498 Y26.290 E1664.18626
G1 X146.498 Y25.583 E1664.21228
G1 X146.353 Y24.731 E1664.23833
G1 X146.808 Y24.832 E1664.25221
G1 F600 E1662.75221
G1 Z12.685
G0 F10500 X146.015 Y132.574
;TYPE:WALL-INNER
G1 Z12.585
G1 F600 E1664.25221
G1 F660 X148.494 Y132.574 E1664.32604
G1 X148.495 Y135.671 E1664.41828
G1 X146.016 Y135.671 E1664.49212
G1 X146.015 Y132.623 E1664.58290
G1 X146.015 Y132.574 E1664.58436
G0 F10500 X145.516 Y132.074
;TYPE:WALL-OUTER
G1 F540 X148.994 Y132.074 E1664.68794
G1 X148.994 Y136.171 E1664.80997
G1 X145.516 Y136.171 E1664.91355
G1 X145.516 Y132.074 E1665.03557
G0 F10500 X146.537 Y132.748
;TYPE:SKIN
G1 F960 X146.498 Y133.063 E1665.04699
G1 X146.498 Y133.770 E1665.07302
G1 X146.498 Y134.477 E1665.09905
G1 X146.631 Y135.317 E1665.12509
G1 X146.189 Y135.229 E1665.13851
;LAYER:33
G1 F600 E1663.63851
G1 Z12.685
G0 F10500 X146.256 Y27.465 Z12.965
;TYPE:WALL-INNER
G1 Z12.965
G1 F600 E1665.13851
G1 F660 X146.255 Y24.368 E1665.23075
G1 X148.450 Y24.368 E1665.29612
G1 X148.451 Y27.465 E1665.38836
G1 X146.256 Y27.465 E1665.45374
G0 F10500 X145.756 Y27.965
;TYPE:WALL-OUTER
G1 F540 X145.756 Y23.868 E1665.57576
G1 X148.950 Y23.868 E1665.67089
G1 X148.950 Y27.965 E1665.79291
G1 X145.756 Y27.965 E1665.88804
G0 F10500 X146.430 Y27.164
;TYPE:SKIN
G1 F960 X146.738 Y26.501 E1665.91403
G1 X146.738 Y25.794 E1665.94002
G1 X146.988 Y24.837 E1665.96600
G1 X146.430 Y25.042 E1665.98371
G1 F600 E1664.48371
G1 Z13.065
G0 F10500 X146.255 Y132.574
;TYPE:WALL-INNER
G1 Z12.965
G1 F600 E1665.98371
G1 F660 X148.450 Y132.574 E1666.04908
G1 X148.451 Y135.671 E1666.14132
G1 X146.256 Y135.671 E1666.20669
G1 X146.255 Y132.574 E1666.29893
G0 F10500 X145.756 Y132.074
;TYPE:WALL-OUTER
G1 F540 X148.950 Y132.074 E1666.39406
G1 X148.950 Y136.171 E1666.51608
G1 X145.756 Y136.171 E1666.61121
G1 X145.756 Y132.074 E1666.73323
G0 F10500 X146.429 Y133.230
;TYPE:SKIN
G1 F960 X146.979 Y133.034 E1666.75351
G1 X146.738 Y133.982 E1666.77950
G1 X146.738 Y134.689 E1666.80544
G1 X146.430 Y135.351 E1666.82719
;LAYER:34
G1 F600 E1665.32719
G1 Z13.065
G0 F10500 X146.495 Y27.465 Z13.345
;TYPE:WALL-INNER
G1 Z13.345
G1 F600 E1666.82719
G1 F660 X146.494 Y24.368 E1666.91943
G1 X148.407 Y24.368 E1666.97640
G1 X148.408 Y27.465 E1667.06864
G1 X146.495 Y27.465 E1667.12562
G0 F10500 X145.995 Y27.965
;TYPE:WALL-OUTER
G1 F540 X145.995 Y23.868 E1667.24764
G1 X148.907 Y23.868 E1667.33437
G1 X148.907 Y27.965 E1667.45639
G1 X145.995 Y27.965 E1667.54312
G0 F10500 X147.144 Y27.290
;TYPE:SKIN
G1 F960 X146.977 Y26.769 E1667.56316
G1 X146.977 Y26.062 E1667.58919
G1 X146.977 Y25.355 E1667.61521
G1 X146.668 Y24.692 E1667.63700
G1 F600 E1666.13700
G1 Z13.445
G0 F10500 X146.494 Y132.574
;TYPE:WALL-INNER
G1 Z13.345
G1 F600 E1667.63700
G1 F660 X148.407 Y132.574 E1667.69398
G1 X148.408 Y135.671 E1667.78621
G1 X146.495 Y135.671 E1667.84319
G1 X146.494 Y132.574 E1667.93543
G0 F10500 X145.995 Y132.074
;TYPE:WALL-OUTER
G1 F540 X148.907 Y132.074 E1668.02216
G1 X148.907 Y136.171 E1668.14418
G1 X145.995 Y136.171 E1668.23091
G1 X145.995 Y132.074 E1668.35293
G0 F10500 X146.668 Y132.879
;TYPE:SKIN
G1 F960 X146.977 Y133.542 E1668.37894
G1 X146.977 Y134.250 E1668.40501
G1 X147.225 Y135.204 E1668.43108
G1 X146.668 Y135.001 E1668.44873
;LAYER:35
G1 F600 E1666.94873
G1 Z13.445
G0 F10500 X146.734 Y27.465 Z13.725
;TYPE:WALL-INNER
G1 Z13.725
G1 F600 E1668.44873
G1 F660 X146.733 Y24.368 E1668.54097
G1 X148.364 Y24.368 E1668.58955
G1 X148.365 Y27.465 E1668.68179
G1 X146.734 Y27.465 E1668.73037
G0 F10500 X146.234 Y27.965
;TYPE:WALL-OUTER
G1 F540 X146.234 Y23.868 E1668.85239
G1 X148.864 Y23.868 E1668.93072
G1 X148.864 Y27.965 E1669.05274
G1 X146.234 Y27.965 E1669.13107
G0 F10500 X146.494 Y27.615
G0 X147.380 Y26.920
;TYPE:SKIN
G1 F960 X148.188 Y26.113 E1669.16508
G0 F10500 X148.189 Y26.819
G1 F960 X147.718 Y27.290 E1669.18492
G0 F10500 X147.380 Y26.213
G1 F960 X148.187 Y25.407 E1669.21889
G0 F10500 X148.187 Y24.699
G1 F960 X147.380 Y25.506 E1669.25288
G0 F10500 X147.380 Y24.799
G1 F960 X147.637 Y24.542 E1669.26371
G1 F600 E1667.76371
G1 Z13.825
G0 F10500 X148.364 Y132.574
;TYPE:WALL-INNER
G1 Z13.725
G1 F600 E1669.26371
G1 F660 X148.365 Y135.671 E1669.35595
G1 X146.734 Y135.671 E1669.40452
G1 X146.733 Y132.574 E1669.49676
G1 X148.364 Y132.574 E1669.54534
G0 F10500 X148.864 Y132.074
;TYPE:WALL-OUTER
G1 F540 X148.864 Y136.171 E1669.66736
G1 X146.234 Y136.171 E1669.74569
G1 X146.234 Y132.074 E1669.86771
G1 X148.864 Y132.074 E1669.94604
G0 F10500 X148.188 Y132.886
;TYPE:SKIN
G1 F960 X147.380 Y133.694 E1669.98008
G0 F10500 X147.380 Y134.401
G1 F960 X148.188 Y133.593 E1670.01411
G0 F10500 X148.189 Y134.300
G1 F960 X147.380 Y135.109 E1670.04819
G0 F10500 X147.699 Y135.496
G1 F960 X148.189 Y135.007 E1670.06880
G0 F10500 X147.380 Y132.987
G1 F960 X147.619 Y132.748 E1670.07887
;LAYER:36
G1 F600 E1668.57887
G1 Z13.825
G0 F10500 X146.974 Y27.465 Z14.105
;TYPE:WALL-INNER
G1 Z14.105
G1 F600 E1670.07887
G1 F660 X146.973 Y24.368 E1670.17111
G1 X148.321 Y24.368 E1670.21126
G1 X148.322 Y27.465 E1670.30350
G1 X146.974 Y27.465 E1670.34364
G0 F10500 X146.474 Y27.965
;TYPE:WALL-OUTER
G1 F540 X146.474 Y23.868 E1670.46567
G1 X148.821 Y23.868 E1670.53557
G1 X148.822 Y27.965 E1670.65759
G1 X146.474 Y27.965 E1670.72752
G0 F10500 X146.734 Y27.615
G0 X147.851 Y27.289
;TYPE:SKIN
G1 F960 X147.147 Y26.585 E1670.75718
G0 F10500 X147.146 Y25.877
G1 F960 X148.145 Y26.877 E1670.79927
G0 F10500 X148.145 Y26.170
G1 F960 X147.146 Y25.170 E1670.84137
G0 F10500 X147.225 Y24.542
G1 F960 X148.145 Y25.462 E1670.88012
G0 F10500 X148.145 Y24.755
G1 F960 X147.933 Y24.542 E1670.88907
G1 F600 E1669.38907
G1 Z14.205
G0 F10500 X148.321 Y132.574
;TYPE:WALL-INNER
G1 Z14.105
G1 F600 E1670.88907
G1 F660 X148.322 Y135.671 E1670.98131
G1 X146.974 Y135.671 E1671.02146
G1 X146.973 Y132.574 E1671.11370
G1 X148.321 Y132.574 E1671.15385
G0 F10500 X148.821 Y132.074
;TYPE:WALL-OUTER
G1 F540 X148.822 Y136.171 E1671.27587
G1 X146.474 Y136.171 E1671.34580
G1 X146.474 Y132.074 E1671.46783
G1 X148.821 Y132.074 E1671.53773
G0 F10500 X147.952 Y132.749
;TYPE:SKIN
G1 F960 X148.145 Y132.943 E1671.54588
G0 F10500 X148.145 Y133.650
G1 F960 X147.245 Y132.749 E1671.58381
G0 F10500 X147.147 Y133.358
G1 F960 X148.145 Y134.357 E1671.62586
G0 F10500 X148.145 Y135.064
G1 F960 X147.147 Y134.066 E1671.66790
G0 F10500 X147.147 Y134.773
G1 F960 X147.870 Y135.495 E1671.69833
;LAYER:37
G1 F600 E1670.19833
G1 Z14.205
G0 F10500 X148.278 Y27.465 Z14.485
;TYPE:WALL-INNER
G1 Z14.485
G1 F600 E1671.69833
G1 F660 X147.213 Y27.465 E1671.73005
G1 X147.212 Y24.368 E1671.82229
G1 X148.277 Y24.368 E1671.85401
G1 X148.278 Y27.465 E1671.94625
G0 F10500 X148.778 Y27.965
;TYPE:WALL-OUTER
G1 F540 X146.713 Y27.965 E1672.00775
G1 X146.712 Y23.868 E1672.12977
G1 X148.777 Y23.868 E1672.19128
G1 X148.778 Y27.965 E1672.31330
G0 F10500 X148.101 Y26.907
;TYPE:SKIN
G1 F960 X147.718 Y27.290 E1672.32943
G0 F10500 X147.387 Y26.914
G1 F960 X148.101 Y26.200 E1672.35950
G0 F10500 X148.101 Y25.493
G1 F960 X147.387 Y26.207 E1672.38958
G0 F10500 X147.386 Y25.501
G1 F960 X148.101 Y24.786 E1672.41969
G0 F10500 X147.637 Y24.542
G1 F960 X147.386 Y24.793 E1672.43027
G1 F600 E1670.93027
G1 Z14.585
G0 F10500 X147.212 Y132.574
;TYPE:WALL-INNER
G1 Z14.485
G1 F600 E1672.43027
G1 F660 X148.277 Y132.574 E1672.46198
G1 X148.278 Y135.671 E1672.55422
G1 X147.213 Y135.671 E1672.58594
G1 X147.212 Y132.574 E1672.67818
G0 F10500 X146.712 Y132.074
;TYPE:WALL-OUTER
G1 F540 X148.777 Y132.074 E1672.73968
G1 X148.778 Y136.171 E1672.86171
G1 X146.713 Y136.171 E1672.92321
G1 X146.712 Y132.074 E1673.04523
G0 F10500 X147.387 Y132.980
;TYPE:SKIN
G1 F960 X147.619 Y132.748 E1673.05500
G0 F10500 X148.101 Y132.973
G1 F960 X147.387 Y133.687 E1673.08508
G0 F10500 X147.387 Y134.394
G1 F960 X148.101 Y133.680 E1673.11515
G0 F10500 X148.101 Y134.387
G1 F960 X147.387 Y135.101 E1673.14523
G0 F10500 X147.699 Y135.496
G1 F960 X148.101 Y135.094 E1673.16216
;LAYER:38
G1 F600 E1671.66216
G1 Z14.585
G0 F10500 X147.456 Y27.965 Z14.865
;TYPE:WALL-OUTER
G1 Z14.865
G1 F600 E1673.16216
G1 F540 X146.952 Y27.965 E1673.17717
G1 X146.951 Y23.868 E1673.29919
G1 X147.456 Y23.868 E1673.31423
G1 X147.456 Y27.965 E1673.43625
G1 F600 E1671.93625
G1 Z14.965
G0 F10500 X147.456 Y132.074
G1 Z14.865
G1 F600 E1673.43625
G1 F540 X147.456 Y136.171 E1673.55828
G1 X146.952 Y136.171 E1673.57329
G1 X146.951 Y132.074 E1673.69531
G1 X147.456 Y132.074 E1673.71035
M107
G1 F600 E1672.21035
G1 Z14.965
G0 F10500 X147.456 Y132.074 Z19.852
M400
M104 S0                                      ; hotend off
M140 S0                                      ; heated bed heater off (if you have it)
M107                                         ; fans off
G92 E5                                       ; set extruder to 5mm for retract on print end
G1 X5 Y5 Z158 E0 F10000                      ; move to cooling positioning
M190 R50                                     ; wait for bed to cool
M140 S0                                      ;
G1 X145 F1000                                ; move to cooling positioning
G1 Y175 F1000                                ; move to cooling positioning
M84                                          ; steppers off
G90                                          ; absolute positioning
